P2
512 512
255
255
162
163
159
168
146
171
154
175
158
164
163
142
174
162
148
160
150
166
168
145
160
149
164
145
164
153
146
162
152
152
160
148
165
147
167
147
183
147
172
167
163
161
179
166
181
174
165
174
177
154
190
162
171
158
174
132
144
171
137
131
109
129
103
88
100
93
94
75
100
116
81
115
94
109
105
105
106
97
116
112
107
108
104
98
114
109
110
109
104
104
108
113
110
103
111
108
111
112
110
98
108
104
109
108
106
132
102
110
120
126
124
95
133
119
120
131
120
117
128
115
138
134
118
116
127
138
129
136
120
147
124
124
134
135
115
141
144
125
139
128
134
123
128
146
115
135
116
143
128
126
136
122
136
128
120
144
128
141
138
116
144
121
142
131
132
134
139
126
141
125
142
134
129
134
130
142
129
135
136
129
136
128
132
132
135
142
132
134
127
137
125
138
141
125
137
136
142
124
145
135
136
127
143
132
141
127
127
155
125
122
152
132
130
124
136
135
116
136
130
134
132
124
136
133
118
144
131
131
141
126
132
134
135
127
138
126
132
129
132
141
134
127
141
126
139
129
149
124
131
129
139
125
125
132
143
134
154
128
130
135
127
127
123
137
140
121
133
137
134
132
124
132
121
134
139
116
129
141
138
126
126
121
137
120
132
144
121
119
139
133
122
138
119
141
116
129
136
120
131
121
143
117
140
110
127
127
120
114
126
122
119
118
114
106
113
127
98
98
103
97
116
118
116
116
139
134
142
136
149
142
154
156
150
148
165
159
155
172
149
167
166
149
162
141
143
162
140
162
148
147
163
141
165
156
144
163
157
152
149
164
162
151
164
151
154
143
167
151
146
159
148
157
153
150
155
152
150
144
169
150
156
150
151
150
164
147
162
159
159
151
152
154
164
160
163
155
155
160
145
158
152
142
181
201
196
212
207
214
210
210
215
221
218
218
216
226
217
213
209
200
172
162
107
93
110
94
104
98
124
91
118
118
116
123
113
122
114
122
121
137
117
119
112
118
134
120
110
129
118
125
138
116
113
132
110
121
128
125
115
125
120
119
126
119
121
145
101
128
130
120
128
125
132
119
122
124
133
111
108
144
112
130
126
122
140
116
128
130
110
144
116
127
136
107
136
98
133
108
123
120
107
121
115
125
181
173
168
174
184
167
229
162
0
1
0
6
0
8
0
9
0
2
3
0
11
2
0
3
0
5
7
0
4
0
7
0
7
0
0
6
0
0
4
0
7
0
7
0
16
0
6
1
0
0
7
0
6
1
0
2
5
0
15
0
4
0
13
0
0
18
0
1
0
11
0
0
3
0
2
0
3
13
0
11
0
4
0
0
1
0
6
2
0
1
0
0
5
0
1
1
0
0
0
3
1
0
2
0
1
2
2
0
2
0
1
0
0
14
0
0
2
5
5
0
11
0
0
6
0
0
4
0
8
5
0
0
0
6
0
4
0
12
0
0
3
4
0
6
7
0
5
0
3
0
0
12
0
6
0
10
0
0
5
0
5
0
0
9
0
5
4
0
10
0
7
0
0
0
4
0
6
0
6
0
0
1
0
6
0
1
2
0
3
0
0
0
0
5
0
1
0
4
0
3
5
0
2
0
5
0
7
0
1
0
6
0
5
0
0
15
0
0
13
0
0
0
4
4
0
5
0
2
1
0
4
2
0
9
0
0
6
0
0
1
2
0
5
0
1
0
0
5
0
0
6
0
4
0
11
0
0
0
6
0
0
0
5
0
12
0
0
3
0
0
0
4
6
0
1
3
1
1
0
3
0
3
7
0
0
6
4
0
0
0
7
0
1
10
0
0
7
2
0
7
0
10
0
1
6
0
3
0
11
0
11
0
3
3
0
0
4
1
0
1
0
0
0
12
0
0
0
0
4
2
0
0
7
0
3
0
4
0
3
3
0
0
6
0
0
9
0
5
5
0
7
0
0
9
0
8
0
0
8
0
8
1
0
6
1
0
0
5
3
0
6
0
1
0
10
0
0
5
0
3
0
0
2
0
0
0
11
0
2
0
0
0
7
0
4
1
2
0
0
0
4
0
3
0
0
4
0
3
0
0
4
9
0
6
0
3
0
0
0
3
0
0
0
6
1
2
5
8
0
10
0
0
4
0
1
0
13
0
5
2
0
4
0
3
0
1
0
10
0
0
0
0
9
0
0
6
0
0
10
0
0
9
0
0
4
2
0
3
0
0
3
0
0
16
0
4
4
0
2
0
5
0
0
0
8
0
0
16
0
4
0
0
10
0
2
4
0
14
0
1
9
0
13
0
12
0
4
2
0
1
0
0
19
5
0
3
14
12
101
162
0
1
0
6
0
8
0
9
0
2
3
0
11
2
0
3
0
5
7
0
4
0
7
0
7
0
0
6
0
0
4
0
7
0
7
0
16
0
6
1
0
0
7
0
6
1
0
2
5
0
15
0
4
0
13
0
0
18
0
1
0
11
0
0
3
0
2
0
3
13
0
11
0
4
0
0
1
0
6
2
0
1
0
0
5
0
1
1
0
0
0
3
1
0
2
0
1
2
2
0
2
0
1
0
0
14
0
0
2
5
5
0
11
0
0
6
0
0
4
0
8
5
0
0
0
6
0
4
0
12
0
0
3
4
0
6
7
0
5
0
3
0
0
12
0
6
0
10
0
0
5
0
5
0
0
9
0
5
4
0
10
0
7
0
0
0
4
0
6
0
6
0
0
1
0
6
0
1
2
0
3
0
0
0
0
5
0
1
0
4
0
3
5
0
2
0
5
0
7
0
1
0
6
0
5
0
0
15
0
0
13
0
0
0
4
4
0
5
0
2
1
0
4
2
0
9
0
0
6
0
0
1
2
0
5
0
1
0
0
5
0
0
6
0
4
0
11
0
0
0
6
0
0
0
5
0
12
0
0
3
0
0
0
4
6
0
1
3
1
1
0
3
0
3
7
0
0
6
4
0
0
0
7
0
1
10
0
0
7
2
0
7
0
10
0
1
6
0
3
0
11
0
11
0
3
3
0
0
4
1
0
1
0
0
0
12
0
0
0
0
4
2
0
0
7
0
3
0
4
0
3
3
0
0
6
0
0
9
0
5
5
0
7
0
0
9
0
8
0
0
8
0
8
1
0
6
1
0
0
5
3
0
6
0
1
0
10
0
0
5
0
3
0
0
2
0
0
0
11
0
2
0
0
0
7
0
4
1
2
0
0
0
4
0
3
0
0
4
0
3
0
0
4
9
0
6
0
3
0
0
0
3
0
0
0
6
1
2
5
8
0
10
0
0
4
0
1
0
13
0
5
2
0
4
0
3
0
1
0
10
0
0
0
0
9
0
0
6
0
0
10
0
0
9
0
0
4
2
0
3
0
0
3
0
0
16
0
4
4
0
2
0
5
0
0
0
8
0
0
16
0
4
0
0
10
0
2
4
0
14
0
1
9
0
13
0
12
0
4
2
0
1
0
0
19
5
0
3
14
12
101
162
0
1
0
6
0
8
0
9
0
2
3
0
11
2
0
3
0
5
7
0
4
0
7
0
7
0
0
6
0
0
4
0
7
0
7
0
16
0
6
1
0
0
7
0
6
1
0
2
5
0
15
0
4
0
13
0
0
18
0
1
0
11
0
0
3
0
2
0
3
13
0
11
0
4
0
0
1
0
6
2
0
1
0
0
5
0
1
1
0
0
0
3
1
0
2
0
1
2
2
0
2
0
1
0
0
14
0
0
2
5
5
0
11
0
0
6
0
0
4
0
8
5
0
0
0
6
0
4
0
12
0
0
3
4
0
6
7
0
5
0
3
0
0
12
0
6
0
10
0
0
5
0
5
0
0
9
0
5
4
0
10
0
7
0
0
0
4
0
6
0
6
0
0
1
0
6
0
1
2
0
3
0
0
0
0
5
0
1
0
4
0
3
5
0
2
0
5
0
7
0
1
0
6
0
5
0
0
15
0
0
13
0
0
0
4
4
0
5
0
2
1
0
4
2
0
9
0
0
6
0
0
1
2
0
5
0
1
0
0
5
0
0
6
0
4
0
11
0
0
0
6
0
0
0
5
0
12
0
0
3
0
0
0
4
6
0
1
3
1
1
0
3
0
3
7
0
0
6
4
0
0
0
7
0
1
10
0
0
7
2
0
7
0
10
0
1
6
0
3
0
11
0
11
0
3
3
0
0
4
1
0
1
0
0
0
12
0
0
0
0
4
2
0
0
7
0
3
0
4
0
3
3
0
0
6
0
0
9
0
5
5
0
7
0
0
9
0
8
0
0
8
0
8
1
0
6
1
0
0
5
3
0
6
0
1
0
10
0
0
5
0
3
0
0
2
0
0
0
11
0
2
0
0
0
7
0
4
1
2
0
0
0
4
0
3
0
0
4
0
3
0
0
4
9
0
6
0
3
0
0
0
3
0
0
0
6
1
2
5
8
0
10
0
0
4
0
1
0
13
0
5
2
0
4
0
3
0
1
0
10
0
0
0
0
9
0
0
6
0
0
10
0
0
9
0
0
4
2
0
3
0
0
3
0
0
16
0
4
4
0
2
0
5
0
0
0
8
0
0
16
0
4
0
0
10
0
2
4
0
14
0
1
9
0
13
0
12
0
4
2
0
1
0
0
19
5
0
3
14
12
101
160
0
5
4
7
0
12
0
14
0
9
4
0
20
6
0
4
0
13
11
0
7
0
14
0
8
0
0
6
0
0
3
0
12
0
16
0
24
0
7
2
0
0
9
0
8
0
0
4
1
0
19
0
4
0
16
0
0
27
8
8
0
18
0
0
4
1
0
0
5
20
0
13
0
10
5
0
2
0
10
7
0
0
0
0
8
5
2
3
4
0
4
7
2
0
9
0
7
1
7
0
1
0
5
0
0
21
0
0
5
8
4
0
11
0
0
7
0
0
0
0
16
9
0
0
3
13
5
6
0
16
0
0
4
6
0
8
11
0
11
0
3
0
0
14
0
7
0
13
0
0
6
0
7
0
0
7
0
6
5
0
9
0
5
0
0
0
3
0
7
0
5
0
0
0
0
8
0
0
2
0
4
1
0
0
9
12
0
3
0
4
0
4
8
0
4
3
8
0
15
0
2
0
10
0
8
0
0
24
0
0
15
4
0
0
7
8
0
8
0
3
1
0
4
1
0
18
0
0
3
0
9
5
5
0
8
0
4
1
0
11
1
0
6
0
8
0
20
0
0
1
10
0
0
0
13
2
18
0
0
3
0
0
0
3
12
0
3
11
5
2
0
4
0
3
9
0
0
7
6
3
4
0
9
0
5
13
0
0
13
2
0
9
0
14
0
3
5
0
2
0
16
0
15
0
7
5
0
0
2
3
3
4
0
0
5
16
0
0
0
0
6
9
0
0
11
6
3
0
5
0
3
5
1
0
10
2
0
13
0
8
9
0
9
0
0
11
0
10
0
0
12
0
12
1
0
9
1
1
0
10
10
0
6
0
0
0
15
0
0
8
0
5
1
0
0
2
0
0
16
0
0
0
0
0
9
0
8
3
1
0
0
0
10
5
6
0
0
6
0
8
0
0
12
15
2
12
0
5
0
0
0
5
0
0
0
8
0
0
0
0
0
0
0
0
7
0
0
0
19
0
7
7
0
7
0
5
0
2
0
17
0
0
0
1
12
0
0
7
0
2
16
0
0
14
0
5
3
4
0
3
0
0
0
0
0
20
0
1
8
0
3
0
9
0
0
0
10
0
0
17
0
9
2
0
13
0
4
2
0
14
0
3
11
0
13
0
18
0
0
0
0
0
0
0
38
25
22
35
60
64
152
170
12
0
0
8
0
0
3
0
0
0
4
0
0
0
0
4
0
0
8
0
1
0
0
11
3
0
0
11
0
4
0
6
0
0
0
1
0
0
2
0
5
7
0
0
0
16
0
0
18
1
3
0
9
0
7
0
1
9
0
0
0
0
14
8
0
0
13
0
0
0
0
9
6
0
0
19
0
0
0
0
8
7
4
0
10
0
11
10
0
6
0
0
4
2
0
13
0
20
0
4
4
12
0
0
7
0
2
14
0
1
4
9
7
0
0
0
0
0
18
4
0
4
7
0
0
0
0
0
13
0
0
11
0
3
0
11
0
0
0
18
0
4
12
5
0
0
3
0
11
1
4
0
0
0
0
19
5
6
3
0
11
0
10
0
13
8
4
2
0
0
13
0
8
5
0
1
0
19
2
0
6
0
11
15
0
0
3
0
0
1
11
0
0
0
0
0
3
0
0
4
0
12
0
0
4
0
15
0
4
7
9
0
3
0
4
0
0
0
12
0
0
0
7
7
0
0
1
0
18
0
0
0
0
0
2
2
0
0
22
0
3
0
7
0
0
9
0
0
14
0
0
0
0
10
0
0
1
0
6
0
0
16
0
19
0
11
4
0
0
0
15
0
3
3
0
0
0
14
10
0
0
0
0
22
0
0
10
0
0
6
8
0
20
0
3
0
10
0
4
0
0
1
0
3
0
0
3
7
5
0
0
0
0
29
0
6
0
10
2
0
16
0
13
0
4
0
19
0
6
0
6
7
0
1
0
0
12
0
21
0
0
16
0
0
3
0
8
0
0
10
0
0
3
7
0
0
14
0
1
0
0
3
7
0
1
6
0
0
9
0
0
0
0
0
7
0
12
0
0
12
16
5
0
2
5
0
0
0
10
0
1
13
0
0
0
4
1
0
0
0
0
0
0
15
0
0
12
0
3
5
1
0
3
1
0
0
8
4
5
8
14
0
8
0
0
0
14
0
0
18
3
0
19
0
11
0
0
2
6
0
11
2
14
0
2
0
12
0
5
0
0
0
18
0
3
0
18
0
0
3
0
2
7
7
0
1
0
11
0
0
5
12
0
0
21
0
3
0
0
18
0
0
0
10
0
12
0
13
0
13
0
0
2
0
5
5
0
0
10
0
0
6
0
11
0
14
16
23
5
0
19
157
0
21
0
1
11
3
0
0
13
0
20
0
2
8
0
0
23
0
0
21
0
13
0
0
0
0
8
0
0
0
18
4
0
7
0
9
0
6
5
6
0
0
4
0
0
0
11
0
0
0
0
1
7
0
5
0
0
0
0
0
35
0
4
0
16
0
18
0
32
0
17
0
0
0
15
0
7
19
0
0
0
11
0
21
0
11
0
0
3
0
17
4
12
0
14
0
6
0
0
0
0
37
0
5
0
1
0
15
15
0
5
0
0
0
0
18
0
3
0
0
11
0
9
0
0
14
15
14
0
0
0
9
24
0
7
0
21
0
11
5
0
0
0
15
0
12
5
0
0
5
0
0
23
2
0
0
0
0
0
16
0
14
0
6
0
6
0
0
3
7
0
3
0
17
0
1
10
0
0
11
0
19
0
12
0
0
0
2
0
9
0
15
0
10
1
3
0
6
0
11
4
0
2
12
0
6
0
9
0
0
18
0
21
0
0
8
7
0
0
3
16
0
0
6
0
8
0
12
17
0
0
11
0
8
0
4
7
0
0
0
7
0
10
0
7
4
0
8
0
1
0
3
14
0
0
0
3
4
0
7
0
0
0
10
0
9
0
0
1
4
2
0
0
17
0
2
0
0
0
0
9
5
0
0
6
13
0
15
0
3
0
0
0
0
0
3
1
4
1
7
0
0
0
0
0
10
1
2
17
0
0
3
0
0
1
4
0
0
0
2
0
14
0
0
6
0
0
0
0
0
15
0
0
4
7
6
0
0
0
17
0
0
3
1
0
6
0
2
5
0
0
8
0
16
0
23
0
11
0
16
2
0
0
0
0
0
0
0
0
0
5
0
7
7
10
4
0
14
0
0
0
0
0
7
0
0
18
0
0
8
0
0
0
4
6
0
6
0
5
0
0
0
0
0
25
6
0
0
5
0
0
2
1
0
8
5
2
4
2
4
10
12
3
4
0
17
0
0
0
5
0
5
6
0
0
2
22
0
0
4
7
3
0
6
2
19
0
2
4
3
14
0
0
0
0
19
0
13
0
20
0
0
18
0
0
0
9
12
0
13
0
0
2
0
6
5
0
13
2
0
3
15
0
0
7
0
0
0
0
0
0
0
0
8
3
0
4
0
13
0
0
12
9
3
19
15
19
0
0
0
44
162
7
0
0
0
0
0
0
0
7
9
2
0
0
0
0
7
0
1
0
0
2
0
0
0
0
4
0
2
3
0
0
0
11
0
0
0
0
4
0
3
2
0
0
14
4
7
0
0
19
0
15
0
0
15
0
1
22
0
6
0
0
8
11
0
0
4
0
0
0
0
0
0
11
0
0
0
17
0
18
4
0
0
0
0
13
0
15
0
5
0
0
7
0
1
10
0
0
0
4
5
0
0
0
1
7
3
0
0
0
0
4
7
2
12
2
4
18
5
0
14
0
0
0
25
0
0
0
0
19
0
0
0
0
0
3
0
0
0
7
0
8
21
0
3
17
2
7
0
14
0
6
11
0
0
0
14
6
0
0
0
0
0
1
0
4
1
0
15
0
0
0
0
13
0
0
0
1
0
0
0
11
0
7
0
8
0
5
0
0
0
16
0
16
0
9
0
0
0
5
0
0
0
8
0
12
9
0
16
25
0
0
28
3
0
0
25
0
7
2
6
0
0
0
0
0
9
17
0
0
0
0
0
12
0
0
0
4
8
0
9
2
1
0
4
2
6
0
2
11
0
0
0
7
0
4
2
13
0
3
0
9
1
7
0
0
2
5
2
0
15
0
0
14
0
2
0
11
4
5
0
8
0
30
0
3
8
0
0
7
0
5
5
14
0
8
1
4
0
11
0
0
18
0
9
0
0
0
0
1
2
0
19
0
3
17
2
0
0
21
0
0
14
5
12
1
0
18
0
7
1
0
4
21
0
0
0
2
0
17
0
0
13
0
13
12
0
6
0
0
12
6
0
5
0
0
1
0
1
0
4
0
0
20
1
0
2
0
10
0
0
3
1
0
2
0
5
2
0
4
9
0
0
0
0
0
8
0
6
0
0
0
23
0
4
5
4
0
7
0
14
0
0
0
0
0
10
7
2
0
0
9
2
0
2
0
1
0
3
5
2
9
4
14
0
7
0
0
7
0
15
0
10
0
10
0
4
2
0
0
6
0
2
0
12
0
5
0
0
0
8
0
22
0
17
2
0
15
0
7
0
5
13
0
0
0
12
6
0
19
4
0
7
1
0
13
0
0
8
0
0
0
0
8
0
1
14
11
0
4
5
14
0
4
0
3
0
3
0
9
8
0
5
18
17
0
0
0
6
0
12
26
151
0
7
0
5
11
0
0
18
0
2
5
12
0
3
14
0
0
26
7
6
0
12
0
12
5
0
3
0
0
15
0
4
1
0
0
8
0
19
0
7
0
26
0
5
0
0
10
8
0
0
7
0
0
9
0
0
14
0
19
0
4
0
33
0
1
0
0
0
10
8
9
0
26
0
8
10
0
4
0
0
23
7
0
14
0
12
2
0
0
12
1
9
0
18
0
0
9
38
0
8
4
0
29
0
11
0
9
0
0
14
0
1
2
0
12
0
0
12
0
5
0
24
0
0
2
14
6
0
0
0
4
8
0
14
6
9
0
13
5
2
7
0
0
8
0
0
8
0
0
11
0
0
0
11
0
0
16
0
35
0
9
2
0
4
1
0
4
0
4
0
20
0
0
4
0
2
0
13
0
9
0
5
5
0
0
35
0
18
0
9
0
0
0
12
2
4
8
0
6
8
0
6
0
0
24
0
13
5
0
15
0
4
0
16
10
0
0
0
10
0
0
7
1
0
7
7
0
32
0
10
6
0
7
9
9
10
2
4
0
1
12
0
8
0
0
6
8
0
0
11
0
14
5
11
0
0
0
14
0
9
3
0
0
9
0
0
11
4
0
3
7
0
0
21
0
4
0
13
4
0
0
12
0
19
0
9
0
1
4
7
0
0
0
5
4
2
7
7
0
4
0
13
0
6
15
0
18
9
0
13
0
0
0
3
0
1
11
16
0
0
0
4
0
4
0
0
9
2
0
0
21
0
15
0
2
0
4
0
0
10
0
0
0
0
5
0
0
3
1
0
0
4
0
2
8
0
10
0
2
0
14
1
12
0
9
7
14
0
7
8
0
8
14
0
2
0
5
0
2
0
6
11
5
0
9
3
0
1
3
6
0
0
4
0
0
0
0
10
0
0
8
1
0
0
0
7
1
4
0
8
0
0
6
0
6
0
0
8
0
8
0
10
3
14
0
0
0
0
18
2
0
7
0
7
0
0
0
24
1
0
25
0
10
0
5
16
0
0
10
0
0
0
13
0
8
0
0
2
3
0
5
2
0
5
4
0
0
1
3
0
0
3
8
0
2
0
4
0
0
14
3
0
0
7
11
0
8
0
6
1
0
2
8
0
0
10
13
0
1
2
20
23
0
0
0
0
0
0
0
0
58
154
0
1
2
0
0
0
3
10
0
0
0
0
6
5
0
7
0
0
0
0
8
0
0
0
5
0
6
3
0
5
14
0
0
0
19
6
1
0
0
5
0
0
0
0
11
0
7
3
10
3
0
23
0
0
12
11
0
12
0
0
6
2
0
0
4
0
11
0
2
0
0
5
0
15
8
0
0
0
0
21
0
6
0
0
7
0
27
1
0
2
1
3
2
0
2
0
12
0
0
0
18
0
0
0
0
0
17
2
3
0
0
0
0
20
0
0
6
16
0
1
9
0
0
12
0
0
3
0
11
0
7
0
3
7
0
0
0
0
0
2
0
28
0
2
6
0
0
4
0
0
2
10
11
0
0
5
0
0
2
0
2
0
0
4
0
0
5
15
0
13
0
10
20
0
0
8
0
0
1
31
0
5
8
4
0
4
20
0
20
0
0
34
0
0
0
0
0
11
2
0
6
0
17
2
0
0
0
9
0
8
0
0
0
4
0
2
0
9
0
11
0
1
0
0
14
8
0
0
0
0
10
0
0
0
0
0
0
7
5
0
0
0
2
4
0
6
0
0
13
0
5
0
0
0
7
0
3
15
0
0
5
13
0
2
16
0
17
0
0
10
0
12
0
10
0
4
7
0
0
0
0
6
0
0
12
0
0
10
0
5
2
4
0
0
0
0
13
0
0
0
14
0
5
0
12
3
11
0
3
1
8
0
10
0
0
0
18
0
24
0
0
0
13
0
9
0
0
0
0
6
0
2
1
3
0
9
0
7
0
1
9
0
0
11
0
14
5
0
7
5
0
0
22
0
6
0
0
2
0
13
0
0
0
0
0
0
4
2
2
1
0
0
0
6
0
6
0
4
8
0
0
0
0
10
0
8
5
0
19
0
3
0
17
0
0
26
0
1
4
0
4
15
0
0
0
11
3
5
5
3
2
1
2
0
3
0
0
0
5
0
11
11
3
9
1
0
0
0
0
0
6
2
11
0
7
5
6
0
0
0
6
0
5
0
5
1
0
18
0
0
31
19
0
4
0
0
3
9
0
18
0
0
3
11
0
0
1
5
11
7
0
0
9
4
0
14
0
17
0
0
0
3
16
0
0
0
0
3
1
3
0
0
0
9
8
0
8
0
0
13
10
0
16
17
0
0
0
6
1
0
30
157
1
0
11
0
0
8
0
4
6
0
0
12
0
10
0
0
10
0
12
6
0
8
1
0
0
5
0
0
21
0
0
7
3
0
1
0
0
15
0
14
0
0
0
1
4
13
0
0
4
0
9
0
3
5
0
0
14
0
20
17
15
5
0
1
0
1
0
4
1
14
11
27
0
0
0
6
0
11
4
0
0
0
5
5
4
0
0
0
11
18
4
0
2
0
0
3
0
0
0
12
12
2
8
7
0
0
0
1
5
16
0
5
14
4
15
0
11
0
4
1
0
0
14
0
0
13
6
0
1
17
0
0
6
0
0
23
0
11
8
0
0
0
0
0
0
10
0
17
2
0
15
0
6
1
4
0
0
12
0
0
0
12
0
13
0
23
0
0
6
0
0
0
0
0
4
0
11
5
4
0
1
0
0
11
0
1
0
0
10
0
0
0
28
0
0
0
6
0
2
14
0
19
0
15
0
9
2
0
0
14
0
24
0
0
4
3
0
5
0
0
0
0
0
22
0
0
0
0
0
0
0
20
0
6
0
7
8
0
0
19
0
0
0
2
0
0
0
17
0
3
0
9
0
0
0
1
3
0
0
13
0
1
0
0
1
0
2
8
3
0
9
0
0
10
0
5
0
5
3
0
8
0
0
8
0
0
0
6
0
9
0
11
0
0
2
1
0
10
0
8
13
0
2
2
0
0
14
0
4
0
11
8
0
7
8
10
0
15
0
19
0
0
0
7
0
11
4
0
7
12
0
1
5
1
2
9
0
11
2
8
0
17
0
0
17
0
0
3
2
0
0
5
3
0
7
12
0
6
0
2
11
0
12
0
6
11
0
0
5
0
3
3
4
0
23
0
10
3
5
0
9
0
1
0
19
0
18
0
2
6
10
0
0
9
0
0
5
3
3
10
0
0
0
1
0
0
11
5
5
2
0
5
0
6
0
4
0
1
2
2
3
3
8
5
12
11
0
1
0
0
7
0
0
0
0
8
0
9
0
14
7
0
4
0
0
3
13
0
0
2
0
0
0
0
0
2
0
4
3
0
0
2
0
0
9
1
7
0
1
0
24
0
0
0
0
0
1
5
4
0
1
0
0
10
0
16
10
0
1
0
0
0
3
3
16
0
0
12
15
0
17
3
3
0
0
0
24
0
0
16
61
154
0
0
5
9
3
0
0
13
1
0
4
0
0
1
0
0
10
6
0
6
0
0
0
14
0
0
2
7
0
8
0
0
8
0
0
23
0
0
0
0
2
1
4
1
4
3
5
21
0
11
0
4
16
9
0
6
0
0
0
2
0
0
20
0
0
0
10
0
0
0
0
18
0
5
13
0
0
2
0
0
0
5
1
0
0
14
2
10
0
0
5
3
3
9
2
0
26
0
0
0
2
0
0
8
0
13
6
0
0
0
0
0
0
0
0
17
0
17
2
0
4
0
4
3
0
18
0
6
0
11
0
20
0
10
0
0
3
0
0
0
0
23
0
5
6
0
0
0
18
3
0
9
12
0
9
1
0
3
6
0
0
56
0
0
3
0
9
0
0
0
5
0
5
3
0
3
3
5
0
15
10
0
11
0
19
0
6
0
0
0
16
6
0
6
0
16
0
22
0
3
0
7
0
0
13
0
13
0
0
6
0
0
0
0
0
0
1
16
6
0
8
13
15
0
2
0
0
26
0
12
0
0
7
0
29
0
4
0
7
0
5
2
0
0
28
0
3
0
16
0
0
16
0
5
2
0
0
21
0
12
0
14
0
22
0
15
0
0
3
8
0
9
4
0
1
2
7
0
5
0
16
1
4
0
4
18
0
8
0
45
2
13
0
2
1
10
4
4
3
0
1
0
0
16
0
9
1
3
0
8
3
0
0
0
18
0
0
0
10
0
7
0
20
0
0
1
0
10
5
0
0
0
0
11
0
0
3
0
12
0
2
6
0
1
0
3
5
0
20
0
1
0
0
0
1
0
10
0
3
0
0
1
0
8
0
0
10
6
0
5
0
5
0
5
0
2
0
9
0
16
0
0
0
0
0
0
4
0
0
0
5
4
8
0
17
0
0
0
0
0
13
0
0
0
0
0
1
0
7
0
4
5
0
0
0
0
1
0
10
0
0
7
3
4
8
0
0
0
0
13
0
0
0
18
0
5
0
0
1
5
6
0
0
18
0
8
0
0
5
16
0
0
12
0
4
2
9
0
1
0
0
0
18
0
0
1
7
0
7
8
0
4
15
0
10
0
7
0
0
3
0
8
0
0
6
0
0
0
6
0
5
14
0
0
0
12
21
0
11
5
0
0
0
1
0
0
0
8
0
0
46
161
4
1
0
0
0
21
0
11
0
13
0
2
0
0
54
0
0
22
0
1
0
12
14
0
12
0
0
0
0
0
15
1
0
16
14
0
0
3
17
0
0
8
0
3
0
0
18
0
13
0
1
10
0
7
1
0
0
10
0
4
4
0
0
4
13
0
5
0
0
27
11
0
9
0
0
3
5
9
3
0
0
0
0
0
13
0
4
0
0
21
0
5
0
7
0
0
0
9
2
0
0
4
0
8
10
0
15
0
6
0
1
1
9
0
0
0
0
3
0
0
20
0
14
16
0
0
4
0
14
1
0
1
0
36
0
6
0
7
3
0
8
0
15
0
14
0
0
0
0
0
8
0
5
12
0
0
0
14
0
6
21
0
34
10
12
0
3
8
0
0
1
0
0
7
2
0
0
4
0
0
0
16
0
12
0
0
10
0
6
0
0
0
18
0
4
0
2
0
0
17
0
0
0
20
0
9
0
0
2
10
0
0
20
0
11
0
7
0
0
6
0
0
12
0
10
7
0
0
0
2
13
0
1
18
0
4
3
0
8
0
10
0
13
0
0
0
14
0
9
0
0
29
0
3
4
5
0
1
0
0
2
11
0
0
26
4
3
0
7
0
2
0
3
0
15
0
9
0
0
8
0
1
13
4
0
25
0
4
29
0
33
0
0
0
2
0
0
12
0
14
11
0
0
0
21
3
0
0
0
0
9
0
4
0
5
8
10
0
2
0
11
0
0
0
0
0
17
0
0
0
21
0
16
0
8
0
0
0
0
22
0
0
6
0
3
9
0
0
3
0
21
0
0
6
0
10
0
0
0
5
15
0
13
0
7
0
1
0
14
0
17
0
0
6
0
0
8
0
11
0
13
6
0
0
12
1
0
0
26
0
0
1
8
0
0
3
0
18
0
30
4
0
9
6
0
0
4
4
15
6
0
5
3
0
13
0
11
0
1
0
4
10
2
10
3
6
5
0
0
0
7
0
0
0
0
8
0
15
0
0
0
23
0
1
0
0
1
14
0
0
11
7
0
0
0
22
0
0
10
0
16
0
0
28
0
5
0
0
1
0
0
0
0
0
0
15
0
0
0
0
5
2
0
3
0
0
8
0
17
0
0
7
0
0
26
0
13
24
7
21
0
0
0
8
0
17
0
10
0
1
54
155
0
0
0
14
1
0
0
7
0
0
5
0
1
0
1
10
0
8
0
11
20
0
4
3
3
0
8
0
9
10
0
0
4
0
0
5
2
0
0
9
1
0
14
4
1
0
2
2
6
1
0
3
0
9
0
11
0
0
17
0
0
0
0
17
0
0
2
24
0
0
0
12
3
1
5
3
0
13
0
4
0
17
9
0
0
6
0
27
0
0
14
1
6
11
2
0
0
2
2
15
0
0
12
5
6
0
1
6
0
12
10
10
0
0
1
6
0
0
0
0
0
0
5
3
0
2
0
0
10
0
12
0
4
0
3
0
0
0
5
3
0
10
0
10
0
8
7
7
0
14
0
0
5
0
0
6
6
8
0
0
29
27
5
0
12
0
7
0
6
6
0
12
18
0
14
0
23
2
0
0
4
0
21
0
0
0
0
17
0
20
0
0
0
0
14
2
0
20
5
0
0
0
4
3
0
12
0
4
1
0
0
4
0
15
0
0
0
17
11
0
6
0
0
0
0
0
11
8
0
0
10
3
0
0
5
0
12
0
1
16
8
0
0
24
0
0
0
12
0
0
0
0
2
0
0
6
9
0
6
0
0
3
0
0
28
0
23
0
0
0
5
0
0
23
0
8
0
8
0
0
2
14
0
0
22
0
16
0
31
0
32
0
12
0
0
2
19
0
3
3
0
0
17
18
0
4
4
0
19
9
0
0
23
0
0
0
0
7
4
10
9
0
0
0
0
0
3
9
19
0
13
4
0
0
0
10
8
0
1
0
12
2
0
10
0
0
0
14
0
3
0
0
0
0
21
0
2
4
0
9
0
4
3
0
0
3
4
0
13
0
0
30
0
11
0
0
15
0
0
7
0
0
10
0
4
0
0
15
0
0
20
0
0
7
3
1
0
3
0
0
0
7
0
0
0
0
0
0
4
3
0
0
1
2
0
0
0
1
2
0
12
0
16
0
12
8
0
1
0
0
7
0
5
26
20
0
17
2
0
0
32
0
11
0
0
15
0
0
20
0
4
0
10
0
11
6
0
5
1
17
10
0
0
7
0
10
0
2
13
0
4
12
0
0
2
3
0
3
2
0
14
14
0
0
9
17
0
0
0
0
0
2
15
0
13
6
0
12
24
0
0
7
33
0
0
0
6
0
8
0
50
159
0
7
0
0
4
5
0
0
3
0
15
1
0
5
0
0
16
0
3
0
0
7
0
0
9
0
0
8
0
0
0
2
0
12
2
1
1
11
0
0
0
0
3
0
11
5
0
5
0
0
12
3
0
13
6
0
20
0
0
0
39
0
0
0
0
16
0
0
16
12
1
0
8
0
12
0
0
4
1
0
10
0
8
0
6
11
0
0
38
0
0
0
0
0
3
18
0
3
0
3
0
3
0
5
0
12
5
1
5
0
14
0
8
0
0
4
6
0
10
0
18
0
0
0
0
19
0
8
0
0
9
7
0
0
0
2
0
17
0
13
0
20
0
12
0
0
9
5
0
0
0
3
0
7
0
20
0
0
11
0
0
0
5
2
0
1
0
3
0
0
25
3
0
7
3
0
0
0
0
17
0
11
0
4
1
0
7
10
3
0
0
9
0
6
0
17
5
1
2
0
3
7
15
0
16
18
0
12
0
0
11
12
0
8
0
17
0
3
0
12
0
8
0
12
0
15
10
0
0
13
0
7
9
0
4
0
10
0
0
9
0
0
18
0
0
16
0
22
0
2
2
0
1
11
2
0
0
26
0
3
3
2
2
0
0
0
0
23
0
0
10
0
0
12
0
4
0
0
15
0
0
11
0
0
0
0
0
5
8
13
20
0
1
8
0
21
2
0
7
0
27
0
0
0
0
0
22
0
0
0
1
3
0
17
0
16
0
0
27
0
0
1
10
0
0
7
0
2
0
0
2
3
4
7
0
0
0
6
0
0
6
0
19
0
0
12
2
1
1
0
2
2
9
1
1
0
0
14
6
2
0
9
6
5
10
0
0
0
0
6
6
0
0
0
7
4
0
10
6
0
3
0
2
0
6
0
0
0
0
0
0
11
0
5
3
0
3
2
4
0
0
15
4
3
13
0
0
2
6
11
1
10
0
6
5
0
2
1
0
0
0
6
0
4
8
10
21
0
0
0
6
3
0
0
0
1
3
2
0
5
2
0
0
8
0
5
0
18
5
0
6
6
0
0
0
8
0
0
0
0
0
15
0
4
0
0
0
0
9
4
0
0
11
4
0
18
6
0
7
4
0
0
3
0
0
0
2
0
17
0
2
0
11
8
7
1
10
14
0
0
0
0
70
0
4
12
0
20
9
0
57
160
1
7
2
0
6
1
0
7
3
11
8
0
2
0
61
0
0
5
4
2
2
0
9
0
14
0
26
0
9
0
1
13
0
0
2
4
0
6
5
2
6
12
2
0
0
0
10
5
0
8
0
2
0
0
8
0
8
0
0
0
0
0
26
2
0
7
0
9
1
0
0
0
2
17
0
12
0
14
0
9
0
15
0
9
3
0
0
0
0
9
0
3
2
0
0
12
12
0
0
0
9
1
9
8
1
0
0
0
0
19
0
2
0
0
0
0
0
3
4
13
0
18
0
9
2
19
0
0
0
10
0
2
12
12
0
0
12
6
0
0
14
0
25
0
0
23
0
0
3
0
7
0
1
3
0
0
18
8
0
0
10
9
0
0
17
0
1
0
3
12
0
0
17
0
0
9
2
0
0
0
0
0
0
0
0
0
22
0
7
0
19
0
9
0
21
0
0
14
0
1
0
0
8
5
0
0
0
0
7
0
10
0
22
0
8
0
2
0
0
0
0
20
0
1
13
0
0
7
3
0
8
0
0
19
8
0
4
0
7
0
0
0
2
0
5
0
10
4
0
0
0
16
16
0
0
7
0
0
16
0
12
0
5
0
9
8
10
1
0
0
10
0
4
0
0
0
6
1
0
7
7
0
10
4
9
1
17
0
2
20
0
0
5
4
4
0
0
0
26
0
0
5
10
10
22
0
7
4
0
4
0
0
0
3
0
7
0
47
0
10
19
0
0
0
10
0
5
0
4
6
12
0
5
2
2
6
10
0
0
11
0
10
0
3
0
0
9
0
0
13
3
4
0
6
0
5
0
0
0
6
6
5
0
0
0
0
4
1
14
0
0
0
6
0
0
12
0
3
0
7
0
11
8
0
0
31
2
0
0
2
0
0
5
0
0
0
8
0
2
9
0
0
9
0
0
4
0
0
7
7
1
0
0
0
0
1
0
3
2
0
0
3
7
0
4
0
14
0
15
0
0
0
14
0
14
0
0
0
0
16
0
14
0
0
7
9
16
0
0
8
0
12
13
0
2
0
0
4
17
6
10
0
5
12
0
9
5
0
0
14
0
1
6
1
0
0
0
14
0
7
0
1
0
17
0
3
9
0
4
0
12
25
15
3
6
9
7
0
0
7
0
0
0
0
0
0
0
24
0
28
33
153
0
0
1
5
0
12
0
0
2
0
0
11
2
0
0
0
8
0
14
0
9
0
8
5
0
0
8
0
0
17
0
0
0
3
0
18
0
3
0
0
2
3
0
2
0
9
0
5
9
12
0
0
9
8
2
0
2
22
1
23
21
0
0
3
3
0
0
12
0
8
0
5
0
0
8
0
5
0
0
0
20
14
0
14
0
19
12
0
11
0
0
18
0
22
0
0
1
4
12
0
0
7
0
0
8
1
0
7
0
0
0
0
14
3
14
0
13
3
1
0
24
0
18
0
0
7
0
9
0
8
2
0
0
2
0
0
0
4
0
9
0
12
0
20
0
0
0
0
21
0
0
2
6
0
25
0
0
0
10
0
6
0
16
9
0
5
11
0
0
34
0
9
0
5
12
0
8
6
1
1
8
12
0
22
0
0
6
2
0
0
3
0
0
2
0
0
4
0
1
0
7
0
0
7
0
6
6
0
8
0
7
6
0
0
0
13
0
19
1
6
1
0
0
0
0
7
13
0
0
7
3
0
17
0
0
3
0
5
0
11
0
13
2
0
0
19
1
0
7
1
5
1
0
0
0
2
1
9
0
0
17
0
0
0
0
0
0
7
0
0
0
13
1
7
0
3
3
0
3
14
0
0
2
5
0
6
0
6
0
0
0
9
0
0
0
0
2
0
0
0
0
0
1
0
1
0
11
0
0
0
26
0
14
15
0
0
0
12
25
0
0
7
6
3
0
0
0
8
3
0
0
0
7
0
1
3
0
9
0
0
16
0
6
0
8
11
17
0
8
0
0
0
4
8
0
9
0
0
14
0
0
0
22
0
4
18
0
3
0
6
0
11
2
4
14
2
0
0
0
0
7
0
0
4
0
0
1
3
7
0
1
16
0
0
5
3
0
0
5
0
8
0
0
0
12
16
0
0
0
0
18
2
6
1
0
3
0
0
5
5
1
3
0
12
0
8
10
14
4
0
0
0
3
0
0
24
0
0
1
21
0
1
0
0
0
0
2
10
8
0
0
2
1
0
8
0
21
0
0
0
0
22
0
0
18
0
5
4
5
0
0
0
7
0
15
7
3
0
16
0
10
14
0
3
5
8
0
2
0
22
1
11
0
12
0
10
0
0
0
7
0
0
19
0
5
4
9
0
0
1
62
158
3
0
2
10
0
0
3
0
7
12
8
0
3
0
0
0
0
0
0
7
0
7
0
7
0
10
0
0
7
8
0
0
4
0
10
0
0
0
1
0
0
0
3
0
11
0
3
0
0
0
5
0
8
0
0
12
0
0
0
0
0
0
9
0
0
6
13
0
0
7
11
0
0
19
0
42
0
2
0
24
0
0
0
0
0
1
11
13
0
6
12
0
8
16
3
0
7
0
0
3
7
0
0
9
0
1
0
0
4
0
20
0
0
0
2
0
11
0
14
10
0
3
0
0
28
0
0
6
1
0
0
0
0
5
15
1
10
0
11
0
2
2
0
0
0
7
4
6
0
5
2
1
6
17
0
8
0
3
0
3
0
0
8
8
0
11
0
16
0
0
8
0
5
0
0
45
3
0
0
0
11
0
3
4
0
0
3
2
19
1
0
13
0
0
7
0
44
0
3
6
0
0
0
3
4
6
5
0
9
6
14
0
10
7
0
24
0
0
8
13
0
21
0
7
3
2
0
0
19
0
0
8
3
0
5
12
0
0
3
0
14
7
0
4
0
1
1
0
0
0
1
0
3
4
0
0
24
0
9
0
0
0
3
11
4
6
0
0
0
18
7
0
25
2
0
0
3
5
2
0
9
0
0
0
12
0
4
9
0
15
0
0
9
0
0
11
1
9
10
0
32
0
16
2
0
3
6
6
14
5
0
0
0
0
2
0
1
13
0
2
0
27
0
15
0
8
0
6
0
0
0
25
0
37
0
10
0
0
0
13
0
0
15
1
0
0
0
0
8
8
2
0
6
0
0
0
2
0
1
0
13
0
1
0
4
0
10
0
16
6
0
8
9
0
0
0
0
14
2
0
3
4
8
0
0
7
0
13
9
0
0
11
0
3
0
4
12
0
0
0
0
0
8
1
0
0
10
0
0
11
4
3
10
0
1
5
7
0
0
0
8
0
5
3
0
5
10
0
23
0
0
0
0
35
1
0
0
6
1
0
3
5
0
12
9
5
0
2
0
14
0
4
0
23
0
1
0
5
6
5
0
15
0
0
0
5
0
5
2
9
22
0
0
9
0
0
0
0
6
0
0
0
10
0
9
0
0
3
7
0
10
9
17
0
11
0
0
0
17
0
3
13
0
9
11
0
3
0
0
0
64
160
1
15
0
4
3
0
0
11
0
0
0
0
8
14
0
6
2
5
13
0
0
0
2
0
11
0
12
13
4
0
0
14
1
3
0
6
3
0
8
0
10
0
0
2
8
0
0
19
0
4
0
12
0
0
6
0
18
0
0
0
0
0
0
0
25
9
0
30
0
0
10
2
3
5
29
0
1
1
10
0
11
0
0
21
0
0
1
0
0
18
0
2
0
0
8
0
0
5
0
0
1
13
15
0
0
10
2
0
21
0
16
0
0
0
0
1
0
16
0
0
0
12
3
0
0
9
4
0
0
15
7
0
0
7
0
9
0
10
0
3
14
0
14
0
27
0
0
0
2
1
1
0
4
0
7
0
16
0
10
0
8
0
0
12
0
0
0
0
21
0
8
0
10
0
0
0
0
23
11
6
0
0
9
0
5
23
0
9
8
0
10
0
23
0
0
6
0
9
17
0
5
2
14
0
26
0
0
6
0
1
0
14
4
0
0
25
0
0
0
0
0
3
0
0
0
14
0
16
2
0
0
3
0
0
2
0
14
0
12
0
7
0
8
4
0
0
5
0
2
0
0
4
11
0
0
3
0
1
0
9
6
16
0
0
3
0
7
0
15
0
0
8
0
0
21
6
0
0
1
8
0
0
11
0
0
0
0
0
11
0
9
0
1
0
11
2
0
0
0
0
0
8
0
6
0
1
0
4
0
2
11
0
0
9
0
0
10
3
0
9
0
11
0
0
15
0
0
0
9
0
16
0
4
0
3
0
4
12
6
0
7
11
0
0
0
17
0
0
0
0
8
4
0
0
5
0
18
0
10
0
4
0
0
12
0
3
16
0
0
3
0
0
0
6
4
9
15
0
4
10
0
0
0
11
0
16
0
0
11
3
0
0
12
7
0
0
0
0
0
13
1
0
0
0
0
0
0
0
0
0
6
3
9
0
2
0
0
9
0
3
0
8
0
0
15
0
0
20
0
0
14
0
0
0
0
16
4
0
3
0
16
0
32
0
10
8
0
0
1
0
15
0
23
0
9
28
0
20
6
0
0
0
3
1
0
43
0
4
1
0
0
14
0
4
0
14
0
0
0
10
0
19
0
0
0
9
0
7
19
0
11
2
0
21
0
1
0
0
0
28
0
2
0
4
0
6
0
11
18
0
49
149
0
0
0
0
13
2
2
0
0
8
0
20
0
4
0
6
0
11
0
13
0
0
11
3
0
1
0
1
0
0
8
0
3
2
0
0
0
1
6
0
7
0
0
21
0
7
0
8
8
0
5
0
0
12
0
8
0
24
18
21
0
33
14
0
19
0
0
0
0
14
0
0
11
0
0
31
0
0
0
6
4
16
4
0
28
0
2
11
0
0
6
0
21
0
6
24
0
29
3
0
0
7
0
8
4
14
0
13
0
5
0
14
9
20
6
0
2
0
0
19
2
6
1
0
0
9
0
8
12
0
2
3
4
2
10
0
10
0
0
0
0
8
1
5
8
0
3
21
3
0
2
0
15
0
0
0
0
10
5
0
0
0
12
0
9
0
15
4
0
3
11
0
6
6
3
0
4
0
4
0
7
13
0
21
0
0
3
0
0
0
0
0
1
0
4
0
0
18
1
8
3
0
1
3
0
7
5
0
5
3
0
0
0
2
15
0
0
0
6
0
15
0
12
0
0
15
0
16
0
3
38
0
0
16
0
5
6
0
0
0
9
0
0
0
10
19
0
0
0
16
0
0
3
0
9
4
2
2
12
0
0
0
25
33
0
1
0
0
4
1
6
0
10
0
0
3
1
0
18
0
0
31
0
22
0
26
0
0
0
19
0
16
1
10
0
15
0
1
1
5
10
0
5
0
0
32
0
0
8
0
0
0
0
10
0
0
8
1
0
7
0
17
0
14
0
0
0
3
0
0
0
3
1
12
0
2
15
0
7
0
5
0
0
10
0
0
6
1
1
0
10
0
8
0
8
7
0
0
0
15
10
0
0
4
0
5
0
0
0
3
7
5
0
7
0
0
6
2
0
0
10
0
0
0
8
0
4
0
0
10
0
1
0
0
6
0
0
16
0
0
1
2
12
4
5
0
0
7
0
0
0
12
2
4
3
4
5
0
6
2
0
0
0
0
0
2
7
5
13
14
0
0
0
5
0
0
0
0
0
0
0
4
7
0
0
7
0
8
0
21
0
15
0
1
0
0
3
0
0
1
14
0
0
0
18
0
6
0
0
0
18
0
0
3
14
7
0
0
2
3
0
7
4
6
3
0
5
5
1
20
0
14
0
1
0
0
6
10
0
0
12
0
0
31
0
17
0
0
0
0
61
159
4
0
25
0
0
1
0
8
2
13
0
1
0
4
17
0
20
0
16
0
0
16
8
0
0
4
17
0
2
0
0
0
0
0
7
0
2
4
13
9
0
1
0
0
6
8
0
0
0
4
0
0
0
7
0
10
0
0
7
0
3
27
16
7
0
26
0
0
1
0
2
0
0
12
0
0
13
8
0
0
0
8
0
0
11
3
0
0
2
0
0
17
0
0
0
3
15
0
5
2
5
0
0
0
9
0
1
0
4
0
0
13
0
0
0
0
2
0
4
12
0
7
0
6
0
11
0
0
0
0
0
3
0
6
0
5
4
1
8
0
0
0
5
0
0
15
0
0
0
4
14
0
0
4
8
11
0
0
0
0
6
0
0
9
0
19
4
0
15
0
0
10
0
0
0
3
13
0
6
0
0
0
8
0
3
0
7
0
8
5
0
23
0
11
0
1
1
4
0
0
7
2
0
15
0
0
15
0
0
0
22
0
0
10
0
6
6
0
0
20
7
9
0
2
0
3
0
10
3
0
4
0
0
2
0
0
18
0
12
10
0
6
8
3
0
0
11
11
0
0
0
0
9
0
4
8
0
0
35
0
0
0
0
32
5
0
17
17
0
0
3
0
0
0
18
0
8
0
20
9
3
0
0
0
2
0
0
0
13
0
7
0
3
3
0
7
0
0
0
9
0
0
0
18
6
0
11
0
18
0
0
59
0
0
13
10
0
6
17
0
11
0
0
6
3
0
0
2
1
4
7
4
4
0
0
12
0
0
1
0
12
0
0
0
7
8
0
0
3
0
2
0
8
0
3
0
15
8
8
0
0
9
15
0
11
0
0
8
2
0
0
12
0
7
0
10
0
27
11
0
0
10
8
3
2
3
0
2
0
1
0
0
12
0
14
0
18
1
5
7
0
0
4
0
0
6
0
27
6
0
0
2
7
8
4
0
0
7
1
2
0
3
1
6
11
9
0
0
5
11
6
5
0
0
30
14
0
0
14
16
0
2
0
10
13
0
7
0
12
0
7
0
0
2
0
6
0
0
20
0
0
17
0
0
0
0
0
0
8
0
3
0
3
0
0
0
2
10
0
5
0
5
0
0
12
9
0
6
15
1
23
7
0
0
16
0
0
19
61
1
0
0
0
32
5
0
18
0
29
0
60
150
0
1
0
6
4
4
0
10
0
0
21
0
8
0
0
3
0
10
0
8
0
0
0
4
13
0
0
16
0
2
15
5
1
8
0
15
0
0
6
0
5
0
13
0
4
0
6
0
17
0
10
6
0
32
0
0
3
2
0
0
0
0
0
1
0
25
0
0
10
0
9
14
0
22
0
7
5
3
0
32
0
0
9
0
0
0
24
0
2
20
12
0
0
9
0
0
24
0
4
0
0
1
0
9
3
0
0
10
0
11
0
16
0
0
12
10
0
24
0
0
20
0
15
0
19
0
0
0
7
17
0
0
13
0
0
3
0
0
6
8
0
4
0
0
19
0
8
0
0
0
0
11
0
8
0
0
0
13
0
3
0
0
8
0
5
0
0
0
0
0
12
0
0
14
10
0
0
12
0
0
3
0
13
0
6
0
7
13
0
0
20
0
0
0
5
16
0
3
16
0
0
13
0
0
0
0
0
49
0
0
0
12
5
1
0
7
0
7
0
20
0
0
3
13
0
2
5
0
1
2
0
16
0
0
3
0
7
0
0
0
0
2
0
9
0
4
6
22
11
0
17
14
0
7
0
0
20
0
0
26
0
0
11
0
14
0
0
0
0
16
0
18
5
0
0
17
0
0
0
0
5
10
0
0
0
0
4
16
0
0
5
0
0
8
0
0
6
13
4
0
10
0
1
0
5
0
0
3
0
0
0
23
2
7
0
0
0
5
0
10
0
5
0
20
0
16
0
8
1
0
0
9
0
9
0
0
30
0
5
3
0
0
6
8
2
0
3
0
2
11
13
0
8
0
3
0
0
3
0
2
0
2
0
6
0
3
12
0
10
2
0
0
14
0
0
3
0
0
0
3
3
0
0
12
0
24
0
0
0
5
0
0
1
0
0
0
0
0
2
0
10
0
4
9
0
0
6
0
0
2
0
0
10
0
8
10
0
2
0
0
2
0
0
0
0
1
0
13
0
16
8
0
0
0
0
4
23
0
0
5
0
1
0
1
10
0
10
0
0
15
0
6
12
10
18
0
16
0
4
26
1
4
13
0
11
7
11
0
0
20
20
0
0
12
0
8
1
0
12
0
4
0
13
0
0
23
3
21
7
12
0
0
0
0
0
6
0
0
0
0
2
7
0
0
0
10
0
7
0
25
39
166
11
0
13
0
0
3
1
2
5
0
0
0
1
2
6
0
17
0
4
1
10
3
3
0
6
0
0
0
0
5
0
6
0
0
15
0
2
0
2
2
0
14
0
8
0
5
0
4
0
0
0
0
7
0
0
14
0
0
22
10
0
31
0
0
0
9
0
3
21
0
0
0
23
0
6
0
4
0
0
81
0
0
0
9
4
0
0
0
0
14
0
0
0
4
0
24
0
4
2
0
0
0
14
5
0
25
10
0
0
7
24
0
7
17
0
0
0
0
0
0
17
4
0
12
0
0
0
7
0
0
0
0
5
0
6
9
6
1
0
3
0
16
0
11
0
0
0
10
0
6
0
0
0
0
8
3
0
0
18
0
3
8
4
0
0
13
0
0
9
2
0
0
10
3
0
3
6
3
0
21
0
10
2
0
3
0
12
0
19
0
0
0
7
21
0
0
2
4
0
0
19
3
0
10
0
4
1
0
0
5
0
5
5
0
11
0
0
0
0
0
0
0
8
0
2
0
1
0
18
0
7
0
0
11
0
0
3
0
0
7
0
0
7
0
1
9
0
1
0
0
0
0
2
1
9
8
0
11
0
1
5
3
0
19
0
0
0
0
0
18
0
0
5
1
8
0
2
0
1
0
13
0
7
0
23
4
0
4
0
12
0
0
2
6
2
0
0
0
12
0
0
0
0
0
6
0
0
0
9
0
0
0
0
12
0
0
15
0
0
0
13
26
0
0
2
0
0
0
2
0
0
10
1
3
0
0
1
8
10
1
1
0
5
0
14
0
11
2
1
0
11
0
0
9
11
0
0
0
2
4
2
0
14
0
12
8
0
7
0
12
2
5
0
0
10
5
9
0
0
0
0
4
4
0
2
0
0
0
12
0
0
6
1
0
14
0
0
2
1
6
0
1
0
1
0
3
4
0
1
0
0
0
0
12
7
0
13
0
7
0
0
0
0
0
2
0
6
0
11
15
11
6
3
0
0
0
0
0
0
0
21
6
0
29
0
16
0
0
2
0
0
0
0
0
3
14
7
15
0
0
4
0
0
9
0
0
4
11
9
0
0
21
10
14
0
8
0
0
9
0
8
0
6
0
22
0
12
20
0
0
0
0
12
0
0
0
0
0
21
0
44
0
14
28
0
0
7
0
29
0
53
153
0
7
0
0
8
0
0
0
22
0
8
0
0
2
0
8
0
0
0
6
0
8
2
1
0
0
0
9
0
0
4
10
0
15
0
0
24
0
1
3
0
0
5
0
1
0
13
2
0
17
13
0
0
8
0
15
0
8
0
14
14
3
0
2
15
0
7
0
0
6
0
4
0
26
0
0
18
18
0
0
0
0
0
0
0
18
6
0
0
0
0
15
24
16
0
0
0
17
1
0
2
7
0
0
0
0
0
4
6
0
0
0
0
21
0
0
15
0
0
5
10
0
4
0
2
10
0
0
12
0
25
0
0
21
0
5
0
0
4
5
12
0
0
6
21
0
18
4
3
0
0
19
0
0
6
0
18
0
0
0
6
0
3
0
22
0
1
0
0
0
6
0
0
0
0
10
0
0
0
0
10
0
0
0
19
0
0
27
0
0
0
6
0
0
16
0
0
3
0
14
0
0
0
1
0
12
0
14
0
0
0
0
0
2
18
0
12
0
25
0
0
10
4
0
6
30
0
4
0
8
17
0
5
0
6
4
0
13
11
3
27
0
0
2
0
0
2
0
10
0
0
8
0
4
0
0
0
0
3
0
0
0
11
0
0
4
16
5
14
0
6
8
0
7
10
0
2
0
10
0
0
0
0
14
0
1
5
0
6
0
21
0
0
0
9
10
0
0
0
29
0
0
9
0
5
0
11
1
0
17
0
1
5
0
28
0
6
1
10
0
0
4
14
0
2
15
0
3
0
0
0
0
0
0
4
11
0
0
0
0
8
6
0
0
12
0
0
0
0
11
0
0
0
1
0
0
13
0
0
0
0
9
6
0
0
0
0
7
1
0
6
0
0
2
5
0
0
0
6
8
0
13
0
1
0
0
8
0
0
17
0
0
0
12
0
9
0
4
0
0
1
0
0
8
4
0
12
23
0
0
11
0
0
0
17
3
0
0
0
8
0
0
4
0
3
0
14
4
0
2
1
13
1
0
0
14
0
6
27
0
0
0
5
0
0
0
7
0
0
9
0
16
0
8
0
1
0
0
2
0
13
0
19
0
10
0
0
2
0
0
9
0
0
0
0
0
8
0
0
6
0
0
12
0
29
1
9
12
0
0
0
27
27
0
20
54
3
6
0
20
0
0
0
0
0
0
0
0
0
0
88
157
0
10
0
0
3
5
15
2
0
0
8
0
1
1
3
0
19
0
0
5
0
11
3
0
0
9
0
8
5
0
6
0
0
0
9
7
0
0
8
0
0
9
0
7
24
0
0
0
0
0
2
0
0
0
14
6
0
2
0
5
0
0
8
2
0
0
4
12
0
3
0
11
0
0
4
13
0
0
5
20
0
15
0
4
0
0
0
0
29
0
14
0
0
0
7
22
0
0
8
0
7
0
19
0
0
0
28
0
0
0
0
12
6
0
19
0
0
12
0
0
2
0
0
2
20
0
10
8
0
11
0
0
0
19
0
0
0
45
0
0
1
0
6
4
0
0
2
0
3
0
8
0
0
0
0
8
0
5
7
7
0
11
0
14
0
0
11
5
0
12
0
10
1
0
39
0
5
0
19
8
0
13
5
0
6
3
2
17
0
19
0
0
0
3
10
0
0
10
9
0
0
12
1
0
0
0
6
0
0
20
19
0
18
0
0
7
0
0
0
0
20
0
0
4
0
0
8
5
0
11
0
6
0
9
1
0
0
0
0
10
2
2
0
14
0
10
0
0
17
18
0
6
11
0
13
15
0
0
0
18
0
22
0
3
13
2
0
0
0
10
0
4
0
10
2
0
3
5
0
0
8
0
3
0
3
0
7
0
0
12
0
12
0
11
0
0
18
0
0
0
0
0
2
0
0
0
7
10
0
0
11
0
0
1
0
13
0
0
0
10
0
0
9
0
0
1
0
0
20
1
0
1
19
0
0
0
12
3
0
0
0
2
6
0
12
0
12
9
0
7
0
0
0
13
1
3
0
0
8
0
2
0
1
4
3
0
10
0
6
0
7
7
0
8
0
12
0
15
0
16
0
0
7
13
0
6
0
0
9
0
16
13
0
0
3
0
5
0
2
10
2
0
4
0
6
0
0
0
0
3
0
0
0
9
0
19
0
4
7
0
8
3
0
4
0
0
0
5
1
5
7
18
0
24
0
0
16
0
8
0
8
12
0
8
3
16
14
0
9
14
6
0
0
5
0
0
22
0
0
0
0
11
0
0
0
0
13
0
0
15
6
3
0
0
7
0
8
0
31
6
0
19
0
1
16
11
4
0
0
51
4
0
0
0
0
0
0
18
0
0
23
0
1
0
30
0
8
14
9
5
43
156
3
0
4
0
9
1
0
0
16
14
0
10
0
0
6
2
0
0
0
0
3
0
5
4
0
0
3
0
3
9
0
6
6
0
0
3
0
10
1
0
2
0
5
4
0
0
0
10
5
6
0
15
2
0
0
0
2
6
5
0
5
11
0
0
17
0
0
0
10
0
27
0
0
5
0
0
0
7
10
0
30
0
23
0
7
3
0
5
0
18
0
6
4
8
0
0
9
19
0
5
0
14
0
13
9
7
0
8
0
10
0
9
0
11
0
0
9
0
0
0
18
0
8
4
0
6
0
4
0
4
0
5
0
0
0
28
10
0
8
1
9
0
9
0
12
5
0
0
0
11
11
0
6
21
0
6
0
0
0
5
0
0
11
3
0
7
0
0
0
2
8
14
4
0
0
16
0
10
0
0
0
0
0
22
0
1
0
0
0
0
28
46
0
10
0
9
14
0
0
0
0
4
0
12
11
0
2
0
0
0
0
0
11
0
0
0
13
8
0
1
0
0
7
0
5
14
0
9
4
0
0
0
9
6
3
0
25
0
0
0
0
0
11
0
0
9
3
0
3
0
11
0
0
1
7
0
0
1
4
0
3
0
22
0
0
2
10
0
15
0
0
6
0
0
0
0
0
14
0
6
1
0
0
15
0
4
0
3
0
7
1
6
0
0
0
0
0
0
0
0
19
0
7
0
5
0
2
7
9
4
0
10
42
0
0
0
0
5
0
0
7
6
0
0
0
0
6
11
0
15
4
20
0
14
15
0
0
0
20
2
0
4
0
9
6
0
0
0
2
0
4
0
18
4
0
5
0
7
3
3
2
0
3
0
0
0
10
0
0
0
3
0
4
0
11
0
0
6
0
0
2
1
7
0
0
6
9
0
2
10
0
1
0
20
0
0
0
3
0
0
3
0
9
0
0
10
0
6
16
0
6
0
0
0
3
9
3
0
2
5
0
3
0
6
0
2
6
0
5
0
3
4
17
15
0
0
0
0
2
0
0
0
8
16
0
0
5
6
0
0
4
0
17
4
0
15
0
0
8
14
1
5
0
2
11
0
0
12
0
10
4
0
0
0
14
9
0
0
0
0
7
11
7
32
0
0
0
0
16
40
49
0
9
0
21
0
8
9
0
0
1
5
0
0
0
0
0
0
0
2
76
147
0
0
9
0
8
0
5
6
0
0
0
2
0
11
0
0
0
0
21
0
0
0
0
0
12
1
17
0
0
0
2
0
7
0
5
10
0
1
0
0
0
5
0
11
0
1
0
1
1
0
0
3
0
0
12
7
0
6
8
0
0
0
0
0
0
0
2
0
0
0
25
0
5
0
7
0
12
0
0
10
0
22
0
11
0
0
0
5
2
0
0
1
0
0
9
20
0
0
0
7
0
4
0
5
5
0
0
5
2
0
0
3
7
0
0
2
0
23
0
7
0
0
2
0
0
0
0
0
7
7
2
6
0
25
0
0
2
14
0
10
0
0
15
0
2
13
0
9
1
0
8
6
0
0
2
0
9
0
8
0
5
7
0
0
5
0
5
3
0
5
0
0
0
0
29
0
0
5
13
3
11
0
6
1
0
21
0
19
8
8
0
9
25
0
0
0
39
0
6
6
15
5
0
4
0
4
6
0
15
20
2
0
0
1
11
7
0
13
0
2
0
4
2
16
3
0
1
0
0
0
17
0
7
0
0
0
0
8
0
0
8
0
15
0
7
10
6
0
1
0
9
8
0
3
0
0
6
0
14
0
0
17
0
11
0
8
0
2
0
3
0
2
0
10
0
9
0
4
0
36
0
7
0
7
2
12
5
0
7
0
0
10
0
4
5
13
0
7
7
0
0
0
0
3
8
0
2
1
0
0
6
0
0
13
0
8
0
0
13
11
0
0
1
0
6
0
7
0
15
0
0
0
6
0
0
0
0
0
0
2
6
0
15
0
0
11
2
0
12
0
0
0
0
0
5
0
3
0
0
0
10
0
24
0
0
8
0
0
0
5
0
2
0
13
2
8
8
0
25
0
3
0
0
3
2
0
0
0
1
0
0
0
13
0
0
8
0
0
2
0
0
15
0
8
5
0
18
0
0
6
0
0
6
0
0
0
13
12
0
7
0
8
0
0
0
5
0
5
1
7
3
10
5
15
0
0
0
7
3
4
0
4
0
0
0
9
0
8
9
0
1
13
8
0
8
0
0
3
9
0
0
0
0
12
0
33
0
3
13
0
0
0
15
0
0
0
14
3
5
0
0
21
8
0
10
30
0
1
0
0
11
5
0
0
0
0
0
11
0
0
6
0
0
1
0
25
0
20
27
0
38
159
0
14
0
10
0
4
0
8
3
8
5
1
1
0
2
9
4
4
0
0
0
12
5
6
0
0
0
15
4
10
0
13
0
21
0
0
4
0
16
0
13
0
27
0
0
5
3
0
0
10
0
24
3
0
9
0
2
1
0
0
0
8
0
15
0
10
24
0
5
0
0
16
0
4
9
4
0
22
0
0
11
1
0
5
0
47
2
0
4
8
19
0
6
7
0
9
0
5
0
0
9
0
4
1
0
0
0
0
4
8
3
0
0
7
2
0
0
11
16
0
12
9
1
0
0
5
23
0
0
0
5
8
0
0
4
4
0
14
0
0
0
16
0
13
0
0
0
2
0
13
0
0
5
0
11
0
5
7
0
0
0
8
6
0
3
10
0
0
8
1
9
0
9
0
0
0
15
0
1
0
8
0
9
0
5
0
5
0
0
15
3
0
0
18
32
0
0
7
6
0
0
0
0
6
0
4
0
24
0
0
8
0
8
0
5
0
8
4
3
0
8
0
0
0
1
0
14
0
0
0
1
14
0
2
0
14
1
0
30
0
0
4
2
0
0
0
0
28
0
6
0
11
0
0
1
13
0
9
0
0
8
0
38
0
1
0
4
0
0
11
7
0
10
0
4
0
0
7
0
0
0
9
0
0
3
4
0
6
15
5
0
0
2
0
3
0
0
4
5
2
0
0
0
2
0
0
13
0
0
0
6
19
0
17
14
0
22
0
0
0
0
19
0
17
0
0
0
0
3
2
8
0
0
0
15
0
21
0
0
4
0
7
2
0
29
0
0
1
0
0
10
0
3
0
1
0
15
0
1
0
0
7
0
1
0
0
0
0
6
5
0
6
8
0
0
0
8
13
0
0
12
2
8
0
0
7
0
0
16
0
12
18
0
10
5
1
0
10
0
4
9
0
9
0
0
1
2
0
4
1
10
0
0
0
0
6
16
1
7
0
6
0
0
6
1
6
2
0
8
5
2
0
2
27
0
24
0
0
0
0
15
0
10
11
5
0
0
26
8
6
0
7
4
0
0
12
4
15
0
4
6
0
37
0
0
2
10
0
0
0
10
0
0
0
5
0
5
0
4
14
18
8
21
7
0
0
0
14
0
0
18
0
2
0
13
0
2
2
3
5
0
17
14
0
0
0
16
0
0
0
23
163
6
0
0
13
0
0
2
0
0
0
15
0
0
1
2
0
5
0
11
0
7
4
0
0
4
4
4
0
0
4
2
0
21
0
0
3
0
6
0
0
0
1
0
6
0
0
9
0
5
0
0
0
0
0
0
1
0
7
0
0
8
2
1
0
0
3
0
6
0
0
21
0
4
0
5
1
2
0
8
1
0
8
0
2
10
0
0
0
12
5
0
9
16
0
6
0
5
0
17
3
0
6
2
0
0
13
0
5
10
0
4
0
5
16
0
10
0
0
6
0
0
14
0
8
0
0
1
0
2
0
0
0
15
0
0
30
0
3
0
4
1
0
4
2
0
0
0
5
0
1
3
13
1
0
16
0
1
15
0
9
0
0
0
0
0
3
20
0
7
0
3
5
0
10
22
4
0
1
0
13
1
1
5
1
5
8
5
0
12
4
0
0
6
13
0
19
4
0
3
0
0
0
0
0
9
0
3
0
15
0
0
8
0
9
0
0
0
5
0
3
0
0
9
0
0
9
0
7
0
0
6
0
2
8
20
0
0
14
0
9
7
0
1
4
0
2
1
0
16
6
0
0
25
2
0
0
8
2
6
0
12
0
0
0
17
6
6
3
4
0
0
10
0
0
2
0
0
11
1
0
1
0
4
5
0
0
0
0
0
0
0
3
8
7
0
0
0
6
7
1
0
0
0
6
0
0
0
2
0
17
0
0
19
0
0
19
0
18
0
14
0
0
3
0
3
5
0
15
0
16
2
14
2
12
0
10
0
0
13
5
8
0
11
1
0
0
2
24
0
5
0
1
20
0
0
0
0
0
15
7
2
0
7
0
11
0
0
18
0
0
6
0
0
0
8
0
0
4
0
10
5
0
0
0
6
0
11
2
0
0
0
0
11
5
0
0
7
0
0
2
0
0
0
7
18
0
8
0
0
12
0
0
16
0
0
7
0
16
4
1
0
10
6
0
2
0
0
3
0
0
6
10
5
4
15
0
0
0
0
5
0
0
0
0
13
7
0
0
5
3
0
0
0
11
0
0
3
0
0
0
0
11
0
2
18
0
3
7
12
0
17
0
9
0
16
0
0
7
5
13
0
29
0
9
0
0
0
0
0
18
0
1
8
0
0
0
13
0
0
0
6
0
0
0
16
22
8
0
9
0
139
155
0
0
8
0
0
0
2
9
0
5
0
10
0
6
0
0
5
0
11
4
0
1
6
0
12
0
4
12
2
5
2
8
0
0
17
14
0
3
0
13
5
5
0
4
0
0
0
5
8
0
13
0
24
0
6
0
2
15
0
11
0
6
0
33
0
0
6
0
0
17
0
0
29
0
0
0
10
11
4
0
0
16
0
0
3
5
3
2
6
0
10
3
0
0
16
4
6
5
0
2
8
0
3
0
17
0
7
12
0
3
4
0
0
0
0
13
0
0
9
4
0
0
7
0
5
18
0
0
1
4
6
0
22
0
28
0
0
10
0
7
0
12
0
0
0
14
2
20
0
4
0
3
0
0
4
7
0
8
0
7
0
7
8
0
19
0
2
0
0
2
0
9
0
20
0
20
0
19
0
0
0
0
0
0
0
0
2
0
0
0
10
0
9
0
0
8
0
10
0
0
0
0
10
0
19
0
0
0
2
0
1
0
0
8
7
0
0
0
2
4
18
0
0
0
0
1
0
0
14
0
0
0
0
0
0
11
9
0
0
10
2
0
12
2
5
0
0
7
0
0
0
0
0
0
0
0
0
0
2
10
4
19
0
12
0
0
0
6
0
8
0
0
0
13
0
7
3
2
0
7
5
0
2
5
13
0
7
0
0
10
1
0
3
0
0
6
0
0
0
5
0
23
0
0
0
0
0
3
21
0
0
8
0
22
0
18
7
0
0
3
7
5
1
14
0
0
1
4
3
0
0
4
0
0
0
0
14
8
0
8
0
15
0
0
0
6
0
0
0
2
2
0
0
0
15
0
13
1
0
0
0
7
7
0
11
0
6
0
3
13
0
0
9
12
0
3
10
0
5
0
0
0
7
1
0
1
0
16
3
8
17
0
13
0
1
13
0
0
3
0
17
0
11
0
0
0
0
3
0
0
19
10
0
17
0
0
8
1
10
6
0
4
0
0
3
0
7
0
0
4
2
1
7
0
18
8
6
0
0
8
0
0
9
3
0
2
4
0
0
0
10
22
2
0
8
13
0
1
13
3
6
0
0
14
0
0
0
0
2
0
27
0
0
4
0
0
8
18
2
34
3
0
8
0
4
16
0
0
0
0
0
0
4
18
33
0
0
0
46
0
0
17
0
16
0
8
4
0
0
0
67
156
0
0
2
2
9
0
8
0
0
7
0
0
0
18
1
0
5
0
0
0
23
0
0
0
1
10
0
4
0
6
0
0
0
0
0
0
3
5
12
0
0
3
0
8
0
4
2
0
2
0
7
0
3
0
24
0
0
0
0
30
0
14
0
0
0
12
9
3
0
0
0
0
0
5
10
0
12
0
3
6
6
0
0
31
0
0
1
0
7
0
0
4
1
0
0
0
3
0
0
0
9
0
19
0
10
0
0
0
0
0
4
0
0
0
0
0
0
4
1
0
18
13
0
19
0
0
0
13
0
0
0
3
0
7
0
5
22
8
0
11
0
0
0
0
3
1
0
6
1
1
0
3
11
3
0
5
1
0
4
0
0
0
16
0
0
0
0
0
15
4
0
0
4
0
27
0
8
8
0
7
0
0
31
0
2
0
8
0
15
0
22
0
6
0
5
0
13
0
16
0
0
5
4
3
0
2
0
6
0
1
2
0
12
0
0
11
16
0
0
12
0
10
2
2
21
4
0
4
5
6
0
15
0
13
0
0
8
0
0
14
0
15
0
11
0
0
0
10
0
14
2
7
0
0
26
3
9
0
8
0
0
4
0
6
0
2
0
0
13
0
6
7
0
11
0
0
1
0
9
0
19
0
0
0
6
15
0
9
9
0
0
2
5
0
0
19
0
13
18
0
5
0
3
13
0
20
19
0
0
13
0
0
9
0
9
0
0
6
8
4
0
10
0
0
2
4
0
0
13
0
0
0
7
0
12
0
0
13
0
4
0
0
0
4
4
3
0
8
0
13
0
6
0
14
0
0
5
0
6
7
4
0
0
13
0
0
4
7
3
0
3
0
0
0
1
0
10
0
0
0
6
0
0
7
0
0
7
0
0
0
2
0
0
19
8
0
18
3
4
0
0
0
4
0
0
6
3
0
7
8
0
10
0
0
0
0
0
10
22
0
12
0
0
4
7
0
0
1
0
0
4
6
0
6
13
12
10
0
0
0
2
22
0
11
0
17
9
0
2
0
0
0
0
16
3
0
23
0
17
0
3
10
0
0
25
0
24
0
0
18
0
5
12
13
0
0
1
5
5
14
13
11
0
0
0
1
0
0
18
5
0
14
0
0
0
0
40
0
0
0
0
9
1
0
22
0
0
11
8
12
56
160
0
14
0
0
2
3
0
10
4
0
6
24
1
0
0
2
4
0
6
2
0
9
1
0
6
0
0
0
2
0
12
2
3
6
10
0
7
0
0
11
0
0
4
0
0
15
0
0
13
0
0
20
0
0
15
1
0
5
0
0
0
13
0
0
7
0
0
0
0
15
0
6
7
0
16
0
0
0
0
16
0
15
10
0
18
0
0
0
0
18
0
4
0
0
25
0
19
0
8
3
10
3
0
0
0
2
8
0
13
0
10
0
17
0
15
3
9
3
0
3
0
0
11
0
5
1
6
0
24
0
9
0
10
0
15
0
0
10
0
0
6
0
7
18
0
0
4
0
16
1
3
0
0
11
0
13
0
0
5
1
1
1
9
9
0
11
7
7
0
1
0
1
0
14
0
0
8
0
7
0
3
0
0
0
4
0
6
9
0
13
0
13
0
0
2
0
5
0
18
2
7
0
0
0
13
0
17
0
0
15
0
1
0
0
17
0
2
7
28
0
8
0
0
4
0
9
5
0
1
0
0
17
0
0
9
8
0
0
12
5
0
15
0
9
0
20
0
9
0
8
0
1
16
0
0
0
1
0
0
5
21
0
0
4
10
0
0
16
0
0
0
0
0
3
0
1
2
0
0
8
0
1
3
2
0
17
0
4
7
0
8
10
0
22
1
0
0
13
0
2
6
2
5
0
0
0
0
0
0
12
0
2
6
0
1
1
3
23
0
1
0
5
3
13
2
0
1
27
0
27
6
0
28
3
0
7
0
0
20
0
8
0
12
9
0
0
0
0
0
10
7
0
17
0
0
8
0
0
0
7
0
0
0
1
3
12
0
0
0
1
0
20
0
13
3
0
0
0
0
14
0
0
0
5
3
0
6
0
11
14
0
11
0
0
0
0
8
13
0
0
7
5
4
0
0
5
9
0
0
0
0
9
0
15
0
3
0
8
14
25
11
0
22
14
0
15
1
14
6
5
0
3
8
3
0
14
0
0
0
0
0
0
0
0
0
0
0
5
0
0
18
0
4
0
11
14
12
0
0
1
0
0
10
0
0
7
1
0
12
0
0
12
0
0
1
22
1
4
0
0
0
0
0
0
0
0
19
5
0
5
0
10
0
3
0
26
0
9
8
7
0
0
0
11
0
11
0
10
0
4
34
157
0
0
0
12
5
0
0
0
0
1
9
0
0
0
0
1
0
9
0
0
0
0
3
6
0
9
0
3
2
0
5
0
0
0
0
10
0
5
6
0
9
0
1
0
10
0
8
0
10
0
0
0
23
3
0
16
12
1
9
20
10
0
7
10
0
0
0
0
14
0
18
6
0
0
0
6
9
0
0
0
0
18
0
5
0
11
5
3
0
24
0
0
0
3
0
10
0
0
0
0
0
0
1
0
0
1
3
19
0
0
0
4
0
0
4
4
0
0
0
0
13
0
0
0
9
0
0
3
0
0
0
7
0
0
0
6
10
16
0
3
12
4
0
18
0
0
0
0
0
15
0
0
4
9
0
0
13
0
8
0
0
0
0
1
5
11
0
15
0
2
0
13
0
14
0
8
0
2
0
4
23
0
18
3
0
0
0
0
14
0
7
0
12
3
1
11
15
0
0
9
0
26
16
8
0
0
0
22
0
0
13
0
11
7
0
10
7
2
0
23
0
3
10
0
5
0
1
0
3
1
4
0
17
0
4
0
6
0
13
0
0
1
0
3
5
0
0
1
0
9
6
0
0
0
16
0
12
0
0
8
0
1
0
9
0
0
3
0
0
2
12
0
16
0
3
3
0
0
0
0
0
15
0
0
3
0
0
0
4
0
5
0
0
0
0
13
6
0
0
2
0
8
0
1
2
0
8
0
13
0
25
0
0
10
4
0
12
0
24
2
0
0
5
3
0
3
0
0
0
0
0
21
0
1
0
0
3
7
0
0
5
0
0
1
0
4
0
2
0
1
0
12
0
11
2
11
0
6
0
10
0
5
0
0
6
0
14
0
0
15
0
0
0
0
18
6
7
7
1
0
0
5
2
0
12
1
0
11
0
3
0
0
14
0
9
16
0
17
0
4
0
3
4
10
5
3
0
10
5
12
7
0
9
9
0
11
0
0
0
0
0
7
0
0
0
0
0
0
0
0
0
4
1
7
16
7
43
53
48
21
2
1
32
0
33
1
2
0
3
21
0
5
0
0
0
0
4
9
0
4
0
0
5
2
23
0
8
0
0
0
20
0
4
4
0
24
12
26
59
23
6
0
15
28
0
0
0
23
13
0
0
0
0
0
0
0
0
0
0
12
9
0
8
0
18
0
7
0
23
0
64
150
0
2
15
0
0
18
0
14
5
0
0
0
8
16
0
0
0
11
0
0
8
5
0
5
0
14
0
5
5
5
5
11
0
12
0
7
0
0
2
5
0
8
0
12
0
2
0
0
4
0
8
15
0
5
0
0
0
3
0
0
3
9
0
0
0
23
0
20
0
10
5
0
0
0
29
0
0
0
3
9
0
0
0
0
9
0
3
0
27
0
2
5
0
1
0
0
23
0
15
0
19
2
0
0
5
6
0
3
0
0
13
3
0
4
0
4
14
0
30
0
8
0
0
12
3
0
5
9
0
9
2
0
26
0
10
0
9
0
13
0
0
0
38
0
3
0
4
11
4
1
4
0
11
0
1
9
0
0
10
0
1
0
14
5
0
11
1
7
7
0
0
0
18
0
0
2
0
8
7
0
12
0
0
10
0
0
22
0
0
10
0
6
8
0
0
4
0
0
0
4
2
0
7
0
0
2
0
7
2
5
0
8
0
0
0
3
4
0
17
0
6
0
0
13
0
1
0
22
0
3
0
0
0
18
0
5
0
9
0
10
4
0
3
3
0
2
0
8
16
0
0
3
0
9
0
18
0
0
0
0
0
0
17
0
0
17
0
17
5
4
0
0
7
10
0
0
13
0
0
9
1
0
15
0
3
8
4
14
4
0
0
0
16
0
12
0
6
0
0
5
0
12
0
0
8
0
0
8
3
1
0
4
3
8
0
12
0
15
0
0
1
12
0
0
0
1
4
0
9
0
9
0
10
2
15
2
0
7
0
0
0
0
6
0
0
2
0
6
9
0
15
5
0
0
1
0
8
2
0
0
2
0
9
9
0
16
0
4
8
0
14
0
7
15
0
0
8
0
0
7
5
0
11
0
0
4
0
8
9
0
11
12
0
0
0
1
15
1
2
0
0
3
0
2
0
3
2
0
0
0
0
13
0
0
14
0
0
0
15
7
15
9
25
7
13
5
3
7
4
11
5
0
4
0
0
10
0
0
0
0
0
0
0
0
1
0
0
21
0
0
9
0
0
11
0
17
0
8
11
3
13
0
14
0
0
12
0
0
1
7
0
21
0
5
18
0
0
4
0
0
3
0
0
11
28
0
0
21
5
3
0
18
11
0
0
22
20
10
0
2
0
3
0
0
0
0
3
0
17
0
56
167
7
6
0
0
4
0
0
15
0
13
0
0
0
0
9
5
3
0
1
0
0
2
0
2
13
0
0
2
0
0
0
0
0
0
2
6
8
0
0
10
11
0
0
0
4
0
4
0
13
0
6
0
3
0
1
4
0
0
0
0
0
0
7
0
26
0
0
7
2
21
0
0
29
0
0
0
0
12
0
0
9
7
4
1
0
13
0
0
2
3
0
1
3
3
0
6
0
19
0
0
0
1
0
14
4
0
18
0
8
10
0
0
8
0
0
14
0
13
0
4
2
5
5
0
3
18
0
0
0
3
0
14
0
11
8
0
6
0
0
6
0
9
0
0
0
14
0
2
0
0
12
0
0
3
7
0
0
17
0
7
0
19
0
0
12
0
8
0
4
0
2
14
0
17
0
0
14
0
0
0
3
0
14
0
7
0
6
0
13
0
0
9
6
0
22
10
5
1
9
0
0
0
0
0
2
0
0
7
0
12
0
6
0
0
11
0
0
14
0
9
0
0
0
0
4
19
0
0
0
0
13
0
0
1
19
0
6
9
4
0
0
4
9
0
8
0
0
0
1
6
0
6
0
0
2
0
16
1
0
6
0
8
0
0
0
11
9
0
0
0
13
6
1
3
6
0
0
7
3
11
0
16
0
0
6
0
3
0
6
6
0
0
0
2
0
15
10
0
15
9
0
0
1
0
1
0
18
0
2
6
12
11
0
0
0
19
2
1
1
15
0
25
0
15
0
3
6
0
14
0
0
13
0
5
0
3
0
0
5
0
7
6
11
0
19
2
0
11
0
0
4
0
12
14
1
4
0
4
0
12
0
6
0
0
5
0
1
9
0
7
6
1
0
2
0
6
0
13
0
0
1
0
0
0
6
0
27
0
0
12
0
0
8
0
0
0
1
0
0
1
0
0
8
2
0
4
1
0
9
0
1
10
0
3
0
1
2
0
0
9
0
21
0
6
0
1
5
0
0
0
4
0
2
4
7
0
11
4
28
0
0
0
3
0
2
0
9
0
18
0
0
1
12
0
0
0
5
0
0
1
0
4
0
0
19
6
0
0
0
6
0
0
17
3
0
13
30
0
0
0
0
0
0
0
3
2
0
0
2
8
30
0
0
0
0
17
1
0
0
0
34
0
0
15
0
0
1
26
0
0
71
159
3
0
0
11
0
0
2
1
0
4
1
20
0
10
0
2
0
0
23
0
1
0
0
11
0
12
0
4
8
0
2
1
5
0
8
6
0
6
8
3
0
12
2
0
1
0
9
0
0
21
0
12
0
0
19
0
11
4
9
1
0
7
0
0
5
0
12
1
0
0
1
11
0
0
10
0
10
2
30
0
0
0
7
0
4
0
5
5
0
11
0
17
0
3
2
4
7
0
0
0
15
0
0
0
0
0
8
0
13
0
5
4
3
0
1
5
11
4
0
9
8
0
5
6
18
0
4
5
0
10
0
0
21
0
0
13
0
8
0
2
9
0
0
12
2
0
29
0
0
0
0
4
0
0
0
5
16
5
0
8
4
0
0
9
0
0
0
0
9
0
19
6
0
11
0
8
5
0
0
9
0
0
1
4
0
5
0
0
0
0
23
0
13
5
0
0
0
4
0
0
24
0
0
5
0
0
6
0
0
12
0
6
0
1
0
0
0
0
11
0
0
12
0
0
16
0
26
0
0
12
0
0
4
6
0
0
2
0
21
0
9
0
3
1
0
0
16
4
0
7
19
0
2
10
0
10
0
1
7
8
8
0
0
0
0
2
4
20
6
0
3
0
1
0
19
4
0
0
5
0
8
0
7
0
20
0
3
0
10
5
1
0
17
0
18
0
6
0
0
0
7
6
0
12
0
0
6
0
0
0
0
0
18
1
0
9
0
0
0
3
9
0
42
3
0
11
0
0
0
0
10
0
3
0
11
0
0
0
12
0
4
0
2
0
0
0
11
0
6
0
10
1
0
0
4
0
0
4
0
0
16
0
3
0
0
0
8
0
6
0
0
0
7
0
14
7
9
0
4
14
0
9
1
1
0
0
5
0
1
0
8
0
0
4
0
13
1
11
2
0
14
0
0
5
3
21
0
23
0
0
0
0
22
0
2
0
5
0
0
3
14
1
7
0
6
0
3
14
4
4
0
5
1
0
5
12
0
8
13
21
0
0
0
28
0
26
0
16
0
3
0
6
0
4
0
11
0
9
10
4
0
0
0
6
0
0
16
0
11
0
8
29
2
15
34
12
0
0
0
0
9
0
13
5
0
0
0
9
0
0
11
0
0
58
0
0
8
10
0
22
0
6
4
0
0
8
5
0
0
0
36
162
4
0
8
0
7
10
9
0
0
0
12
0
0
2
0
23
0
7
0
0
0
8
0
0
2
0
0
4
0
8
7
0
12
4
12
0
1
7
0
0
9
0
4
0
14
1
0
16
0
0
0
0
7
4
1
9
0
0
0
28
0
0
27
2
0
16
0
0
32
0
1
13
0
8
12
3
0
0
0
0
21
4
0
3
0
0
1
1
0
0
4
1
0
0
9
0
7
12
4
16
0
12
0
9
4
8
0
17
0
0
4
2
8
0
1
0
2
6
0
0
4
0
3
0
0
0
15
0
0
4
0
0
4
0
7
0
5
0
24
0
18
0
26
2
1
0
0
0
3
0
19
0
0
6
3
22
0
0
12
0
14
0
0
2
7
13
0
14
9
0
0
0
12
0
11
0
0
11
0
5
0
0
0
0
11
0
12
0
0
15
0
0
0
0
9
0
0
12
0
0
0
1
15
0
0
14
0
21
3
0
19
0
1
5
0
10
0
19
0
0
34
2
0
4
0
1
0
12
6
0
14
11
0
0
2
0
0
9
3
0
0
0
4
2
0
10
0
5
10
0
0
3
11
0
2
0
9
0
0
7
0
0
0
12
5
0
0
0
3
0
0
4
4
0
6
0
7
0
8
0
9
1
0
1
0
0
4
0
0
3
20
0
0
12
0
0
8
0
1
4
0
6
0
10
10
0
0
20
0
21
0
0
9
0
0
0
19
0
0
3
15
3
0
0
0
0
5
0
1
0
6
0
0
17
0
9
12
0
0
0
2
0
10
11
7
4
1
0
17
0
0
2
0
14
1
10
0
0
0
11
0
7
0
7
0
8
0
3
0
1
1
0
8
0
13
0
0
0
0
0
2
18
4
0
3
0
1
0
14
0
4
0
0
0
4
0
0
4
0
1
5
0
14
0
9
0
0
0
11
10
8
12
0
0
12
0
11
6
0
0
7
5
13
0
14
0
0
0
0
6
0
0
0
0
0
11
0
0
29
0
4
0
0
0
25
0
0
0
14
0
16
0
0
0
10
4
0
0
3
2
4
22
0
14
0
2
20
0
21
11
10
0
19
0
2
0
8
0
1
0
0
0
0
12
4
0
22
5
3
17
18
13
6
0
0
0
0
0
13
0
0
0
0
14
0
12
2
8
0
17
36
155
0
1
0
0
0
0
0
4
27
34
6
0
11
0
6
0
13
0
0
19
0
3
3
0
12
0
11
1
0
0
4
7
0
0
0
9
0
0
11
0
0
6
5
0
0
1
15
0
5
0
0
2
7
3
0
0
1
0
11
0
11
0
0
0
7
0
3
0
0
21
0
37
0
0
5
0
14
6
0
5
0
0
0
11
0
7
0
0
16
0
6
0
4
0
12
0
0
1
10
0
10
0
6
14
0
0
11
3
0
0
0
16
0
0
0
14
14
0
8
16
0
17
0
0
23
0
0
0
0
4
11
33
0
19
0
21
0
0
0
11
10
0
0
0
0
17
2
0
2
7
6
0
0
0
0
0
0
3
2
1
1
0
0
7
2
0
0
5
0
0
6
7
2
0
2
22
10
18
4
10
33
15
12
0
6
5
0
6
24
0
0
9
2
0
3
0
19
0
0
11
0
7
0
0
10
0
0
5
0
1
0
9
0
0
16
0
39
0
0
11
0
0
0
3
4
6
4
0
0
17
0
10
6
13
0
4
0
8
0
14
0
2
6
1
5
2
1
0
11
0
0
5
0
7
0
1
0
3
0
7
17
0
12
0
5
0
10
0
4
4
2
0
6
1
9
2
3
2
0
2
1
0
5
0
8
11
0
8
0
0
0
23
9
0
0
0
4
7
0
0
9
0
0
6
0
0
0
0
0
17
2
0
0
0
0
23
0
17
0
0
3
0
0
15
0
17
0
18
0
25
0
7
5
0
8
0
0
0
0
0
2
2
0
0
0
0
6
0
6
0
0
8
0
5
0
0
0
0
13
0
0
7
0
0
0
9
0
13
0
0
0
8
0
0
0
3
21
0
3
0
0
0
0
15
0
2
0
1
0
5
0
4
8
0
3
0
14
0
0
10
3
5
0
0
0
0
4
4
4
0
0
15
0
1
9
0
10
0
3
0
0
2
6
0
7
3
0
7
0
0
0
2
2
3
4
0
16
1
1
17
7
0
0
0
0
14
0
19
0
4
0
25
0
16
0
0
21
15
6
0
7
0
15
0
11
0
8
0
0
5
17
5
0
15
0
0
0
0
0
10
3
9
0
8
0
0
0
5
0
0
0
0
0
0
0
0
9
0
27
0
26
0
0
0
0
11
0
5
0
0
36
155
0
4
0
15
0
0
2
4
0
0
5
0
0
6
3
7
0
0
7
0
6
2
0
8
9
0
14
2
11
0
5
0
0
1
3
0
1
6
13
0
4
0
0
11
4
0
0
9
5
1
0
15
0
0
11
0
0
17
0
0
0
14
0
7
0
0
0
21
0
0
5
0
5
0
12
0
17
0
4
21
1
0
3
0
0
4
0
0
13
0
0
7
0
0
4
6
6
0
4
0
0
7
0
0
9
0
3
0
18
0
0
0
10
7
0
12
0
6
3
0
7
0
0
0
7
0
25
0
26
0
0
0
0
0
1
0
0
12
0
0
5
0
14
0
3
0
8
0
5
0
0
12
12
0
14
0
0
4
0
5
0
0
0
5
4
6
0
6
0
1
0
11
0
14
0
2
0
0
13
0
0
0
0
12
0
0
17
0
0
2
0
9
0
1
0
10
0
0
6
0
0
0
4
2
0
3
0
0
15
2
3
0
0
2
6
7
0
0
0
3
5
8
0
14
0
9
0
16
0
1
2
3
0
3
0
8
3
0
0
0
14
1
0
0
0
0
12
0
12
0
0
0
0
3
11
10
0
0
0
12
0
2
13
0
0
12
0
13
2
5
0
7
0
0
4
0
20
0
0
0
0
0
12
0
3
0
8
6
0
0
7
0
1
0
7
0
9
1
0
0
1
0
11
5
2
2
7
7
0
0
2
9
0
3
18
22
0
30
6
5
1
0
7
0
9
0
0
0
0
0
0
5
4
0
6
8
0
7
4
0
0
0
11
0
1
0
0
1
0
7
1
0
8
2
13
0
13
0
0
3
0
5
4
0
0
0
1
0
0
12
0
0
13
0
5
0
8
0
14
0
0
3
8
0
4
0
22
0
5
0
7
0
6
0
11
0
0
0
3
14
0
4
0
2
0
17
0
23
0
0
17
0
4
0
0
1
5
0
5
0
0
0
13
4
5
1
0
0
2
3
4
0
0
0
0
9
2
3
2
13
17
2
0
0
2
0
0
0
0
5
0
0
0
1
4
0
0
0
2
0
0
2
6
0
0
20
0
15
6
7
0
8
9
7
0
0
0
20
21
0
0
0
0
0
0
0
10
0
0
0
0
0
0
18
0
0
18
2
6
0
0
0
19
10
0
0
17
0
0
19
54
169
9
0
6
1
0
0
0
0
0
5
0
17
1
0
7
0
13
5
2
4
1
6
1
0
0
0
0
8
0
0
5
0
0
10
0
0
4
0
0
4
0
7
0
0
10
0
3
5
0
8
1
0
0
10
7
0
20
0
24
4
3
6
0
0
17
12
0
0
0
0
0
21
14
10
0
4
0
5
0
0
1
16
31
0
0
14
0
0
0
0
7
0
18
9
0
0
14
9
0
0
0
0
0
0
9
8
0
4
0
10
5
2
0
0
0
0
16
0
0
11
0
0
19
0
0
7
0
5
0
11
0
15
0
12
0
0
0
0
6
4
0
6
0
19
0
15
0
0
0
3
21
0
28
0
9
2
7
2
4
19
0
19
0
3
0
7
0
0
0
2
19
0
33
0
1
1
0
12
2
2
2
22
0
0
0
20
0
0
0
0
12
0
5
0
0
0
17
0
0
1
0
12
0
0
3
5
0
28
0
2
0
0
2
2
21
0
0
10
3
0
8
0
0
2
4
0
0
0
22
0
0
0
15
0
1
7
0
16
0
13
0
0
8
0
0
5
10
0
0
0
17
2
11
0
0
11
0
4
7
0
0
0
0
2
0
0
7
7
0
10
0
0
4
2
12
0
5
0
0
15
0
19
4
9
0
0
0
0
7
0
0
0
0
4
2
6
0
6
12
0
13
0
3
0
1
0
0
12
3
5
1
0
0
8
0
0
0
0
0
1
9
0
0
15
0
7
8
0
14
13
0
3
0
10
0
0
0
8
0
17
9
0
14
0
3
5
0
9
0
1
0
3
0
0
5
0
17
1
9
0
0
8
0
2
0
2
0
0
6
20
0
12
0
17
0
0
0
4
1
9
2
0
0
6
2
8
0
10
0
12
0
17
0
25
0
0
28
0
8
0
5
0
21
0
0
0
4
0
0
0
5
0
4
17
0
0
0
0
6
0
0
0
7
12
5
0
0
1
2
2
0
3
0
1
6
0
0
7
3
8
19
14
0
0
0
0
0
31
10
4
0
0
1
4
0
8
9
15
0
5
0
7
0
22
0
0
8
0
29
0
11
5
0
0
0
0
13
0
1
21
0
16
8
3
0
0
23
34
23
60
33
15
15
14
26
0
26
0
0
9
0
6
3
0
0
14
0
0
2
0
84
165
0
17
0
6
1
0
13
7
6
4
3
0
5
0
15
4
0
0
0
6
0
0
0
6
0
0
7
0
0
10
4
2
14
12
0
6
15
0
10
0
0
1
0
8
0
3
0
4
0
0
17
0
4
0
8
0
5
0
0
0
5
0
4
13
0
0
0
0
0
7
35
0
0
25
0
16
13
0
0
14
0
3
0
0
15
0
19
0
1
4
0
8
0
0
30
0
0
11
0
24
0
14
0
2
0
22
0
8
4
11
0
0
6
5
0
13
0
15
6
0
8
14
0
0
0
4
0
7
24
0
0
0
0
11
0
19
0
0
0
1
4
0
11
0
5
0
21
0
11
0
6
2
0
0
19
0
3
0
0
11
0
12
0
5
6
0
18
0
3
17
0
0
5
0
7
0
0
0
0
10
9
0
0
14
2
0
1
10
6
0
0
6
0
15
0
0
0
3
9
0
6
0
16
0
0
0
6
17
12
0
31
0
0
0
13
0
0
16
0
0
0
11
0
6
0
8
6
16
0
5
14
0
0
2
0
11
0
3
0
6
3
0
6
0
12
0
0
0
0
5
2
0
0
0
12
8
1
0
0
0
4
8
0
2
11
0
15
0
0
2
0
0
16
0
2
0
0
6
0
0
10
0
0
2
12
2
0
6
4
13
0
0
4
13
0
11
0
0
0
0
0
20
0
3
0
4
7
0
0
0
0
15
0
0
5
1
12
4
2
0
7
0
2
7
25
0
0
0
2
0
7
3
0
1
0
0
9
0
3
0
0
6
4
8
0
0
5
0
21
0
6
0
0
15
0
0
0
10
0
0
9
0
23
0
8
0
20
0
8
0
8
0
9
0
13
8
0
5
0
0
7
3
0
2
0
3
4
0
0
0
0
2
2
0
1
12
0
1
0
0
14
0
2
10
0
7
0
0
12
6
0
0
9
0
0
2
2
7
0
10
0
0
3
9
2
3
12
0
0
0
6
0
2
0
2
0
6
2
5
1
1
29
5
0
0
0
3
0
0
29
0
0
6
0
0
1
4
0
15
4
4
0
0
2
15
0
8
23
0
19
0
9
0
0
0
0
3
26
0
0
0
0
21
0
0
0
0
0
0
0
0
0
3
0
0
0
0
0
0
0
0
0
0
13
5
0
0
10
0
7
51
165
4
0
0
0
16
0
4
0
0
6
10
0
0
15
0
0
3
8
6
3
2
6
8
0
4
2
0
1
9
0
8
0
0
0
8
0
2
1
0
11
0
4
3
1
0
0
11
0
6
0
1
0
3
0
1
7
0
13
0
0
9
0
2
3
0
0
0
1
11
1
0
43
0
0
36
0
0
43
0
0
29
0
0
0
0
0
0
0
0
1
0
0
28
0
0
0
27
0
9
0
2
0
3
0
0
0
0
1
0
0
0
7
12
0
9
0
4
0
9
0
0
17
0
0
29
0
0
0
0
0
0
7
0
0
16
4
2
15
0
0
1
0
14
0
2
0
0
0
6
0
3
0
11
0
0
5
5
0
10
4
1
0
24
0
6
0
6
18
0
0
4
13
7
0
0
0
24
0
6
0
0
0
1
0
2
12
0
2
0
5
0
0
0
21
0
13
0
7
0
9
7
0
10
0
0
0
0
0
0
0
7
0
5
8
0
12
0
0
3
8
6
0
0
0
2
3
0
0
6
0
0
18
1
7
2
0
13
0
21
0
2
4
0
0
6
0
9
0
15
0
0
14
4
11
0
0
4
0
8
1
0
12
0
0
14
0
9
1
0
1
7
6
0
5
0
5
0
0
0
2
0
0
4
4
0
5
11
0
0
0
24
0
0
0
10
2
0
12
0
28
0
0
22
0
6
0
16
1
0
0
3
4
0
5
0
6
0
6
0
0
23
4
0
0
0
0
23
0
0
0
27
0
0
10
11
0
0
3
18
0
3
5
0
0
0
0
7
1
0
21
0
11
0
11
0
5
0
7
0
8
4
2
0
1
0
12
0
8
0
21
0
4
10
0
0
13
0
13
0
3
0
6
0
12
0
0
1
9
0
15
0
3
0
0
0
3
0
1
5
0
1
8
0
0
0
8
0
0
13
0
2
19
0
0
2
4
4
2
0
1
0
0
0
6
15
12
3
4
0
3
0
3
2
0
3
1
6
0
4
0
0
20
2
8
0
0
0
5
17
0
15
0
8
5
18
0
0
0
0
0
0
9
0
0
8
8
0
11
16
1
23
0
16
1
0
11
1
2
0
14
0
0
0
21
0
4
25
0
7
0
16
0
29
0
0
0
0
14
17
0
6
0
0
3
0
0
2
0
14
0
36
158
0
0
6
5
0
0
4
0
0
0
0
0
0
4
0
7
6
0
10
0
0
0
0
0
2
16
0
0
2
0
3
0
0
4
0
0
11
12
0
0
0
0
5
6
3
7
3
0
0
6
4
3
0
1
4
0
0
0
0
9
0
0
8
0
0
20
0
0
0
7
7
0
24
9
15
2
4
0
5
2
0
19
0
4
1
0
9
0
6
0
26
0
0
20
0
2
0
25
0
2
0
2
6
1
0
9
9
0
0
5
4
0
7
0
3
1
9
0
1
4
0
0
24
0
0
25
0
2
15
0
12
0
0
19
0
0
0
14
0
20
0
0
2
0
19
0
18
10
0
6
0
3
1
0
1
30
0
22
2
0
11
0
0
0
2
17
0
0
8
10
0
1
0
2
7
11
3
0
14
0
5
8
6
0
8
0
39
0
3
4
3
2
7
6
0
0
1
0
16
0
0
9
0
18
6
1
8
0
3
0
9
14
0
2
0
0
0
14
0
0
0
1
0
0
0
4
17
0
15
4
0
0
1
0
13
0
0
0
0
2
0
0
19
0
2
12
0
15
6
0
0
10
0
0
0
5
0
20
0
1
0
8
0
0
0
4
0
0
0
4
4
0
0
0
0
8
0
29
3
0
0
2
0
10
4
17
0
5
0
9
0
0
10
0
2
0
5
9
0
2
0
17
0
0
4
15
0
4
0
2
2
0
0
14
3
0
0
0
15
5
0
24
9
0
15
0
0
0
8
3
1
0
14
0
0
11
6
0
6
4
5
0
4
0
15
2
0
0
7
0
4
0
3
0
13
0
5
4
0
0
14
0
5
2
1
1
4
0
7
0
7
1
0
0
16
0
5
0
0
4
0
0
1
0
5
0
3
0
16
0
0
3
0
9
8
0
0
5
0
0
0
0
0
11
9
0
8
10
0
26
1
0
6
9
0
8
0
0
3
0
0
0
0
0
0
7
0
2
5
4
1
0
0
0
1
0
0
0
13
2
5
8
8
0
0
0
0
12
0
16
0
0
4
0
6
0
7
0
9
0
6
0
0
18
0
17
0
21
0
8
0
0
0
0
12
0
0
0
0
5
0
0
21
0
0
11
0
0
0
8
10
0
0
1
13
0
29
0
0
8
0
0
23
7
0
8
0
0
1
0
66
155
0
18
0
2
2
14
0
13
6
0
4
0
2
2
0
0
0
6
0
22
0
0
0
9
0
0
5
0
0
8
0
2
6
2
0
9
0
3
0
23
0
3
0
5
0
3
0
1
0
0
3
0
19
0
0
3
0
58
0
19
17
6
0
2
0
1
0
26
2
0
19
9
0
0
3
0
0
9
4
0
3
11
0
5
19
7
2
0
0
22
0
0
2
15
11
0
18
0
0
23
6
0
0
0
13
0
3
0
3
1
0
0
19
12
0
11
0
3
0
0
0
0
0
4
0
0
15
0
8
6
0
0
0
12
0
7
6
1
0
15
11
0
0
0
0
14
0
3
0
13
16
0
6
16
0
0
0
1
0
2
2
6
7
0
4
0
10
0
0
0
7
0
0
0
0
0
0
0
0
2
4
0
10
0
9
0
0
0
18
0
0
1
0
0
21
0
9
0
3
0
1
6
0
10
0
0
0
0
0
14
0
4
0
6
11
4
0
0
12
0
9
0
0
0
0
7
0
0
0
6
5
0
1
23
0
5
0
22
0
9
0
8
0
18
0
0
0
0
0
11
0
0
0
0
1
0
6
0
9
0
22
0
0
0
8
0
2
0
3
4
5
0
6
0
11
0
1
0
19
0
0
2
1
5
2
7
0
0
13
3
8
0
0
0
11
8
0
9
0
14
0
0
19
3
0
0
0
0
16
0
0
0
0
16
1
0
10
0
2
0
0
0
0
0
0
8
0
0
0
6
0
8
0
7
0
6
6
6
1
0
8
0
11
0
3
0
5
0
0
0
6
8
3
3
0
2
9
0
5
16
0
0
0
0
0
0
0
8
0
0
22
0
6
0
5
6
0
0
0
0
13
1
11
0
0
0
10
0
0
23
4
5
9
0
0
9
2
0
5
0
10
0
0
0
0
0
6
0
0
2
0
10
0
8
0
0
1
0
18
0
4
0
0
0
24
2
4
2
1
3
3
8
0
1
3
0
2
4
0
16
0
0
18
15
0
0
0
0
0
2
5
8
2
0
4
0
11
0
10
1
5
0
0
0
45
0
27
1
0
8
0
16
0
0
0
0
0
9
0
0
5
1
0
23
15
0
16
0
46
0
10
6
7
0
0
10
0
0
20
0
7
0
0
0
0
0
6
16
0
0
42
166
5
3
0
1
9
13
0
0
1
2
0
0
2
3
0
15
0
0
34
0
1
0
13
0
0
9
0
0
0
0
0
0
0
0
1
0
0
0
0
9
0
5
10
0
0
2
0
3
11
0
0
11
0
0
10
0
11
0
0
0
4
0
0
4
17
0
0
11
0
1
3
0
5
7
4
19
0
0
26
11
0
0
0
12
0
0
12
0
0
4
25
3
0
0
2
0
0
17
0
0
0
0
0
4
0
0
1
0
1
0
14
1
0
7
0
0
10
8
0
7
5
5
0
18
12
0
3
17
10
0
13
6
0
0
23
0
0
0
0
0
4
2
13
0
0
0
9
0
15
0
0
0
0
0
0
17
0
0
0
3
5
0
3
0
0
10
0
3
3
0
0
0
0
17
0
0
0
2
12
11
0
6
14
0
3
2
6
2
2
0
0
0
13
17
0
0
1
3
16
5
0
9
0
23
5
3
8
14
0
4
0
6
0
0
5
0
0
0
0
0
0
0
15
20
0
0
0
7
0
0
0
0
0
0
0
0
3
0
0
5
5
0
4
0
10
12
0
0
1
0
5
0
42
0
19
0
3
0
3
0
0
26
0
12
7
1
2
6
0
2
1
0
13
2
0
0
2
2
0
0
18
0
0
7
9
0
13
0
0
3
0
21
17
0
0
1
0
0
0
0
7
0
0
22
0
1
0
0
0
4
14
0
0
13
0
0
0
7
0
4
11
0
15
0
0
0
0
9
10
0
0
0
5
6
0
2
0
5
0
0
0
0
0
0
0
2
0
5
1
1
0
0
0
3
0
12
1
0
0
0
0
9
11
1
6
0
6
0
0
14
0
0
20
0
0
2
0
2
0
18
0
4
0
14
0
3
0
0
0
1
0
7
0
1
2
0
0
20
0
9
0
3
0
0
10
4
0
2
1
0
0
4
0
0
1
7
9
0
0
4
0
10
0
0
0
13
15
3
0
0
6
0
0
3
4
0
0
2
5
0
8
2
6
21
18
0
0
0
21
0
13
0
0
8
1
0
8
0
2
2
0
0
17
17
16
0
7
8
0
0
0
0
0
0
9
14
9
0
13
1
4
7
2
6
0
4
9
9
0
1
0
0
30
0
21
0
5
0
0
0
2
0
0
0
3
2
0
4
4
0
59
157
0
0
0
2
0
0
14
0
1
0
4
0
0
0
17
0
14
9
0
0
6
0
0
0
0
0
1
0
6
13
0
13
0
22
0
9
2
11
7
0
0
0
0
0
8
0
1
5
0
0
20
0
14
0
0
8
0
0
0
14
0
3
0
11
0
0
0
0
0
23
0
4
14
0
0
0
9
0
0
7
0
13
0
8
0
0
12
0
5
0
0
10
4
0
0
27
0
0
0
18
0
0
0
13
0
0
2
0
6
15
1
0
3
0
1
11
0
0
9
0
0
13
3
0
0
8
0
0
0
20
0
5
0
0
0
18
0
20
0
0
0
0
1
0
13
7
0
3
0
8
0
10
0
42
0
0
40
0
0
6
0
0
0
0
0
0
0
28
0
0
0
7
0
0
7
3
0
0
6
0
8
14
0
0
0
5
13
0
0
0
11
0
0
0
0
0
0
3
0
0
13
8
0
0
0
0
6
0
0
0
0
0
0
0
0
20
0
0
58
0
0
51
79
0
0
34
80
22
0
9
60
0
0
0
22
0
0
0
0
0
0
0
3
0
6
5
5
21
0
0
4
0
0
1
0
0
6
0
8
0
0
0
16
2
0
10
0
6
3
0
2
4
0
0
1
0
0
2
7
9
0
0
4
0
0
8
2
24
0
10
6
2
0
0
0
18
3
12
0
0
6
15
9
0
1
13
0
23
0
0
8
0
6
6
0
5
21
0
5
4
0
0
0
7
0
0
11
0
0
7
0
0
0
16
0
5
13
0
8
0
2
9
21
0
0
17
0
8
0
4
13
8
0
0
8
0
0
15
0
13
0
3
0
0
0
5
0
8
5
0
9
6
0
14
0
18
14
0
3
0
4
10
8
0
8
4
0
0
9
9
8
0
0
1
1
3
6
0
0
1
2
8
3
0
0
0
0
11
9
0
0
3
0
0
1
0
0
5
7
0
20
4
0
0
0
0
3
9
11
0
2
3
3
1
0
4
0
2
0
2
6
0
2
14
0
13
0
0
0
17
0
0
7
0
0
28
0
0
0
0
24
0
18
16
0
4
10
0
0
0
16
10
11
0
1
0
3
0
0
14
0
4
0
3
10
0
7
0
3
17
5
13
0
0
0
0
0
26
0
34
0
0
0
1
0
1
13
0
0
18
36
168
9
0
0
11
0
12
0
0
0
8
2
0
0
4
0
0
0
0
0
18
0
0
19
0
0
18
0
6
0
2
0
3
2
0
0
0
14
0
3
9
6
14
0
7
6
0
8
0
0
0
7
0
0
0
8
2
0
5
1
0
0
0
16
0
0
8
0
11
0
13
0
0
0
1
0
14
0
22
0
6
0
18
4
0
15
0
14
5
16
0
22
2
14
0
0
0
0
6
0
0
12
0
0
16
0
13
0
22
3
0
0
0
2
18
0
0
14
0
4
0
0
9
0
0
7
0
0
0
7
0
0
0
19
0
14
0
4
0
16
0
10
0
13
0
13
5
0
2
9
0
12
0
8
0
8
0
3
0
0
6
10
5
0
4
0
8
4
0
0
58
27
0
11
2
0
0
13
0
37
1
0
0
0
13
4
0
0
25
3
0
4
1
21
21
17
0
0
0
0
20
0
0
0
3
0
7
0
0
43
17
0
16
12
0
16
0
0
65
0
0
59
73
0
0
47
65
0
0
50
51
0
0
17
71
27
0
19
37
20
0
0
0
0
0
0
0
0
0
0
0
12
0
0
16
7
0
0
19
0
0
6
7
3
0
0
0
9
0
11
0
8
0
0
18
0
14
0
0
10
0
10
0
3
1
1
7
0
5
0
0
12
0
5
11
0
0
0
9
0
6
0
7
0
1
10
1
0
3
3
0
0
0
9
0
0
11
0
0
6
17
0
0
0
13
11
0
0
13
0
13
0
5
0
5
0
2
0
0
3
0
0
0
0
0
0
12
0
0
11
0
0
3
0
4
0
5
2
0
9
0
0
8
9
2
0
8
0
1
0
8
0
0
0
0
0
0
0
0
14
5
0
0
2
5
0
8
6
0
0
6
0
0
7
0
8
0
0
8
0
0
10
0
4
11
7
0
1
0
12
0
0
0
2
0
38
0
11
6
0
11
0
0
0
0
0
0
7
1
12
0
3
0
10
0
1
0
0
3
2
5
2
3
0
14
7
12
6
0
0
0
37
0
0
0
18
0
17
0
5
15
0
11
0
8
0
34
1
0
0
0
0
0
14
4
8
0
0
0
10
0
0
0
9
0
0
23
3
0
6
0
16
0
3
5
4
37
9
0
42
0
0
29
0
4
0
5
0
22
0
0
54
162
3
0
16
2
9
0
0
4
0
0
7
0
0
12
7
0
17
0
0
0
3
0
4
0
7
0
12
0
2
0
0
2
1
1
0
0
4
0
0
10
0
0
20
0
0
16
19
2
0
1
5
0
0
13
2
0
0
32
0
20
15
0
0
11
0
12
0
12
0
12
0
23
15
2
17
0
10
0
8
0
15
0
0
10
5
25
0
0
0
6
0
0
0
0
25
0
0
11
0
0
7
0
0
12
0
0
0
0
2
0
6
11
0
1
1
0
0
0
19
0
6
0
4
0
0
5
0
15
2
2
7
0
6
0
10
0
0
17
0
29
0
0
0
12
0
7
0
0
0
13
3
6
0
0
0
3
2
6
7
15
0
0
10
0
0
0
9
0
0
0
0
0
0
9
0
8
0
16
0
25
0
11
5
0
0
0
0
4
0
12
0
0
0
7
0
21
0
0
0
0
0
0
14
0
39
0
0
44
42
0
16
11
0
18
0
10
21
0
0
68
48
0
0
64
15
0
0
50
27
0
0
51
49
0
0
26
47
51
0
0
13
53
0
0
0
0
0
0
0
6
0
9
4
0
0
14
0
3
0
10
0
0
0
0
0
24
0
0
0
7
6
0
0
0
3
0
7
0
5
3
1
0
5
2
6
0
4
0
0
11
0
0
0
0
3
8
0
25
0
5
0
0
0
0
0
0
7
0
0
0
7
0
0
0
11
7
0
14
12
0
0
0
0
0
0
23
0
0
7
0
4
1
0
4
17
0
6
14
0
0
20
0
18
2
5
1
0
1
0
7
0
0
9
0
0
0
15
0
0
0
6
0
0
0
11
4
5
0
9
0
12
0
3
8
0
11
0
0
0
5
6
0
0
0
3
1
0
4
0
0
6
0
11
0
0
0
15
0
0
11
0
7
0
0
0
0
15
0
19
0
1
8
8
0
0
9
0
0
8
7
0
6
0
3
0
0
5
6
7
0
8
6
0
2
0
1
6
0
3
0
6
3
10
0
17
22
9
0
0
0
53
2
13
2
0
16
0
0
16
0
22
15
2
1
0
0
0
5
0
16
0
0
7
4
5
6
0
0
6
0
12
0
0
20
0
0
0
2
14
15
0
12
0
9
0
0
6
0
3
0
0
10
0
0
12
7
0
0
4
7
32
163
3
0
0
1
0
0
22
0
7
4
0
18
0
1
2
7
0
0
9
2
0
0
0
3
4
0
0
6
8
11
0
0
0
0
6
4
13
0
0
5
0
13
0
11
5
0
0
4
2
6
0
4
3
0
0
26
0
1
0
2
20
0
13
0
16
0
0
0
0
13
0
4
0
0
0
0
15
0
0
0
12
11
0
7
0
0
20
0
0
10
0
24
0
7
0
0
19
0
5
4
0
6
0
3
0
2
15
0
0
7
0
0
7
0
3
3
14
1
0
6
12
2
3
0
14
0
0
0
0
0
4
0
0
10
0
6
4
0
19
0
0
0
9
0
0
1
1
10
11
4
0
6
0
16
4
0
0
0
0
0
7
4
10
0
5
0
0
2
11
0
24
0
0
5
0
0
0
15
6
0
10
0
11
0
13
0
7
1
5
6
11
0
3
0
0
0
5
0
0
0
44
0
0
67
0
0
34
25
0
5
0
0
0
1
20
14
0
24
50
2
0
14
59
0
0
32
40
0
0
19
55
12
0
0
41
38
0
0
7
48
57
26
0
5
0
34
0
0
0
0
0
0
0
6
0
0
0
3
8
0
2
10
0
14
0
0
0
20
0
7
0
0
11
5
0
1
0
1
2
5
2
0
0
11
3
1
10
0
18
0
2
2
11
0
4
9
0
13
12
0
1
0
2
23
0
2
0
2
9
0
3
3
6
1
0
0
0
0
0
14
0
6
8
9
0
2
0
6
0
0
0
0
2
0
0
0
16
0
19
4
1
0
0
0
0
8
0
1
12
0
0
8
0
0
9
0
0
14
0
13
0
2
12
0
0
0
15
0
0
9
3
0
17
0
6
0
11
2
5
2
0
5
0
7
0
15
0
8
0
8
0
0
0
8
3
2
2
0
14
0
6
0
6
23
0
8
0
5
0
6
0
19
0
0
0
10
0
27
0
3
0
0
0
0
4
0
0
12
7
14
0
0
3
1
4
1
4
0
0
8
0
3
0
4
1
17
5
10
0
0
0
0
0
0
12
0
0
15
9
11
0
14
22
14
9
0
0
19
0
0
2
0
0
0
0
0
16
3
0
0
0
15
28
0
0
25
0
0
2
0
9
0
0
0
0
5
3
2
0
0
1
3
4
13
0
0
8
0
2
0
74
164
1
6
0
11
0
11
0
0
0
0
6
0
0
0
0
12
8
0
0
0
2
3
14
0
1
4
8
0
2
0
13
0
4
12
0
4
0
0
0
0
4
6
0
0
0
6
0
20
0
0
5
3
0
0
2
5
0
9
0
1
0
6
0
7
0
18
0
0
9
0
4
0
14
0
32
0
0
2
0
0
0
0
1
0
0
0
11
0
26
0
4
10
0
7
0
3
0
4
0
0
0
1
0
4
2
9
0
6
0
1
0
0
8
0
0
0
0
0
0
0
1
0
1
0
10
2
0
0
18
0
0
12
4
0
14
0
8
0
0
25
5
8
0
0
0
0
0
0
0
0
11
0
0
11
1
19
0
0
9
4
0
0
0
0
14
8
4
14
0
0
0
4
0
9
0
0
9
0
0
2
0
17
0
3
0
16
10
0
0
3
0
0
7
0
0
0
38
4
0
40
0
2
36
0
0
42
3
0
0
3
3
0
0
11
0
0
76
0
0
2
22
35
0
0
50
17
0
0
44
24
0
0
29
63
2
0
0
23
40
7
0
0
23
35
48
25
15
0
16
11
0
0
0
0
6
17
0
0
0
0
0
29
0
0
10
0
11
0
3
0
9
5
0
4
0
5
6
0
0
0
5
1
0
0
0
8
0
15
6
0
13
0
0
11
0
0
4
0
7
0
0
4
0
0
5
5
0
22
0
7
0
5
4
0
0
8
0
12
2
1
0
8
0
0
1
0
0
7
0
4
0
17
0
0
20
0
0
1
0
0
0
10
7
5
0
12
0
0
24
0
0
0
15
4
0
3
7
0
1
6
0
0
0
0
11
0
0
7
0
0
8
1
0
1
0
0
0
0
0
0
14
1
7
0
0
0
0
0
0
0
11
6
0
0
10
0
1
7
0
13
0
0
0
0
0
0
1
0
15
0
0
0
0
5
0
12
1
0
2
7
10
0
0
6
10
0
0
0
16
5
1
8
4
4
0
0
2
1
1
3
3
2
1
2
8
2
4
23
0
0
15
0
7
0
13
0
0
6
14
16
5
8
4
0
0
0
7
0
6
28
0
6
0
20
0
4
0
6
0
12
0
6
0
0
0
0
65
0
29
0
1
0
26
26
1
11
0
8
0
5
3
0
0
1
27
0
5
24
4
0
29
162
0
7
1
0
6
2
1
0
8
9
0
5
0
16
0
0
6
0
0
8
0
3
0
4
5
0
0
5
0
9
6
0
3
0
1
0
0
0
17
0
24
0
4
7
0
1
0
0
0
5
0
5
0
12
4
0
11
0
0
0
15
0
0
0
27
0
0
18
3
12
0
14
0
21
2
4
5
0
27
0
6
8
0
5
11
8
0
6
0
2
0
2
0
9
0
0
0
4
1
6
0
13
0
11
0
7
0
2
15
0
7
0
8
2
11
0
13
4
7
7
8
0
10
6
3
0
0
22
0
0
0
3
0
0
3
0
2
24
0
0
0
0
0
7
1
0
5
1
3
22
0
1
8
0
0
0
32
0
0
5
0
8
0
0
12
0
13
0
4
0
0
17
0
0
3
31
0
8
9
0
0
23
5
0
10
0
0
9
0
0
0
0
21
0
19
41
0
17
24
0
9
27
0
39
37
0
0
0
21
0
0
19
0
0
53
53
0
0
14
56
0
0
17
21
0
0
18
45
0
0
0
40
24
0
0
10
29
23
0
0
2
18
0
2
2
12
33
27
42
4
0
0
0
0
0
0
0
0
33
0
0
6
3
0
0
8
0
0
7
0
0
2
4
20
0
0
0
1
12
0
0
4
0
31
0
0
11
0
0
2
0
0
0
0
0
0
6
0
1
4
4
0
13
0
6
14
0
0
0
0
9
0
8
1
19
9
0
3
0
11
0
0
3
10
0
0
15
0
8
4
3
0
25
0
5
0
0
17
0
0
13
0
7
6
0
0
0
0
0
2
0
0
7
0
6
0
4
0
9
0
7
5
0
0
0
0
7
0
5
10
0
0
6
0
11
0
10
4
0
31
0
0
0
11
0
7
0
0
0
4
0
20
0
0
0
0
0
11
10
0
1
1
4
0
9
0
8
0
21
6
0
9
0
2
0
3
0
0
3
0
0
7
0
1
0
7
0
0
0
12
6
3
0
4
1
4
0
0
6
0
0
5
4
5
3
3
17
9
12
0
0
0
0
8
3
24
0
28
5
0
16
0
0
0
0
0
2
0
0
0
5
0
0
0
2
6
0
2
3
0
23
0
17
0
8
9
0
5
0
20
0
1
0
0
21
0
13
13
0
0
2
0
0
0
0
11
0
5
0
5
65
161
2
0
10
0
0
0
5
14
0
0
0
1
6
6
0
18
0
0
14
0
12
0
0
0
2
0
5
5
0
6
0
3
0
6
2
11
3
8
0
0
0
15
0
8
0
0
5
0
0
8
6
0
1
0
5
0
0
11
11
18
0
0
1
0
0
8
0
0
0
1
0
0
10
11
0
0
0
0
0
0
19
0
2
0
8
0
8
4
0
0
0
3
4
11
0
24
18
0
0
0
13
0
13
0
2
5
1
0
0
11
4
5
0
7
0
5
0
0
4
0
0
0
0
3
5
0
0
8
0
8
0
0
25
0
0
3
0
0
10
3
0
5
0
7
0
18
32
0
0
0
8
3
0
5
0
0
0
5
0
1
19
0
10
13
0
0
0
0
15
0
24
0
0
0
5
20
0
0
5
0
6
0
0
17
0
0
15
0
0
0
0
11
2
21
14
0
24
0
0
1
0
13
39
0
0
36
0
22
0
32
0
0
11
34
12
0
0
58
0
0
0
38
0
0
13
52
13
0
26
26
0
0
0
9
49
11
0
0
22
16
0
0
6
20
19
0
0
5
0
17
29
41
37
0
0
0
0
0
0
0
0
0
9
0
1
4
11
0
0
2
0
6
0
0
5
0
15
5
0
10
0
12
0
0
1
0
1
0
6
1
0
0
2
0
3
17
0
13
8
0
10
0
0
5
0
0
0
10
0
9
4
3
0
0
0
2
4
11
0
2
1
0
0
2
0
0
0
14
0
5
0
0
0
0
20
0
5
10
0
8
0
2
1
0
7
2
6
5
11
1
4
1
0
1
0
13
2
0
0
16
5
0
2
0
10
3
5
0
0
12
0
21
0
2
10
0
8
0
0
0
1
1
0
0
0
10
5
0
7
6
0
10
0
0
0
19
0
0
0
16
0
0
12
0
10
0
1
0
0
0
0
0
15
0
0
9
0
0
9
0
3
0
15
0
0
0
0
0
0
14
1
4
7
0
3
2
0
1
6
3
2
1
0
2
3
0
7
2
3
0
0
0
0
21
0
0
10
22
0
16
4
0
0
0
6
2
0
7
0
0
16
0
3
0
0
5
13
0
0
21
0
0
9
0
0
0
9
0
0
0
11
0
18
0
0
2
2
0
8
0
2
0
2
16
0
0
3
20
0
0
50
157
0
5
0
0
8
13
0
0
0
14
0
9
0
2
10
0
1
0
0
10
0
0
3
8
2
0
0
23
2
0
0
7
4
0
1
0
6
0
4
8
0
0
0
3
0
1
0
2
13
0
0
11
12
0
0
1
7
0
0
0
11
5
0
14
0
6
0
6
0
10
0
13
0
0
0
24
7
0
2
0
0
1
0
11
0
0
7
0
0
19
10
0
0
0
1
0
10
0
6
0
12
0
5
0
0
0
13
0
6
0
0
6
0
0
3
0
13
8
17
0
0
15
0
0
0
4
2
1
11
6
0
17
0
0
11
0
0
11
0
0
3
17
0
0
0
2
0
3
3
14
1
0
0
11
0
13
0
28
0
6
6
5
0
0
40
0
33
0
0
3
0
0
0
17
0
0
1
5
3
6
0
13
0
2
0
1
0
0
0
21
22
0
9
0
5
48
0
22
36
4
7
0
0
24
1
24
0
0
5
0
0
50
28
0
0
63
34
0
0
25
0
0
38
27
10
0
14
23
27
0
0
32
41
39
0
0
24
19
0
0
0
48
6
0
0
5
9
16
0
8
8
10
7
28
32
39
4
0
0
0
0
3
11
6
0
0
0
0
15
0
0
4
1
10
0
0
1
0
4
0
0
9
0
7
10
0
0
4
1
8
0
15
0
18
1
0
0
0
0
4
3
0
11
3
9
0
9
0
16
0
3
0
11
30
0
10
0
0
12
0
0
4
0
3
0
15
0
1
6
0
0
13
0
3
0
8
0
0
11
0
0
39
0
0
0
0
0
0
0
13
0
0
4
18
0
0
5
14
0
0
2
4
26
0
10
0
0
11
0
0
0
0
6
0
0
12
1
0
1
2
0
1
12
0
0
1
11
0
13
0
7
0
4
0
10
0
0
6
23
0
0
0
0
0
0
3
4
10
0
3
9
0
0
21
0
0
21
2
1
6
0
17
0
30
0
12
0
0
0
1
16
5
4
0
2
2
0
0
0
0
0
8
3
6
11
4
0
17
15
17
0
0
0
0
1
2
10
11
26
0
0
0
0
2
0
0
0
4
7
4
0
0
6
0
12
0
4
0
9
0
27
0
0
0
0
26
0
9
2
0
0
7
0
0
0
0
14
0
0
4
2
0
16
0
0
16
0
0
27
0
47
166
5
4
0
9
2
0
1
7
8
0
2
1
0
0
0
7
4
0
0
6
0
5
0
0
0
6
7
0
6
0
18
0
9
0
1
17
0
1
0
0
17
0
0
2
6
0
5
5
2
0
2
0
3
0
0
7
0
15
0
7
4
0
11
2
0
2
0
0
25
0
0
5
0
0
2
7
0
7
0
0
22
0
15
0
0
18
11
0
17
7
0
0
8
12
0
0
4
4
8
10
16
13
0
0
1
0
11
0
0
13
0
3
1
10
0
3
17
0
4
0
0
0
0
30
0
2
0
18
0
15
0
0
2
6
0
0
0
4
0
20
0
0
0
0
27
0
11
0
0
8
0
1
0
0
11
0
6
0
3
0
0
8
12
11
0
0
8
7
9
0
6
4
12
0
0
4
0
9
0
12
3
0
15
0
3
0
0
19
9
0
0
0
9
0
19
0
15
8
0
11
0
0
36
0
9
0
0
24
0
39
46
0
0
32
35
0
0
21
30
0
12
36
4
0
15
5
12
0
0
5
33
15
0
0
14
20
0
0
0
38
14
0
0
11
21
28
8
0
0
0
13
11
17
0
6
18
12
24
14
0
0
0
0
1
4
0
9
3
18
0
39
0
0
0
1
9
6
3
0
2
2
0
0
6
0
8
4
0
0
8
0
0
0
11
0
0
6
0
3
0
1
3
25
0
10
0
0
1
2
0
8
2
0
0
0
4
2
0
6
5
0
0
14
0
0
0
0
0
0
19
0
0
5
25
0
5
0
11
0
0
6
0
3
10
0
5
19
0
4
0
7
14
0
0
0
0
0
0
2
0
0
0
6
0
0
0
12
0
23
0
26
0
0
3
0
0
0
5
0
3
0
0
1
14
0
2
0
0
0
7
0
4
0
10
2
0
13
0
0
7
0
0
5
0
1
12
0
2
0
0
1
0
1
0
0
0
0
0
2
1
10
0
2
0
20
0
18
0
0
0
0
11
5
2
2
4
0
1
1
6
1
0
0
2
0
6
4
4
11
7
0
0
0
12
0
13
16
28
0
0
0
0
7
0
0
0
0
0
9
0
5
0
0
0
4
0
0
1
0
22
0
24
0
0
21
0
0
0
4
0
10
2
4
21
15
0
0
0
10
12
0
1
0
11
21
0
3
0
0
0
28
160
0
0
4
0
0
0
0
0
8
0
2
5
4
0
25
0
6
0
14
0
0
9
8
0
4
0
0
5
0
6
0
8
0
3
2
0
9
0
0
5
0
14
0
8
3
0
3
0
6
0
14
0
0
21
0
0
14
0
24
0
4
5
0
8
0
0
6
18
1
0
3
23
19
0
5
24
0
21
0
3
0
16
0
10
0
0
26
0
0
7
6
0
9
0
6
8
4
0
0
3
0
6
0
0
16
0
0
18
0
0
0
0
7
0
8
0
0
25
0
5
6
3
0
0
3
0
9
0
6
5
0
19
1
2
0
5
13
0
3
0
4
0
5
0
0
49
0
1
0
0
6
1
11
14
0
5
17
0
6
4
3
0
0
4
0
0
0
0
11
6
0
0
0
4
6
2
0
0
0
3
0
1
0
0
2
8
0
0
0
29
16
0
16
0
0
3
0
41
5
0
27
0
11
0
0
19
0
0
16
9
0
0
43
28
0
0
21
0
0
19
22
0
0
16
46
0
0
0
24
34
0
0
0
37
0
0
0
50
12
0
0
14
35
32
1
0
0
16
19
27
3
0
0
3
22
0
25
15
34
27
6
0
0
0
0
13
0
0
0
0
14
0
0
10
0
0
0
14
0
0
11
0
0
13
0
13
6
0
0
0
13
0
0
13
0
17
9
0
0
2
3
0
2
3
0
10
0
1
2
0
0
11
0
0
4
8
0
0
0
0
3
11
7
4
0
3
0
0
0
0
6
13
0
0
5
0
0
3
1
5
4
0
2
2
0
0
2
2
8
0
0
8
5
0
5
3
0
0
0
9
0
3
0
7
0
21
0
8
0
18
0
0
0
5
6
0
17
0
0
2
2
0
0
0
2
5
16
0
0
0
6
0
0
4
0
0
0
4
0
15
1
16
4
0
0
0
16
0
5
0
0
0
6
3
0
11
6
0
0
3
0
7
0
9
0
0
18
0
0
0
0
7
13
1
0
3
2
3
2
0
4
0
0
3
4
10
0
7
2
24
19
0
0
0
38
1
0
0
0
0
0
0
4
27
0
23
0
0
0
25
3
0
0
14
13
0
19
7
13
0
0
0
7
0
21
0
16
14
0
20
0
23
0
0
0
12
12
0
4
0
17
0
0
0
0
4
20
21
0
8
63
152
0
4
12
0
5
14
0
4
0
7
0
10
0
8
0
5
0
12
0
4
0
0
8
0
1
0
8
8
0
0
5
0
3
1
14
0
7
2
2
0
0
0
9
0
2
0
0
10
8
0
4
2
10
5
0
11
0
10
0
4
0
14
0
0
5
0
0
0
7
3
3
0
0
0
0
0
0
0
1
0
2
0
6
0
0
0
3
4
0
0
1
7
0
3
0
26
0
3
0
8
0
0
13
8
1
0
19
0
1
2
0
13
0
13
0
6
0
3
0
7
0
21
0
0
4
10
0
3
7
0
3
1
0
0
8
8
0
2
9
0
13
6
8
15
1
0
9
10
0
1
0
0
0
0
8
7
0
1
0
6
0
0
0
8
25
0
0
0
0
0
19
4
23
3
0
0
3
0
4
0
0
10
14
18
0
4
0
3
32
0
20
0
0
28
0
0
24
16
1
0
22
2
0
0
7
0
34
46
0
0
33
26
0
0
47
16
0
13
48
21
0
0
45
21
0
0
31
36
2
0
0
17
8
0
6
37
26
0
0
0
37
44
0
0
0
4
39
7
0
0
0
1
15
13
13
0
0
0
9
19
24
32
24
0
0
0
3
3
30
0
0
1
0
10
2
7
0
2
4
0
0
12
14
0
3
1
10
0
5
6
0
0
28
0
15
6
0
0
7
12
0
5
0
10
5
0
0
19
0
0
7
28
0
1
0
9
1
15
0
0
10
0
13
0
1
7
6
0
44
0
5
0
3
0
9
0
10
0
0
0
22
0
0
19
0
0
0
10
0
15
0
0
6
0
0
0
5
0
7
14
0
0
12
0
5
0
0
6
3
0
29
0
12
0
16
0
3
12
0
7
0
0
8
12
0
0
0
1
0
4
1
7
0
0
11
0
8
0
0
0
10
0
0
2
3
0
2
0
11
0
9
16
0
2
6
2
0
0
9
0
0
5
0
7
0
4
0
0
5
0
0
14
11
13
3
0
0
0
5
0
4
2
1
0
0
0
7
2
0
11
11
4
0
1
1
0
39
0
0
0
47
0
4
0
0
0
31
25
0
9
0
17
0
0
0
0
8
0
1
8
0
3
22
0
0
3
2
0
22
0
15
0
0
0
0
0
0
15
30
0
1
12
0
0
16
0
0
0
0
0
63
170
7
14
0
0
0
0
0
2
12
0
4
2
0
1
0
0
3
0
10
0
0
1
13
1
0
3
0
0
0
7
1
0
1
0
0
0
0
7
0
11
0
13
0
0
0
7
11
0
0
0
4
0
1
17
0
0
0
3
0
10
4
0
0
8
0
4
3
0
0
7
0
6
0
1
11
8
0
0
12
18
3
4
0
25
0
7
0
0
0
24
3
2
10
5
0
6
0
0
0
0
7
0
14
4
0
1
0
25
0
0
0
5
5
1
0
12
0
0
4
1
9
0
0
15
18
0
10
0
9
5
5
0
25
0
0
10
1
8
0
12
16
0
0
0
8
0
4
16
0
0
25
0
23
17
0
15
0
0
11
2
1
13
0
7
0
30
0
15
13
0
0
0
0
0
0
0
0
0
1
20
6
20
0
0
0
11
8
13
2
0
0
0
24
0
0
37
0
0
0
39
0
1
28
8
0
0
53
0
0
43
6
0
16
15
0
0
10
58
0
0
12
39
0
0
5
44
11
5
0
32
31
0
20
41
32
0
0
0
43
50
0
0
0
7
27
33
0
0
5
0
27
20
14
0
0
0
0
18
5
24
15
12
21
26
0
0
0
0
1
0
15
14
0
0
0
0
5
1
3
0
42
0
0
7
5
0
21
7
0
11
0
0
0
0
0
2
0
5
3
0
0
10
2
2
0
15
0
3
12
0
4
8
0
12
5
0
7
0
2
14
0
0
0
10
0
0
0
18
38
0
0
11
6
1
0
11
16
0
37
0
0
3
0
0
0
0
0
0
3
0
1
8
4
6
0
3
0
0
0
0
14
0
4
0
3
0
0
5
6
5
0
10
0
2
0
0
9
0
4
0
14
14
0
0
3
10
0
0
7
0
4
0
5
6
0
0
4
0
18
0
0
3
0
19
0
0
7
8
7
0
0
0
0
2
1
0
6
5
0
2
2
1
0
0
0
0
10
0
0
6
0
0
15
9
1
10
2
8
0
5
0
0
3
0
5
3
0
11
1
9
16
18
0
0
12
0
0
0
0
0
8
0
10
2
6
0
8
21
0
0
0
0
2
0
1
0
0
0
0
0
7
0
0
8
0
10
0
3
0
2
0
0
0
28
8
1
0
0
0
0
0
0
0
47
0
0
9
0
32
1
31
152
0
0
3
0
13
0
3
0
0
11
5
3
0
8
0
7
0
0
0
0
0
0
3
0
5
0
14
0
5
0
2
2
3
3
4
10
13
0
0
0
6
0
0
0
3
7
0
9
0
14
0
3
0
6
0
3
25
0
17
0
13
1
0
0
7
0
8
0
0
2
13
0
24
0
0
8
6
8
0
0
0
0
0
0
7
0
4
16
1
0
0
0
0
0
5
2
6
0
15
12
0
0
0
6
0
0
2
0
1
0
0
11
0
0
1
4
0
9
0
0
3
1
4
9
0
0
0
7
8
0
0
7
0
10
1
3
2
1
2
0
15
0
0
0
4
5
0
0
15
0
0
5
0
3
0
0
36
0
0
0
13
1
3
0
5
0
0
10
0
6
0
0
0
0
6
54
0
44
19
19
6
0
0
4
0
9
9
20
20
0
0
0
38
0
0
12
0
21
0
0
0
25
0
28
47
0
0
28
21
0
0
0
16
0
2
51
7
0
0
39
20
0
0
25
29
0
0
1
22
1
0
0
36
0
0
0
38
45
13
0
0
13
35
30
0
0
0
11
11
13
0
0
0
0
10
4
21
7
3
0
0
4
19
38
28
13
0
0
0
0
0
21
0
0
15
10
0
4
0
0
1
0
8
0
1
0
12
0
11
0
12
0
15
12
0
0
13
0
16
5
3
0
14
4
1
12
0
0
0
0
14
0
13
2
0
13
0
4
0
0
33
0
1
22
5
5
7
0
0
1
0
18
0
2
9
0
0
4
0
0
0
7
0
4
14
21
0
2
3
5
0
0
0
0
5
0
11
0
0
3
4
0
5
1
0
4
0
0
0
23
0
0
3
4
0
18
0
2
1
0
0
0
0
3
3
17
0
1
1
1
0
4
8
0
12
0
0
9
0
4
0
13
0
0
13
7
0
4
0
0
0
6
0
12
0
6
0
8
1
0
7
1
5
0
11
0
10
0
24
0
2
0
4
4
5
9
0
6
4
2
2
0
1
0
1
2
3
3
11
0
6
31
14
0
0
0
0
0
0
19
0
0
7
0
18
0
13
0
11
9
19
14
11
6
10
6
31
0
0
29
0
21
0
1
0
0
0
12
0
2
9
0
14
0
8
0
26
22
0
1
0
45
0
0
0
2
0
0
3
0
43
160
0
5
2
1
1
0
5
0
7
13
0
16
0
2
1
6
0
21
0
27
4
0
6
1
0
8
0
0
8
0
0
4
0
0
0
0
0
0
14
2
0
13
12
0
8
0
0
9
0
7
0
0
8
0
0
7
0
0
11
1
0
0
6
0
3
0
0
0
26
3
0
0
0
21
0
0
10
0
11
4
19
0
1
4
0
24
6
0
0
15
0
21
3
0
0
0
0
11
7
1
13
1
2
0
10
1
2
0
3
18
0
0
0
20
0
0
2
9
4
5
0
0
20
0
14
2
1
9
0
0
4
3
0
27
0
0
2
13
1
0
0
7
0
6
10
5
0
7
0
0
17
0
4
2
5
0
0
17
0
0
8
0
0
0
0
0
0
0
3
0
0
42
4
11
40
6
0
4
0
0
0
0
0
0
38
0
0
17
0
0
0
25
0
43
23
0
32
33
0
5
0
0
16
46
0
0
52
6
0
23
39
0
0
36
42
0
3
7
42
2
0
13
41
0
0
0
0
26
0
3
2
28
0
0
1
30
34
0
0
26
8
41
6
0
0
16
26
28
3
0
0
0
5
7
20
5
0
0
0
0
0
15
9
2
16
37
22
0
0
0
0
0
13
0
10
5
0
6
0
13
1
0
33
10
4
0
0
0
0
0
21
0
0
0
3
4
0
17
0
1
0
5
0
1
0
3
3
9
0
3
0
0
0
0
0
0
14
0
0
0
0
0
0
0
0
6
0
11
2
14
0
0
13
11
0
0
6
0
16
8
8
0
7
0
0
0
4
0
7
0
4
0
0
33
0
0
0
7
0
0
1
0
3
0
6
0
0
0
19
0
5
6
0
7
1
0
6
9
0
19
0
13
3
0
7
0
0
11
4
0
3
20
0
0
0
0
3
0
7
13
0
9
0
9
0
3
7
0
4
2
13
0
10
0
9
0
0
0
7
7
0
0
1
0
0
0
0
5
0
5
0
0
0
2
8
10
7
0
5
0
0
1
1
0
0
0
0
3
0
5
6
5
46
16
0
0
0
13
0
0
10
0
7
31
0
5
0
32
0
0
0
20
0
0
10
0
0
26
4
4
0
0
2
36
0
26
33
3
8
0
32
0
0
0
8
27
0
7
0
0
8
0
0
0
0
9
0
4
12
0
60
166
3
2
0
0
0
15
0
20
11
0
17
0
0
14
0
0
13
0
2
0
0
4
0
14
15
0
0
11
5
40
0
7
7
0
2
17
0
0
0
0
12
0
0
2
0
0
4
5
10
0
3
0
0
13
0
7
6
21
0
10
0
0
6
0
4
0
4
0
0
0
0
26
37
0
20
13
6
0
0
0
0
3
7
2
0
0
21
0
0
8
0
0
0
0
0
1
0
0
4
0
0
0
0
5
0
0
16
1
0
11
0
16
4
0
0
9
0
0
8
10
0
0
0
6
0
7
0
0
10
0
20
0
0
0
0
0
0
6
0
26
6
0
10
4
1
0
21
0
2
0
8
0
15
0
2
10
0
0
0
9
0
0
0
0
6
0
0
0
32
48
29
0
18
0
12
0
0
0
8
0
0
5
7
0
31
0
12
2
0
22
0
0
14
0
0
0
7
0
22
0
10
56
6
0
3
9
3
0
8
5
0
0
66
20
0
0
48
8
0
25
41
18
0
0
25
0
0
9
7
10
0
0
0
34
25
0
0
0
7
48
5
0
0
6
30
35
6
0
0
16
15
22
14
0
0
0
0
5
17
0
25
0
0
0
8
14
47
25
4
0
0
0
0
1
0
0
7
0
0
0
0
3
0
0
9
2
0
8
0
0
0
0
7
13
0
0
4
0
12
1
1
8
0
4
0
0
0
0
14
5
18
5
0
10
0
8
4
0
6
10
6
0
0
1
0
14
0
0
14
0
6
5
0
0
0
8
1
0
0
0
0
18
0
0
9
9
13
0
9
9
0
3
13
0
0
2
0
23
1
0
8
0
6
0
4
4
6
0
0
2
0
0
6
0
0
11
0
0
0
22
0
1
8
0
0
0
7
0
0
17
0
0
0
2
13
0
0
5
0
4
7
0
0
0
0
3
0
9
0
9
0
0
3
0
4
0
0
0
0
17
0
15
0
0
5
0
35
0
3
1
0
0
0
0
11
18
1
1
2
6
0
0
2
8
0
0
0
0
3
4
10
31
38
26
0
0
14
0
10
8
0
3
0
17
0
7
32
0
16
0
16
0
0
8
0
9
18
0
0
9
9
0
0
0
11
0
0
0
0
19
0
0
11
0
0
0
0
0
0
10
0
34
0
30
11
0
0
0
0
0
57
156
0
17
0
15
2
0
7
0
0
0
2
0
9
0
0
8
4
0
0
1
0
1
2
0
0
4
0
1
0
0
30
0
3
0
18
0
11
1
12
0
0
18
0
6
0
7
2
0
0
10
5
0
0
2
9
0
0
12
0
12
3
0
0
0
0
0
0
14
24
8
23
23
0
15
0
4
0
14
13
30
0
0
0
8
13
0
0
0
11
8
0
0
0
8
0
0
1
22
0
15
13
5
0
0
0
3
0
0
1
7
0
12
0
39
0
0
0
15
0
1
0
4
29
0
6
0
12
0
0
2
0
23
0
0
15
5
0
7
0
3
0
5
0
0
0
17
0
0
0
9
0
0
2
0
0
1
3
0
5
0
0
0
0
79
77
12
0
13
39
0
0
7
2
10
0
0
7
4
0
0
20
7
0
0
1
0
13
0
0
9
0
28
0
11
0
17
0
2
0
0
41
0
0
40
7
0
35
12
7
0
6
25
0
0
5
44
0
0
14
35
0
22
0
17
7
0
1
27
0
0
14
11
43
0
0
0
17
26
9
0
0
25
2
25
19
0
0
0
18
4
23
0
0
0
0
9
19
19
0
0
0
0
0
9
9
9
17
14
31
17
0
0
0
0
19
9
9
0
0
20
6
4
6
0
16
0
0
0
17
10
0
8
0
19
0
13
0
3
6
0
7
0
13
5
14
0
11
0
1
0
0
0
0
18
0
5
0
8
0
0
5
0
15
0
3
0
6
0
0
4
8
0
6
7
16
0
7
9
21
0
8
0
5
0
0
0
3
0
15
0
0
0
7
0
10
0
0
0
0
12
0
11
0
18
0
21
7
0
5
9
0
0
16
0
11
6
0
1
0
3
3
0
5
3
0
10
0
8
0
0
0
6
2
13
0
2
1
15
0
3
7
0
9
4
3
0
14
0
4
0
0
9
0
3
1
0
19
8
0
0
7
0
0
5
0
10
0
0
0
2
5
1
0
0
8
28
0
5
0
8
7
0
0
0
6
5
0
9
0
0
10
22
22
0
0
0
0
13
0
2
0
0
0
0
17
0
0
24
10
0
0
8
20
0
0
0
0
0
0
0
0
0
0
4
0
3
0
2
0
0
5
1
0
102
0
1
0
16
0
9
0
14
5
14
0
0
0
43
0
0
72
165
6
0
1
16
0
0
0
1
10
1
13
0
0
7
13
0
19
0
16
0
22
0
0
7
0
0
0
0
13
0
2
0
0
0
0
0
17
7
0
6
0
5
0
0
0
0
15
0
7
0
5
0
1
11
3
9
8
0
26
0
13
10
0
12
0
24
17
0
0
0
0
2
0
0
0
0
8
0
12
0
5
34
23
0
0
18
6
7
0
0
19
0
15
0
22
0
14
0
6
0
5
0
0
0
10
0
1
4
0
0
0
41
0
0
0
18
23
0
0
4
10
8
0
4
0
12
0
7
4
0
17
12
3
0
0
17
0
0
0
8
10
14
0
9
0
14
0
9
0
11
13
0
24
0
4
0
8
0
6
0
0
26
4
44
60
0
0
22
0
0
11
0
10
0
16
0
0
36
0
9
0
22
0
5
7
0
13
13
15
0
34
0
1
0
0
13
7
0
28
14
1
4
0
4
0
10
27
0
0
58
0
0
0
37
11
0
10
50
11
0
0
13
0
0
29
44
0
0
0
1
34
0
0
0
21
38
23
0
0
0
12
30
28
0
0
0
6
18
39
0
0
0
15
5
16
18
0
0
0
0
0
10
18
7
9
0
0
0
21
45
48
27
0
0
0
0
6
0
19
0
0
0
0
0
2
6
1
19
0
5
0
0
1
0
0
1
3
0
1
5
1
6
5
0
0
6
3
0
5
7
0
14
0
0
0
5
12
8
0
14
1
13
1
9
0
8
0
24
0
2
0
2
0
0
0
5
0
0
4
0
6
0
2
3
8
2
0
8
0
0
12
0
0
7
0
0
9
3
5
0
0
10
0
9
7
0
0
0
2
0
5
7
3
0
8
0
1
0
0
0
0
0
2
0
0
0
7
0
0
9
3
0
0
0
14
0
3
5
1
1
0
19
0
0
0
2
0
3
11
0
0
1
1
0
8
0
0
6
0
5
0
0
22
0
0
4
2
0
7
0
0
0
0
0
0
4
13
0
0
0
0
1
0
0
0
0
0
1
5
10
7
43
100
54
0
0
0
21
0
0
4
9
11
6
0
6
19
0
0
12
13
0
0
8
21
2
5
0
16
0
26
18
28
0
0
6
0
7
0
0
0
6
0
0
5
8
0
22
0
0
0
6
4
20
0
7
0
0
14
0
39
157
0
0
4
6
0
0
7
7
0
0
0
0
9
0
0
0
0
5
0
0
0
0
0
5
0
13
16
3
0
0
4
14
0
7
2
1
0
0
22
0
15
0
26
3
3
0
0
2
1
4
0
13
0
4
0
0
3
0
0
0
3
8
5
0
7
4
0
0
4
6
0
22
13
0
0
16
0
0
0
0
0
0
0
10
0
0
10
0
10
0
11
5
0
1
13
10
0
0
5
0
5
0
2
31
0
31
0
0
0
12
9
0
0
5
26
0
0
35
0
0
0
0
0
0
7
0
1
0
0
0
0
0
9
0
12
1
6
12
2
0
0
0
0
0
16
0
0
9
0
8
0
8
0
17
0
0
0
0
0
0
0
4
4
0
0
25
0
0
2
0
0
5
0
0
7
0
29
0
0
0
0
0
0
0
0
5
21
0
8
31
0
0
3
9
0
0
0
25
0
0
29
0
0
9
25
0
0
0
32
4
0
37
0
0
0
29
17
0
24
5
7
20
0
0
22
0
0
35
28
16
0
0
0
7
49
0
0
5
9
21
28
0
0
0
19
22
31
7
0
0
13
31
3
21
0
0
0
0
9
19
9
1
0
0
0
0
4
25
9
8
18
19
6
0
0
0
1
30
0
0
2
0
14
27
0
4
0
4
0
0
0
12
1
2
0
12
0
6
0
10
0
0
0
3
0
6
0
6
0
0
4
0
0
1
5
0
0
1
0
5
8
0
6
0
0
0
10
0
8
12
0
11
0
11
0
15
0
6
0
5
0
3
4
0
0
4
6
0
4
5
0
0
0
0
10
0
0
8
0
1
2
0
3
4
0
0
10
0
1
10
3
0
16
0
10
0
0
5
0
6
2
0
0
0
2
2
3
7
6
0
7
0
23
8
7
7
0
0
7
0
2
0
0
5
5
7
0
11
0
0
18
0
8
0
1
0
3
4
0
4
0
0
0
2
12
0
9
0
0
9
0
17
0
0
0
14
6
11
5
4
0
0
0
4
4
1
0
0
12
9
20
49
5
0
0
3
15
0
3
3
0
18
0
0
15
9
0
18
4
6
0
11
4
0
0
0
0
3
0
1
0
2
0
0
0
2
0
11
0
16
0
10
30
0
9
0
0
0
13
0
0
0
0
0
3
0
14
13
0
12
46
165
0
3
0
0
4
0
19
0
9
0
18
0
1
0
5
0
18
0
2
8
0
26
0
0
11
0
0
15
0
32
0
2
0
2
0
18
5
3
0
4
0
8
0
0
22
0
1
14
0
0
15
0
0
0
5
0
9
0
10
10
0
1
0
0
0
0
0
28
0
16
6
3
0
12
0
9
0
0
8
10
0
0
0
4
9
0
0
14
0
8
0
17
0
11
5
0
22
0
0
2
0
9
0
0
0
5
0
24
4
0
10
0
23
0
0
4
5
0
6
11
1
0
29
0
12
0
9
1
21
0
0
25
0
14
0
0
0
1
5
0
0
0
17
0
5
0
10
5
0
0
0
0
7
0
0
14
0
0
81
42
0
0
5
0
0
0
16
14
0
2
0
9
1
0
13
4
0
3
5
13
4
0
11
0
14
0
0
5
0
0
0
0
38
0
0
0
15
0
0
48
0
0
0
38
0
2
13
33
0
13
45
0
0
40
34
2
0
14
2
0
21
24
0
0
32
7
33
5
0
0
20
34
32
1
0
0
0
13
20
20
0
0
16
19
30
0
0
0
10
21
11
23
0
0
0
0
4
17
21
0
0
0
2
3
9
17
10
3
0
0
10
8
47
59
0
0
0
0
0
0
5
1
0
0
15
3
0
0
2
0
0
1
17
0
11
0
13
0
5
0
26
0
10
0
13
0
0
8
0
4
0
4
0
10
5
5
14
0
6
0
3
0
0
17
13
0
0
21
0
0
0
1
0
3
1
0
9
0
7
0
0
0
8
0
10
3
0
2
0
5
0
3
10
0
0
7
5
0
2
14
0
5
4
0
0
6
15
1
0
0
0
10
0
34
0
6
0
25
0
0
4
0
4
0
0
10
0
0
3
1
0
21
0
0
2
0
3
2
19
0
3
0
13
8
0
0
9
0
9
0
0
0
7
0
2
14
0
4
0
6
0
12
0
2
0
5
0
0
0
8
0
7
9
0
0
0
17
7
0
11
10
0
0
2
0
4
8
1
8
7
32
52
0
0
9
2
0
2
15
5
6
0
4
20
0
0
1
0
0
12
0
0
0
8
20
0
2
0
12
0
4
0
0
8
0
0
14
0
0
4
0
6
2
0
0
5
0
0
3
0
17
0
0
14
0
9
0
0
19
13
50
170
2
2
0
9
16
0
2
2
8
0
0
2
11
0
5
3
15
0
10
0
28
0
15
0
0
1
0
0
0
0
10
0
0
15
0
1
12
0
3
4
3
0
3
0
0
0
25
0
23
0
0
21
0
12
0
6
3
16
0
0
9
0
0
18
0
19
0
0
4
0
0
0
5
0
7
19
0
23
0
2
0
17
0
0
4
0
21
0
13
0
0
0
2
0
0
4
0
1
16
5
0
0
8
4
0
1
5
0
0
0
0
19
13
0
8
2
0
0
17
0
16
0
10
0
15
0
6
10
0
0
0
0
11
0
0
0
22
0
0
6
17
0
0
0
0
0
0
0
7
0
2
5
4
0
9
0
0
44
151
0
0
0
8
0
0
0
20
0
14
0
2
0
0
0
10
0
0
0
0
0
15
0
2
35
0
0
0
20
0
8
0
0
0
17
4
6
12
20
27
0
0
34
0
0
0
23
0
0
41
0
0
0
0
9
0
11
7
0
30
17
0
0
0
13
41
0
0
5
17
44
18
0
0
0
14
5
20
12
0
0
0
14
26
0
0
0
3
19
17
15
0
0
19
0
12
39
18
0
0
0
3
1
16
13
10
0
2
0
0
1
0
25
12
18
37
12
0
0
0
9
0
0
1
4
0
1
3
0
0
0
3
4
0
8
4
0
7
10
0
0
0
0
1
0
1
0
0
0
6
0
0
2
0
11
0
0
0
0
13
0
0
10
15
0
5
0
0
0
7
14
1
4
0
12
0
0
16
0
8
0
8
5
0
0
0
0
0
2
0
3
0
0
6
6
0
0
13
0
0
6
5
0
2
6
4
0
0
2
0
8
15
0
12
0
0
0
11
0
0
0
8
23
0
9
3
0
5
0
0
24
0
0
2
0
0
0
2
3
0
4
0
7
12
0
24
0
0
0
4
0
0
1
8
0
0
0
0
5
0
11
0
2
0
10
3
22
0
9
6
0
2
4
0
0
0
0
0
1
31
0
0
0
9
2
1
1
7
6
7
29
58
19
0
0
6
6
0
0
0
0
4
5
0
18
13
0
16
12
0
0
6
0
0
0
0
0
13
25
0
1
21
14
0
7
6
2
6
0
0
11
1
4
0
27
0
0
0
0
0
10
0
13
0
4
12
2
12
9
0
1
58
159
0
0
10
2
0
4
3
0
20
0
6
0
0
4
9
0
0
5
0
2
0
0
0
0
0
9
0
0
10
0
0
4
2
0
0
8
0
14
0
12
0
4
8
0
2
0
0
7
0
7
0
0
10
0
9
7
0
8
0
16
0
0
0
1
0
0
6
0
6
17
22
0
1
0
0
0
0
0
8
0
4
0
9
0
0
3
12
0
0
32
0
0
4
6
0
13
2
7
0
0
0
7
0
10
0
23
11
0
0
21
6
0
9
0
0
32
0
0
14
0
6
0
0
0
1
2
0
5
2
6
1
5
0
5
2
0
3
0
6
3
4
0
5
3
10
6
0
13
6
0
0
8
0
0
0
0
0
66
0
0
0
0
41
1
6
5
0
9
0
0
30
0
0
19
0
0
12
13
0
38
0
1
5
0
0
12
14
9
0
7
5
0
16
0
0
0
0
20
0
19
26
0
22
0
5
0
19
23
0
11
29
2
0
0
40
0
0
42
16
0
0
17
45
10
0
0
17
34
25
0
0
7
13
0
20
0
0
0
0
20
17
0
0
0
12
16
18
14
0
0
0
14
11
18
8
0
0
0
20
10
8
4
0
0
0
0
4
0
16
8
6
0
0
0
12
38
40
11
0
0
0
4
0
0
14
0
14
8
3
0
33
0
10
2
8
0
8
0
7
0
0
0
0
0
12
0
12
11
0
0
12
0
15
0
25
7
5
11
8
0
10
0
10
0
11
5
14
0
0
0
1
0
6
0
3
0
0
5
9
0
0
0
1
13
10
0
1
3
0
7
0
0
10
1
0
0
0
8
0
3
0
12
0
5
0
7
0
0
9
0
15
0
2
16
0
13
0
0
17
0
10
0
7
0
8
6
6
0
0
0
9
0
0
24
10
0
3
0
0
11
0
0
0
4
0
0
5
0
0
0
0
4
0
5
0
3
0
0
0
2
0
10
0
1
0
2
0
12
0
1
2
0
0
8
0
8
0
0
0
14
13
0
0
5
2
9
4
3
21
38
32
0
0
1
0
10
1
13
0
3
0
0
12
0
7
0
0
0
10
13
18
0
7
0
0
0
24
0
21
0
0
0
0
0
3
0
0
5
9
0
22
0
5
0
31
0
6
0
3
7
0
1
0
0
0
9
0
0
0
0
23
167
0
0
0
6
0
0
0
0
0
8
13
0
9
0
18
0
7
1
0
0
0
3
0
0
19
0
0
11
0
4
7
0
7
4
22
0
20
0
0
5
0
0
0
5
4
0
1
0
0
6
8
0
6
0
0
4
3
6
0
0
0
27
0
0
0
2
0
0
0
6
0
14
1
10
0
0
9
0
0
3
0
19
0
14
2
0
0
0
0
0
1
0
3
31
0
3
10
0
9
25
2
3
1
0
28
0
0
6
0
1
0
0
0
13
0
1
1
0
8
16
11
0
0
0
2
9
0
0
18
0
0
0
0
15
0
2
7
0
16
0
18
0
0
12
0
4
2
16
0
0
1
4
0
17
0
0
93
27
0
0
0
9
0
1
0
19
0
0
20
0
4
13
4
0
7
9
0
0
12
0
12
12
0
17
0
11
28
0
0
0
17
18
15
0
2
16
7
0
4
10
3
0
0
0
10
0
0
0
0
32
0
0
11
9
26
0
37
0
0
0
29
0
0
0
25
55
23
0
0
0
0
44
8
0
0
16
0
23
22
0
0
8
10
16
21
20
0
0
0
26
0
20
9
0
0
0
19
12
20
10
0
0
0
0
14
0
16
8
7
0
0
0
0
0
17
13
18
40
22
0
0
0
0
18
0
13
0
12
0
0
34
0
0
4
0
20
0
7
0
1
21
0
7
2
0
1
9
0
0
10
0
0
17
0
0
0
8
0
9
0
0
5
0
0
2
0
0
0
8
0
1
0
13
16
0
10
0
0
0
4
3
1
1
0
0
16
3
0
0
0
8
5
0
2
0
10
0
21
0
6
5
0
2
4
0
1
0
15
0
0
1
1
1
0
3
4
0
4
0
22
0
16
0
0
0
4
0
0
4
0
0
14
2
0
3
4
3
0
4
0
2
0
6
1
0
0
6
2
9
0
7
0
4
0
9
0
1
12
0
0
13
0
11
1
0
5
5
0
13
0
0
0
13
7
0
2
0
0
0
38
14
0
5
1
14
1
0
27
42
61
0
0
0
24
0
0
10
5
0
0
0
0
0
1
23
0
5
17
0
11
0
0
0
31
0
7
0
27
0
5
18
0
9
14
0
8
0
13
0
18
1
0
0
0
6
0
2
10
0
9
0
0
22
0
1
19
18
0
0
0
28
175
0
36
0
8
12
4
1
18
0
0
3
0
0
15
0
0
15
0
8
6
31
0
0
8
0
14
0
8
15
0
7
2
2
0
10
0
0
4
2
0
0
0
17
0
14
0
13
10
0
0
11
8
0
8
0
0
4
0
18
10
4
0
10
5
0
18
0
0
13
0
0
0
3
0
8
0
18
0
0
0
0
7
0
0
0
4
5
0
11
16
0
0
0
0
3
0
3
17
0
0
11
0
0
38
0
3
2
0
3
0
19
3
4
0
1
13
0
1
0
0
0
8
0
0
4
0
0
24
13
0
15
4
0
0
18
1
0
28
0
10
3
0
1
2
0
4
0
8
0
4
8
0
0
0
0
22
131
64
0
11
0
17
0
31
2
0
3
38
0
7
0
13
5
0
0
18
0
0
0
24
0
0
0
19
0
0
0
0
0
0
22
0
0
59
0
0
11
5
0
0
1
6
0
26
20
0
25
38
23
0
0
42
0
0
39
0
0
6
14
53
0
0
1
30
42
0
0
0
20
34
30
0
0
10
20
5
18
6
0
0
10
4
16
25
0
0
0
19
24
10
13
0
0
0
17
22
15
0
2
0
0
3
13
10
9
0
0
0
0
0
0
3
20
12
0
0
7
6
41
21
0
0
0
0
0
11
0
0
6
0
0
0
13
8
0
3
0
0
3
0
0
5
0
0
9
0
4
5
3
0
0
0
10
0
5
0
5
0
5
0
6
0
3
0
12
0
3
0
0
26
0
22
1
0
15
14
5
0
7
0
4
0
0
7
0
0
0
15
2
0
0
3
14
0
4
11
0
0
15
0
0
0
1
3
0
5
0
28
1
0
0
0
1
8
0
29
0
10
0
0
4
0
2
14
0
3
0
0
4
12
0
4
0
0
0
2
0
11
0
0
0
8
0
10
0
0
4
4
0
0
2
0
19
0
0
12
1
0
9
0
0
0
2
12
0
5
0
24
0
1
0
19
0
0
1
0
5
0
0
0
11
0
8
9
0
1
30
37
29
0
0
0
5
8
0
11
0
0
11
8
12
0
10
0
12
2
0
18
6
0
29
0
5
0
9
14
5
0
6
7
10
0
0
0
0
12
7
0
14
0
26
8
4
0
0
8
9
0
11
0
17
10
0
7
0
0
0
0
4
0
29
162
0
0
11
0
10
0
22
0
0
0
0
3
2
1
6
10
0
22
0
0
0
1
0
0
5
0
0
11
6
1
0
4
0
27
0
0
0
20
0
8
0
63
0
7
0
13
0
9
0
10
0
6
3
0
15
0
11
0
9
0
0
3
5
0
5
9
0
0
0
33
0
0
0
1
17
5
0
0
21
0
3
10
0
28
0
4
0
6
0
0
9
22
0
0
6
2
5
4
0
0
0
0
4
0
7
8
0
3
9
1
0
3
0
11
4
0
0
8
0
0
23
0
0
5
4
0
0
0
7
4
0
2
0
24
0
0
5
0
0
8
0
12
0
2
0
2
1
0
10
0
6
0
17
10
0
16
88
0
0
0
0
5
2
0
0
0
0
0
12
0
4
10
0
4
3
19
17
0
3
0
11
0
0
0
0
13
0
6
5
10
0
5
8
0
0
42
0
0
11
5
0
0
25
19
0
0
8
0
0
18
18
11
5
16
0
0
14
27
12
0
0
38
31
0
0
0
20
33
14
0
0
0
35
15
19
0
0
0
24
18
19
12
0
0
0
1
13
30
12
0
0
0
17
13
16
0
0
0
0
13
12
9
4
2
0
0
0
10
0
11
6
7
0
0
0
0
8
5
12
26
49
19
0
0
0
0
0
0
18
0
0
0
0
6
0
27
0
6
14
0
3
8
0
4
0
0
0
0
15
7
1
8
0
11
0
11
6
0
0
7
0
0
12
13
0
19
0
9
0
0
17
0
0
11
2
0
0
2
18
8
0
6
0
0
18
4
9
0
2
4
0
0
0
9
7
0
0
23
0
0
2
19
0
0
6
0
9
0
6
0
3
10
0
2
14
0
9
0
6
20
0
6
12
0
0
2
0
0
0
3
3
0
12
5
8
0
16
0
0
0
5
15
0
0
5
7
0
1
3
4
0
0
15
0
0
3
0
5
5
0
0
19
0
1
0
7
6
0
0
15
4
0
0
14
0
13
0
0
0
0
6
11
3
12
11
23
42
54
0
0
0
0
0
0
10
3
14
0
1
4
0
14
0
0
2
3
0
0
7
0
0
11
18
2
0
0
0
26
0
0
0
8
1
0
0
0
0
17
0
12
0
0
0
3
0
0
10
0
0
0
13
0
7
21
0
41
0
2
1
0
26
177
2
15
2
3
3
8
0
0
4
11
1
8
7
0
0
10
0
0
0
1
4
0
0
5
0
9
0
1
0
0
0
2
0
3
7
0
6
0
12
5
0
0
0
2
0
0
0
0
3
1
0
0
0
6
10
0
0
5
0
2
0
1
0
0
24
0
10
0
25
0
10
15
0
17
0
0
2
0
8
0
0
0
11
0
5
0
9
0
1
0
0
0
0
10
0
16
0
0
0
11
0
0
25
1
3
0
12
15
0
10
0
0
16
0
0
0
9
11
1
0
0
5
0
10
4
9
0
0
0
0
7
0
8
0
0
22
0
15
5
0
0
3
19
0
12
0
2
1
1
0
0
16
11
0
0
0
0
0
0
18
16
0
5
12
8
0
5
12
9
0
0
0
0
20
0
5
5
0
25
0
17
3
17
0
26
0
0
9
0
9
6
0
0
39
0
0
0
19
0
0
25
44
0
0
10
30
0
0
0
0
16
20
0
0
0
25
14
0
0
0
36
11
0
0
12
19
46
0
0
10
22
30
14
0
0
19
0
22
29
6
0
0
0
0
26
34
0
0
0
0
0
29
20
0
0
0
0
2
10
0
0
7
0
0
0
0
17
7
19
0
0
0
1
8
22
11
0
5
4
0
22
26
27
0
0
0
0
22
4
9
3
11
0
0
4
0
0
2
6
12
3
0
9
5
0
11
0
0
0
12
0
7
0
2
2
2
0
0
4
16
0
0
0
0
15
0
12
0
14
4
0
3
0
3
6
11
1
0
0
0
5
2
11
12
0
13
0
5
8
0
3
0
0
0
0
18
0
0
7
0
0
0
10
13
0
14
0
4
0
8
0
0
0
5
1
3
18
1
0
0
21
1
0
7
0
6
0
5
11
0
0
1
8
0
3
11
0
9
0
3
1
0
5
6
0
7
0
0
3
0
0
19
0
0
7
0
0
0
1
0
16
0
24
0
2
0
4
3
2
0
9
1
8
0
0
9
0
0
0
0
17
0
20
11
33
40
44
0
0
0
0
2
2
0
0
0
0
11
0
0
0
9
0
17
0
43
0
0
0
22
0
0
0
1
4
5
22
0
4
14
0
0
13
1
0
13
0
0
26
6
0
0
0
15
15
0
8
0
0
0
2
1
15
0
23
0
0
4
0
0
37
166
0
0
2
1
4
0
2
0
13
0
16
0
0
8
0
25
0
0
7
0
0
0
0
0
9
8
0
15
0
3
12
0
0
3
8
0
8
0
0
2
12
0
5
0
1
17
0
11
1
11
0
10
0
12
0
0
0
8
1
5
0
0
18
0
10
28
0
0
0
0
0
0
33
0
10
25
0
0
16
0
16
16
0
16
18
27
0
0
21
0
11
0
25
0
0
0
5
0
3
8
18
14
0
6
2
0
5
0
0
10
1
20
0
0
24
0
0
5
2
9
0
1
7
0
0
0
0
22
0
14
0
0
0
3
0
5
0
0
10
14
0
11
7
11
0
20
0
0
28
0
11
0
0
5
13
0
0
0
0
4
15
0
0
0
0
0
7
6
6
0
11
0
4
17
0
0
17
4
0
0
0
0
9
5
0
9
0
1
0
21
0
0
35
0
0
0
11
0
0
27
0
0
19
21
0
0
0
12
0
4
0
0
0
11
29
10
0
14
19
19
2
0
0
33
28
0
0
0
6
39
36
0
0
0
28
29
23
0
0
0
13
22
29
23
0
0
0
7
15
0
23
1
0
0
0
22
19
17
0
0
0
6
6
11
14
23
0
1
0
0
8
2
3
8
9
3
0
1
0
12
11
12
36
20
0
0
0
0
0
0
0
3
18
0
0
17
0
6
0
0
1
2
0
0
5
0
7
13
0
0
0
9
0
8
0
20
0
0
3
0
0
12
0
0
0
0
0
13
0
6
5
0
14
4
0
5
14
0
16
0
2
0
0
0
0
0
0
2
1
0
10
0
17
0
11
0
5
0
6
0
6
0
16
0
0
16
2
0
5
2
0
2
8
0
5
0
3
0
10
2
0
0
1
0
6
2
10
0
0
0
6
12
0
4
7
0
13
0
11
0
0
2
0
0
0
1
11
3
0
14
0
0
0
2
0
15
0
3
12
0
0
0
2
7
2
0
0
0
4
0
0
4
0
0
15
0
11
0
0
0
7
17
29
21
35
24
0
0
0
0
14
4
0
5
11
14
0
5
11
0
4
0
25
0
37
0
0
11
14
0
0
3
3
9
0
4
0
0
0
8
0
25
0
14
0
2
41
6
0
9
8
23
0
0
0
8
3
0
3
6
2
0
30
6
0
0
8
0
0
11
21
182
12
0
0
10
0
5
8
4
0
0
5
3
0
20
1
0
0
0
0
1
0
8
8
0
3
4
0
5
1
6
0
0
1
0
3
8
0
3
8
0
5
0
0
0
0
3
0
0
0
0
1
0
0
0
6
3
0
6
1
9
0
17
0
0
11
0
6
8
0
2
20
1
0
0
0
6
1
1
0
5
3
16
0
0
0
0
24
0
0
6
15
0
1
7
0
18
0
3
2
0
23
0
0
12
0
3
0
12
0
0
0
0
16
8
18
0
0
0
0
0
4
5
0
16
0
17
3
0
0
0
1
10
0
8
0
16
0
0
0
0
8
0
0
17
0
6
0
0
7
3
0
0
0
86
15
0
0
0
21
0
2
0
0
23
0
8
0
9
0
0
23
9
7
1
0
9
5
0
13
7
4
0
0
2
10
0
28
35
4
4
7
0
0
7
26
0
10
0
43
0
0
20
3
0
0
0
6
13
15
0
0
0
28
32
0
0
34
47
0
0
1
2
57
11
0
0
0
43
26
0
0
0
5
48
30
0
0
0
0
15
34
5
0
0
0
0
6
8
24
27
0
0
6
14
12
15
0
0
0
13
9
1
18
0
0
0
0
0
0
15
12
22
0
0
0
0
0
12
9
0
0
0
15
33
34
0
0
0
0
12
11
1
0
9
10
0
17
3
1
9
11
7
0
14
17
0
0
0
0
17
0
20
0
22
0
7
0
0
3
0
8
3
0
6
18
15
0
0
15
0
9
0
11
0
0
0
0
0
0
9
1
0
6
0
10
5
5
5
0
0
22
0
0
3
22
0
4
12
0
11
0
3
0
0
11
0
11
0
0
8
4
0
0
4
11
0
0
2
0
0
0
14
0
6
7
0
0
9
3
0
0
0
0
4
0
2
6
0
0
5
0
0
13
7
8
0
0
0
9
0
0
21
0
0
0
0
0
5
0
0
0
3
0
7
6
1
15
1
0
10
0
0
0
0
11
0
6
7
0
0
27
37
21
33
14
0
0
0
1
0
0
16
0
0
0
0
15
0
0
20
0
0
6
1
0
21
0
0
0
0
31
26
0
0
6
1
3
7
0
4
0
33
0
5
3
0
0
10
0
2
11
0
0
4
8
2
0
0
0
22
0
46
0
21
0
2
0
0
0
0
51
170
0
2
3
1
5
0
0
14
5
0
4
3
6
3
5
0
3
0
0
7
0
0
1
4
0
0
0
6
0
5
0
15
0
19
0
4
0
0
2
16
0
2
0
0
1
9
0
0
6
0
0
17
0
2
0
1
0
3
2
0
0
0
5
0
0
25
0
0
13
0
0
7
0
30
10
0
0
3
0
10
4
0
3
0
0
35
33
9
0
0
0
0
4
0
3
12
0
0
11
0
0
0
15
0
0
0
9
9
6
0
4
0
2
0
0
1
33
5
0
2
7
4
0
0
31
0
0
13
0
0
17
0
0
2
0
0
14
0
4
9
0
0
6
2
7
0
11
7
0
0
0
0
0
41
0
0
17
2
0
0
0
19
0
17
0
0
3
0
0
0
21
2
0
4
0
1
7
0
0
14
0
33
9
0
0
31
6
0
0
12
0
0
22
31
0
0
20
20
0
10
41
11
0
0
18
0
18
26
0
0
23
34
25
0
5
19
29
0
0
7
19
26
0
0
0
43
39
0
0
3
0
29
29
2
0
0
0
26
13
28
4
0
0
0
27
24
16
0
0
0
3
0
15
30
0
0
0
0
11
21
4
0
0
0
0
6
2
10
9
16
0
0
0
7
0
11
4
13
7
0
0
0
7
9
40
36
0
0
0
0
0
0
3
8
0
14
0
3
0
9
4
0
12
1
0
0
10
6
13
0
6
0
10
0
9
0
1
3
9
16
8
0
6
0
0
0
1
0
9
0
0
0
0
16
1
0
0
11
0
0
0
0
9
2
0
7
0
0
2
0
0
8
0
4
0
7
0
4
0
12
0
10
0
2
0
21
0
0
6
0
4
0
0
0
0
0
14
0
0
0
1
0
11
8
0
0
6
0
10
0
0
8
18
0
0
2
2
0
21
0
10
0
0
1
0
5
0
0
4
16
0
0
9
0
0
3
10
0
13
2
1
0
18
3
0
0
0
1
0
6
14
0
12
0
14
0
6
0
0
5
0
2
36
0
0
0
11
0
0
0
19
19
0
0
0
1
0
0
7
8
19
0
0
0
24
0
0
0
28
3
6
0
40
17
0
12
0
0
0
0
0
8
20
0
0
17
0
0
0
0
11
0
0
30
5
0
15
12
18
21
9
9
0
4
11
0
8
0
0
0
156
166
0
8
0
0
8
0
0
0
0
10
0
0
0
7
5
1
0
20
0
0
0
6
0
9
0
0
2
6
0
1
5
0
0
0
3
10
6
4
3
0
4
10
0
16
0
0
0
0
0
2
0
11
0
11
1
8
0
22
0
0
17
2
0
1
0
0
0
0
0
0
0
0
31
0
0
1
21
0
16
18
0
21
3
24
0
0
0
0
0
5
0
3
0
0
17
0
4
4
10
0
5
8
0
0
11
0
2
0
2
0
0
23
0
4
0
0
12
0
13
0
2
6
9
0
0
16
0
0
17
0
5
1
6
4
0
0
0
15
0
0
7
9
0
0
10
0
0
4
30
0
0
0
57
0
0
0
0
22
0
0
23
0
17
0
0
23
0
9
0
25
0
0
11
0
1
0
1
0
0
0
21
4
0
0
29
23
0
0
9
1
0
37
5
0
0
4
9
0
30
33
0
0
29
1
0
44
0
0
0
29
38
0
0
28
18
23
0
0
14
49
12
0
0
20
46
0
0
0
11
44
42
0
0
0
20
26
31
0
7
0
0
11
12
24
17
0
4
0
0
7
17
20
3
0
0
4
11
16
12
0
0
0
4
1
1
12
6
6
0
0
6
8
16
0
14
9
0
0
0
17
1
12
12
1
14
14
19
35
0
0
0
0
0
0
0
0
16
0
0
0
0
11
0
18
0
0
0
0
0
10
1
0
0
1
0
7
12
0
0
10
0
0
17
0
6
0
0
4
0
2
0
21
6
0
12
0
6
0
4
0
0
3
9
0
3
0
0
11
13
0
0
13
0
0
5
0
0
0
0
0
6
0
0
12
18
2
0
3
1
4
0
7
0
0
2
15
0
15
0
0
14
0
0
0
5
14
2
0
0
0
5
0
0
11
1
0
0
3
0
1
0
0
5
9
3
0
19
0
1
0
14
1
0
0
9
0
0
0
13
0
0
3
0
0
0
8
8
8
0
0
0
5
0
6
0
4
7
0
3
37
14
6
0
0
0
12
0
6
8
24
0
0
0
21
0
12
26
5
14
0
0
0
0
0
0
0
19
0
0
12
0
0
0
5
0
0
5
0
0
0
6
9
0
0
0
0
0
52
6
0
0
5
0
2
0
10
0
0
11
0
27
12
0
0
8
0
0
0
0
21
176
184
13
0
13
4
0
4
4
16
0
0
15
0
2
3
0
0
0
0
0
7
6
0
5
14
0
11
2
0
16
0
0
5
0
0
0
0
0
13
0
0
0
2
0
0
5
0
2
0
7
2
3
0
7
0
0
9
0
0
0
8
14
17
0
12
0
24
1
0
9
11
0
7
0
0
2
0
8
0
0
0
10
0
0
3
5
6
3
0
0
18
0
9
0
16
0
18
0
0
0
0
0
19
0
11
6
0
0
12
0
11
0
10
2
9
0
11
0
17
3
0
6
0
2
0
0
7
0
0
20
0
2
1
0
0
18
6
0
0
12
11
0
0
0
9
1
5
0
0
0
0
0
72
83
0
0
5
0
0
5
16
0
2
0
0
20
0
8
0
8
0
0
8
0
17
0
34
8
0
39
10
7
0
0
52
5
3
0
0
0
40
21
0
0
18
32
0
9
32
0
0
0
29
5
0
44
8
0
0
30
24
0
0
17
29
0
0
14
35
23
0
0
8
32
32
0
0
0
22
40
0
0
0
0
33
14
8
0
0
3
0
8
15
18
0
0
0
11
0
13
17
0
1
0
2
13
14
11
6
0
0
2
14
0
12
11
5
0
0
3
0
10
1
14
4
0
0
0
7
16
0
27
5
0
12
0
4
20
78
0
0
0
0
0
0
0
0
14
0
19
0
1
1
0
17
0
0
0
4
6
3
11
8
0
0
5
6
1
5
0
0
30
0
0
3
5
10
0
15
0
0
11
0
0
16
0
0
15
1
0
7
10
0
3
0
0
14
10
0
4
0
7
0
0
0
6
0
21
0
0
0
3
0
2
0
0
1
5
0
12
0
4
10
0
7
0
0
15
9
0
1
0
2
0
9
0
0
0
0
5
15
0
3
4
0
9
0
16
0
0
0
0
6
3
0
0
0
0
11
0
3
0
2
0
13
0
0
8
0
1
0
8
0
28
0
0
12
0
0
15
0
0
0
0
0
10
15
0
3
2
0
7
15
0
0
0
0
7
15
4
0
0
0
16
0
25
0
0
0
4
11
1
19
10
47
3
4
0
0
6
0
5
16
0
0
0
0
0
0
4
21
0
0
3
1
11
14
41
0
0
24
13
0
3
3
0
0
0
13
0
24
0
0
0
0
0
0
0
0
7
21
181
163
0
6
0
0
11
0
0
8
0
14
0
0
2
14
0
0
0
0
2
0
0
21
0
0
0
23
0
1
11
0
0
29
0
20
0
13
5
0
14
0
2
1
0
23
0
0
11
3
4
8
0
7
6
0
17
0
11
13
0
0
0
0
21
0
6
0
0
8
0
3
3
0
0
52
0
10
0
5
5
10
0
15
15
0
22
5
6
0
0
8
2
10
0
0
15
0
0
8
0
7
5
0
0
0
4
7
1
12
0
13
0
23
0
0
6
5
0
0
0
0
3
0
0
21
0
0
15
0
0
0
0
10
0
7
0
3
3
17
0
0
5
10
11
0
0
3
0
1
15
0
0
120
51
0
0
5
0
0
10
3
8
15
4
21
0
0
7
18
0
6
18
0
3
0
0
1
0
28
2
9
0
11
36
0
0
1
0
0
10
0
0
0
51
0
0
4
35
9
0
20
46
0
2
40
0
0
3
32
26
0
0
41
39
0
0
0
40
10
0
0
16
39
0
0
0
18
56
0
0
0
14
4
56
16
0
0
0
16
5
14
27
0
0
13
8
15
17
13
0
0
0
2
17
13
27
0
0
0
0
18
8
19
13
0
0
6
1
13
12
12
0
8
0
0
4
24
10
27
3
0
0
0
0
0
0
0
4
24
0
7
20
11
3
2
0
0
0
13
0
0
22
0
27
0
14
1
0
16
0
0
0
0
18
10
0
0
4
0
12
0
0
0
0
0
0
0
5
0
1
0
0
9
2
0
14
0
4
17
2
0
7
0
0
0
3
0
3
1
18
0
5
3
0
3
0
0
0
0
5
8
0
12
2
8
0
26
0
0
4
3
0
0
0
19
1
6
0
0
2
16
0
5
0
3
0
0
7
0
0
3
1
7
0
21
0
2
3
0
5
0
7
0
0
22
0
14
0
9
0
0
0
3
5
12
0
0
10
0
3
0
0
22
0
15
0
0
7
1
2
0
0
12
0
9
0
1
0
12
9
23
21
0
2
0
0
1
0
0
0
23
0
0
34
0
0
2
0
0
0
0
0
1
0
0
7
0
0
12
0
16
0
0
0
6
13
0
0
3
0
0
1
0
12
0
8
0
0
2
0
1
0
0
7
0
26
0
7
0
34
3
0
17
0
1
0
0
0
11
6
11
186
179
13
0
2
0
15
0
1
9
0
21
0
0
3
0
0
0
0
5
33
0
10
0
0
0
15
0
9
0
0
0
17
0
0
0
4
3
0
4
9
0
0
6
0
0
16
0
0
0
22
0
0
2
0
6
0
0
0
2
0
13
5
0
0
1
0
16
0
0
4
8
0
0
0
0
0
12
23
0
23
0
11
0
0
0
0
13
0
10
0
6
0
6
0
4
0
3
1
9
10
0
0
22
0
33
0
0
3
0
23
0
0
0
6
5
0
2
6
0
22
0
9
13
6
0
6
24
0
13
0
11
0
8
0
1
0
25
0
0
9
0
9
1
0
0
7
0
6
0
0
0
3
58
0
0
3
6
7
21
0
0
0
3
0
0
12
0
9
0
1
5
0
6
7
0
0
0
31
0
0
0
17
20
0
0
15
0
0
23
6
0
22
44
0
0
18
11
0
0
20
19
0
10
32
0
0
33
0
0
0
6
40
0
0
2
0
56
2
0
0
14
32
0
0
12
38
10
0
0
20
22
32
0
0
0
1
11
10
18
11
0
0
0
12
9
20
18
0
0
10
0
9
15
21
3
0
0
0
5
30
0
7
0
0
0
6
1
8
12
5
0
0
0
3
13
26
0
0
0
0
0
0
0
0
7
2
0
1
11
22
24
36
23
40
45
18
0
0
0
0
9
0
0
0
4
0
0
0
13
0
27
7
11
0
6
0
0
9
0
0
16
3
23
0
9
0
12
0
0
35
2
4
3
0
0
1
2
10
0
7
1
5
0
10
0
8
0
0
14
0
10
0
0
7
0
15
3
5
0
2
0
0
0
9
0
12
0
0
11
0
0
0
12
3
0
0
9
0
4
7
0
17
0
2
10
0
16
0
2
0
6
0
11
0
11
0
7
3
12
0
12
0
6
0
0
5
0
0
7
0
4
0
4
0
0
8
0
5
4
3
1
3
0
0
0
0
0
0
0
4
0
0
0
0
1
10
0
16
18
20
0
14
0
0
0
4
5
0
0
17
0
42
10
0
12
0
0
7
2
10
14
0
10
0
4
0
10
32
0
18
4
7
2
3
0
0
17
0
10
14
0
0
60
0
0
3
0
0
0
12
2
0
0
10
0
0
0
7
6
0
0
0
0
0
0
2
0
0
27
13
4
189
164
0
0
5
1
1
1
0
3
0
0
3
21
0
12
0
0
125
0
0
0
0
0
8
15
0
0
2
6
0
0
2
6
1
6
9
0
1
0
0
0
5
4
8
0
0
0
11
0
0
0
14
1
11
0
5
12
8
0
0
10
0
0
1
0
4
0
14
0
0
17
0
0
1
4
0
5
0
0
0
25
0
0
0
16
0
0
0
0
0
7
2
0
5
1
0
10
0
0
7
0
28
0
0
1
0
15
15
0
0
8
7
0
5
5
0
0
15
2
12
0
16
0
0
0
0
13
7
0
0
13
0
12
9
17
0
0
12
0
2
0
0
1
5
13
21
0
0
9
0
0
77
0
0
0
1
0
3
10
0
5
6
17
0
0
0
9
3
0
15
20
0
0
15
0
19
0
24
0
0
54
8
0
10
5
0
17
0
0
0
36
15
0
0
46
0
0
0
32
0
0
19
0
0
0
23
10
0
0
28
39
0
0
1
0
46
0
0
0
15
3
0
8
21
23
11
0
0
3
42
41
0
0
0
0
8
3
12
0
0
0
1
17
34
8
0
0
0
4
4
15
16
0
0
0
9
6
18
5
0
0
1
0
15
6
12
12
3
0
0
0
23
16
15
11
0
0
0
0
12
2
24
17
5
13
2
18
0
9
12
17
16
17
23
38
49
21
0
0
1
0
0
23
3
11
10
11
0
6
0
13
0
0
12
0
0
23
0
13
13
0
0
0
0
0
2
5
0
0
0
0
0
11
0
30
0
0
0
0
0
5
7
0
6
0
0
5
5
3
0
0
0
9
0
1
2
0
4
0
5
10
0
6
0
0
0
3
0
4
13
0
0
7
0
3
8
0
5
0
0
23
0
2
0
0
0
9
0
6
7
0
2
8
14
0
0
0
2
0
0
2
1
0
8
0
1
10
4
0
3
6
0
2
8
3
0
1
0
8
0
9
1
0
0
1
0
12
3
0
11
0
5
4
0
0
7
4
13
7
14
12
10
0
0
18
0
0
11
8
0
1
0
3
0
8
0
1
15
0
29
0
0
2
11
7
11
3
0
0
4
8
0
0
0
1
6
0
1
25
0
13
15
0
0
10
0
27
0
0
12
0
0
0
0
0
0
20
22
0
7
0
0
0
0
0
0
5
7
4
23
9
177
161
0
0
13
0
6
11
1
0
17
0
14
0
0
0
0
0
0
8
1
13
0
1
5
0
0
27
0
8
3
4
0
16
0
0
5
0
4
8
1
16
0
0
0
15
0
2
2
5
0
13
0
0
0
4
10
0
1
3
6
0
0
28
0
11
1
0
0
14
8
0
9
33
1
0
8
0
0
0
15
38
0
1
10
0
0
27
0
30
0
0
12
0
20
0
0
0
19
0
0
2
0
26
0
11
0
2
13
3
0
0
11
0
15
7
0
0
0
0
2
0
0
0
20
0
29
0
9
0
6
0
0
5
0
2
2
0
0
7
0
4
0
12
0
0
0
0
2
0
0
38
70
0
0
0
34
0
0
0
0
16
1
0
8
0
4
0
0
5
0
0
0
0
0
0
10
13
0
22
34
0
0
40
0
0
3
1
0
22
33
0
0
13
38
0
0
20
0
0
0
21
0
0
16
34
18
0
3
34
37
0
10
7
21
9
0
3
0
64
0
0
10
22
8
0
4
14
23
32
0
0
0
21
16
32
31
0
0
15
0
1
26
31
0
0
0
16
11
23
4
0
0
5
14
0
0
22
30
0
0
0
4
8
13
23
0
0
0
12
7
33
9
0
0
0
0
0
7
27
9
2
6
0
4
1
0
3
3
0
4
7
0
8
0
16
21
62
0
0
3
4
4
0
0
0
13
0
0
0
5
12
3
0
0
0
10
0
5
1
0
4
11
0
8
0
26
0
0
25
3
0
16
0
0
13
0
10
13
0
9
0
0
0
9
18
0
1
0
3
0
3
6
4
0
22
0
20
0
17
0
7
0
10
5
0
29
0
6
0
2
20
0
0
5
0
0
1
13
0
0
0
20
0
6
0
5
0
2
1
0
11
0
4
0
11
4
0
2
0
0
5
0
9
6
8
0
0
14
0
0
0
1
7
4
0
0
16
0
0
6
2
1
4
0
1
0
7
0
8
3
1
8
0
14
0
4
13
2
16
21
0
0
0
19
0
1
12
2
22
4
0
7
0
54
0
0
0
0
9
0
0
12
0
1
0
1
2
0
18
0
0
17
0
12
0
7
0
22
0
0
8
9
9
9
0
0
0
0
27
0
1
0
21
0
0
4
8
1
0
12
0
0
8
3
0
0
4
15
0
7
7
170
174
12
0
0
0
0
7
0
0
15
0
0
7
0
0
0
23
2
3
18
0
2
0
5
11
0
0
14
0
0
0
16
0
16
0
0
2
18
0
4
0
0
4
13
5
5
0
5
0
6
0
0
10
0
0
6
0
7
13
1
0
8
0
4
0
0
0
7
0
10
19
0
5
10
0
0
1
19
17
0
22
0
0
28
0
5
0
5
7
3
0
8
15
0
0
0
10
0
0
0
6
5
0
0
6
12
0
0
26
0
16
0
36
0
1
20
34
0
0
0
6
0
7
0
23
0
2
0
17
11
0
0
10
0
0
10
16
0
0
0
14
0
0
16
0
5
3
0
3
0
18
0
0
14
5
0
3
6
0
11
0
0
0
28
9
0
0
30
0
11
8
4
6
0
23
0
0
22
21
0
9
0
22
0
0
0
14
19
37
0
6
28
10
0
0
29
0
0
21
21
8
0
25
16
0
0
1
37
0
0
25
0
15
0
0
13
11
19
0
0
3
34
0
0
13
0
44
12
0
0
17
0
18
13
0
0
0
7
11
16
27
1
0
0
0
16
14
21
3
0
0
2
4
6
24
13
9
0
0
18
38
1
14
0
0
0
17
31
0
19
0
0
0
0
15
0
18
3
11
4
6
0
0
2
11
4
0
0
0
1
0
5
0
2
5
11
32
53
0
0
0
1
0
1
7
0
0
13
0
2
0
4
0
10
0
0
0
0
0
10
0
5
0
10
0
0
0
3
0
0
4
0
0
9
0
12
2
0
10
0
10
0
0
17
0
0
2
0
5
12
0
0
1
0
0
0
0
7
0
19
0
20
0
0
1
0
0
0
1
13
0
0
0
8
0
0
4
10
1
0
14
0
0
3
3
4
0
0
0
9
0
10
0
11
0
0
13
0
15
0
0
0
11
0
0
2
9
4
0
5
5
0
0
0
0
2
3
0
10
0
2
9
0
2
7
3
8
0
0
0
3
0
0
5
2
13
19
17
11
0
0
19
0
0
7
0
0
0
0
11
0
0
3
0
0
2
9
16
0
0
14
0
3
0
1
3
0
12
0
0
0
9
0
0
0
24
0
0
26
9
0
0
0
23
0
6
10
0
0
0
0
4
0
4
12
0
27
16
0
0
0
0
0
0
0
3
0
2
25
13
0
184
161
0
5
9
0
2
0
10
7
0
0
6
0
30
0
0
5
0
0
3
2
17
0
0
0
6
6
6
12
5
9
0
11
0
5
8
1
0
16
0
0
17
0
0
0
0
7
0
0
6
0
0
12
2
0
0
2
0
12
0
11
0
13
0
0
19
0
5
0
4
0
9
0
0
5
2
6
0
0
0
0
8
3
0
10
0
5
14
10
0
3
2
0
0
0
5
0
12
0
10
0
1
0
7
0
4
2
5
0
15
0
0
1
0
0
0
0
20
0
20
20
0
5
0
15
18
0
0
2
0
0
0
7
22
0
16
0
35
0
14
0
2
0
0
0
19
0
0
0
28
3
0
15
5
0
0
16
0
8
2
0
0
13
0
0
1
2
0
0
30
0
0
0
21
0
0
22
12
2
20
0
13
0
19
0
7
33
0
0
30
9
0
0
7
20
0
0
23
12
0
0
14
37
0
0
44
56
0
0
8
0
10
0
0
26
29
0
0
23
0
50
0
0
15
31
34
0
0
51
4
34
17
0
0
0
17
8
35
27
0
0
0
17
0
24
22
0
0
0
20
0
13
15
4
0
0
0
4
7
9
2
12
0
0
21
14
3
0
0
0
0
1
13
16
14
7
0
5
0
4
14
0
0
0
0
1
2
0
0
0
0
0
8
0
8
6
24
50
28
0
0
0
0
0
1
6
4
0
12
1
5
0
0
7
8
6
0
0
5
7
0
0
16
0
9
0
25
2
20
0
0
12
10
0
27
0
6
0
3
0
0
1
17
0
0
9
12
0
9
0
0
16
0
0
5
0
20
0
0
5
0
7
3
0
0
6
12
0
11
0
17
8
0
0
9
18
0
0
0
1
0
11
15
2
0
2
10
0
0
0
0
0
5
0
0
6
1
0
0
0
7
3
0
0
1
0
7
0
1
0
21
0
3
16
6
0
0
10
0
22
0
0
0
0
0
8
0
11
6
0
6
0
0
3
11
2
0
21
29
0
0
0
0
7
0
0
0
29
0
0
5
0
22
14
0
8
0
0
12
38
0
0
0
39
0
3
0
13
5
38
0
9
0
0
0
0
0
5
0
16
0
9
0
3
0
0
1
0
7
0
0
0
0
0
0
43
0
2
0
6
0
0
0
0
1
9
22
17
0
0
8
169
149
0
23
0
0
11
15
0
14
0
2
20
0
0
0
5
2
0
3
0
0
6
0
0
13
0
0
10
0
0
4
20
0
5
0
13
0
0
0
5
10
0
0
0
0
15
1
0
11
0
9
5
0
0
3
5
12
0
12
0
0
7
0
0
3
0
0
5
0
0
3
0
17
0
7
0
5
0
0
20
5
1
0
16
0
0
0
0
0
24
0
22
0
11
13
9
0
20
0
0
0
9
0
0
2
0
11
2
15
6
0
0
4
0
12
3
0
0
0
0
0
0
16
10
13
0
12
30
6
1
9
6
19
0
2
0
10
0
0
9
0
0
12
0
4
1
3
0
0
34
0
0
8
0
0
19
0
6
0
12
0
0
4
0
28
0
0
0
39
8
0
6
0
0
0
32
16
0
0
0
8
0
15
0
0
17
2
0
44
11
0
0
17
23
0
0
21
7
0
17
8
27
0
9
1
26
0
0
26
13
18
0
4
24
56
0
0
3
9
19
0
0
6
32
36
0
0
28
0
28
0
0
0
2
0
23
28
0
0
5
0
1
12
48
0
0
0
4
0
22
33
12
0
0
0
10
9
15
26
5
0
0
13
20
17
0
0
0
8
2
5
28
0
16
0
21
0
2
0
0
10
0
4
0
0
3
1
0
12
0
0
2
2
7
0
5
0
39
33
0
0
0
12
15
0
0
13
0
0
0
11
0
19
0
0
0
12
8
1
3
0
0
0
0
13
0
0
0
0
0
16
0
0
0
5
3
0
0
0
12
0
1
0
6
8
0
0
0
2
4
0
0
8
6
0
10
0
1
6
0
6
0
0
3
0
0
0
5
3
15
0
0
0
27
0
0
21
3
12
0
16
0
7
0
11
0
10
0
0
0
13
0
2
2
6
2
0
0
0
7
0
5
8
0
14
0
0
3
16
0
5
13
0
0
13
5
0
20
0
3
1
1
2
4
3
0
0
4
5
0
8
0
14
0
9
11
1
16
0
0
0
0
14
26
0
0
60
0
11
9
0
63
0
8
0
7
0
27
5
0
0
0
10
0
14
6
14
0
0
0
3
0
0
8
1
43
0
12
11
2
2
0
0
11
3
5
0
0
7
0
2
0
11
16
19
0
7
3
9
0
0
0
0
7
5
23
18
0
0
2
4
179
169
11
0
9
6
0
0
5
0
0
0
0
0
0
5
6
0
0
4
1
26
0
9
0
0
9
0
11
6
0
7
0
3
2
3
0
3
11
14
0
0
3
0
18
4
0
0
15
0
0
0
5
0
3
7
5
0
0
9
0
11
8
0
0
6
3
2
6
0
5
0
5
4
0
0
7
0
4
10
0
0
7
7
0
48
0
5
0
20
10
0
11
0
0
0
0
9
0
12
0
12
0
14
0
1
17
0
0
2
0
0
7
0
0
0
0
8
12
0
16
11
0
12
0
0
3
0
0
0
0
0
0
0
3
2
6
16
0
13
0
0
14
2
0
3
0
10
0
27
0
4
10
0
0
23
0
0
10
0
25
0
17
0
3
5
0
0
26
0
0
20
5
0
12
14
0
2
0
0
12
0
17
0
9
9
0
0
42
21
0
4
15
0
0
0
39
0
0
21
24
7
0
0
20
9
0
0
3
35
7
0
22
12
13
0
0
13
19
12
0
9
0
35
6
0
25
52
17
41
0
4
3
7
22
42
5
0
0
5
0
10
27
6
0
0
14
11
11
25
8
0
0
0
9
12
3
23
16
0
0
0
31
0
0
0
0
0
14
15
3
6
3
1
10
0
0
9
0
6
0
0
7
8
0
0
0
1
4
0
0
0
0
0
7
0
0
13
6
26
24
0
0
0
6
9
0
0
19
0
11
0
0
11
0
0
24
0
0
0
0
14
12
0
10
3
4
5
15
0
19
0
0
1
0
10
3
21
0
9
0
0
0
16
0
0
6
0
0
17
2
0
3
0
3
0
0
5
0
0
0
20
7
2
0
16
6
0
5
0
8
0
9
0
0
12
0
0
12
0
2
0
0
1
16
0
7
0
0
6
6
0
1
3
0
0
9
0
7
0
0
0
0
9
0
6
4
0
15
0
0
7
1
8
0
0
0
0
0
8
0
13
0
12
0
22
0
0
17
0
0
16
12
0
13
0
25
0
6
0
0
0
0
22
0
0
1
0
27
0
2
24
0
25
0
0
10
0
3
0
19
0
0
14
0
13
2
0
18
0
1
17
0
0
0
0
10
0
3
19
0
0
0
38
0
21
0
0
0
14
0
1
15
0
28
0
4
14
0
7
0
0
0
0
8
18
0
11
8
0
11
0
178
170
18
0
12
2
0
12
0
0
18
0
17
3
0
4
0
0
32
0
0
0
3
0
0
0
0
5
0
18
1
2
1
1
0
0
11
0
0
5
0
3
0
12
0
8
4
0
0
11
6
0
0
14
1
0
0
0
0
13
0
2
0
4
0
0
5
0
0
19
0
12
0
0
7
0
7
3
1
0
4
0
0
0
19
0
0
15
5
0
0
0
13
8
0
0
17
0
15
0
9
6
3
0
12
0
3
12
2
13
0
43
0
24
0
5
0
0
0
2
0
0
1
0
19
0
0
10
0
21
0
0
1
9
4
4
0
7
0
0
6
7
0
8
0
21
0
0
19
0
1
0
0
0
0
0
0
13
15
0
0
4
0
3
4
3
0
33
0
35
0
3
0
37
12
0
7
35
0
0
41
0
0
24
0
0
11
27
2
0
0
15
10
0
24
10
1
0
24
36
0
0
4
35
6
0
0
22
19
0
0
17
16
3
0
0
16
26
0
0
0
17
40
0
0
42
0
17
0
0
17
0
0
22
0
10
0
9
16
6
14
29
0
0
0
3
2
19
20
0
0
0
6
26
14
23
10
0
0
10
16
0
0
0
3
13
14
3
5
13
7
2
8
0
1
0
0
2
2
0
7
0
0
8
7
0
0
5
0
8
10
0
0
0
1
8
1
0
9
15
41
29
0
0
0
0
3
0
0
13
13
0
4
8
0
9
0
4
8
0
6
0
0
2
8
0
10
0
0
0
0
0
17
0
0
15
0
12
0
0
20
2
6
0
3
0
12
1
0
0
1
0
12
0
5
0
18
4
0
0
10
0
0
12
6
2
8
3
0
0
9
23
0
2
0
9
14
0
10
0
11
0
16
0
0
35
0
6
0
4
0
0
12
0
9
1
8
0
0
15
0
12
0
2
0
7
0
1
0
6
0
6
0
0
8
0
42
0
3
0
0
0
6
0
0
0
8
0
1
0
22
0
0
2
15
24
14
26
0
0
0
24
0
0
2
8
0
0
0
0
0
0
0
0
3
0
10
14
0
0
4
44
0
0
11
0
0
1
0
0
0
0
0
5
0
20
0
25
0
0
0
0
1
6
0
6
0
6
0
0
0
7
0
2
12
0
27
3
0
0
0
11
0
25
11
0
5
1
0
5
7
0
157
143
0
7
0
0
17
0
2
18
0
9
4
0
0
16
0
16
0
0
9
1
13
0
1
1
19
0
20
0
0
1
14
0
0
0
0
11
0
0
5
2
0
1
7
0
0
2
11
2
0
1
1
0
0
10
0
0
11
0
2
2
0
28
26
0
8
0
0
0
0
0
3
3
10
6
0
23
0
0
0
16
7
0
0
17
0
10
0
21
0
0
0
9
2
18
0
0
0
0
12
0
0
6
0
0
0
0
13
0
4
0
0
0
17
4
0
0
7
0
35
0
0
0
0
28
0
11
0
0
13
8
0
13
0
3
0
6
15
0
0
13
0
0
0
0
15
0
40
4
0
9
0
10
1
0
9
0
7
5
0
0
27
0
11
12
0
0
11
0
0
0
13
0
0
11
0
0
10
13
0
13
6
0
0
10
21
0
0
24
7
0
0
14
23
0
11
20
4
6
0
59
11
4
0
21
19
30
0
0
31
14
18
0
5
0
15
0
0
8
19
30
0
0
14
7
8
0
0
16
14
2
49
0
0
0
21
5
33
4
9
0
0
20
0
19
28
8
0
0
19
30
12
19
2
0
0
0
8
0
0
0
0
18
0
18
0
13
6
0
10
0
5
3
1
5
0
0
7
3
5
0
0
0
0
5
0
0
4
0
0
8
2
0
0
7
0
4
0
19
35
57
3
0
0
22
0
5
0
3
0
4
15
0
15
2
0
0
0
17
0
6
0
0
0
17
0
6
0
5
0
16
2
0
11
2
0
0
7
13
0
0
0
1
16
8
0
9
0
5
4
2
0
0
0
1
6
0
1
0
4
0
1
6
1
0
5
0
0
34
0
0
0
0
5
0
5
17
0
2
0
0
0
19
0
5
5
0
21
1
4
0
4
6
0
5
0
5
0
0
9
0
0
15
0
14
0
0
10
0
0
16
7
2
0
0
0
0
5
0
21
0
0
5
8
0
7
0
5
0
0
12
0
4
20
0
6
13
0
10
0
16
0
0
0
0
7
2
11
42
0
0
0
0
17
0
0
6
0
11
0
0
24
0
0
0
11
8
9
0
0
27
0
3
0
0
0
14
0
10
2
2
4
10
0
0
15
0
3
0
3
8
8
0
11
0
0
12
0
0
0
0
9
0
26
0
31
0
0
10
0
13
154
160
10
0
6
1
9
2
7
0
0
0
0
0
4
4
14
0
0
24
0
14
0
0
4
0
0
0
0
0
12
4
0
3
3
0
8
0
0
6
0
1
14
0
6
0
1
3
0
8
0
7
0
0
1
0
0
0
0
17
0
0
6
0
5
11
4
17
0
1
14
6
5
0
0
0
9
0
1
19
2
0
6
3
0
12
0
20
0
0
16
0
3
0
24
0
5
15
0
14
0
9
0
10
27
0
1
13
1
1
9
0
10
0
0
10
10
0
5
0
0
8
0
2
17
0
5
0
32
0
0
2
1
10
0
1
2
0
10
0
2
0
5
19
0
0
8
14
0
0
2
0
7
7
9
0
21
10
0
0
1
0
0
0
28
0
15
17
9
0
20
11
21
0
25
0
0
34
2
0
21
0
20
0
11
42
0
0
42
0
10
0
3
18
0
13
14
0
7
0
43
7
0
0
0
0
52
0
0
29
25
0
0
0
41
12
0
0
0
11
30
0
0
5
20
51
0
0
27
0
29
9
0
0
0
23
20
19
0
0
5
5
18
6
20
24
0
0
0
12
9
18
13
0
0
6
2
0
0
0
6
14
4
8
8
5
5
0
18
0
4
2
0
2
0
0
7
3
0
8
1
0
6
2
0
0
19
0
0
1
1
0
7
7
0
2
5
5
0
5
12
29
56
0
0
0
3
14
5
0
6
7
0
0
0
20
0
0
13
0
12
0
3
7
0
0
11
3
18
3
0
1
0
13
0
15
2
0
5
0
0
16
0
0
11
0
18
0
2
0
0
0
0
20
5
0
0
0
3
1
0
1
18
0
5
17
0
5
2
0
0
11
0
0
11
4
5
0
5
5
16
0
10
2
0
0
0
1
0
0
24
0
0
0
11
8
0
19
0
4
0
8
0
8
0
9
0
0
0
0
4
0
0
9
2
0
0
0
18
0
0
5
11
0
2
4
24
0
0
7
0
0
14
9
12
19
7
0
0
4
0
2
7
18
2
7
4
0
0
0
4
0
37
10
0
22
0
0
9
6
0
5
0
12
2
18
0
14
0
0
0
3
2
4
3
16
19
0
12
0
0
0
0
0
0
0
0
0
0
22
0
1
7
6
34
0
8
0
0
5
10
12
1
16
0
13
0
0
3
0
12
0
180
143
0
2
1
6
0
0
0
13
0
0
0
7
0
0
0
0
32
0
5
0
0
19
1
0
0
1
0
2
15
9
2
6
0
10
0
0
11
5
4
0
4
13
1
6
1
6
2
0
8
0
27
0
0
13
3
0
4
0
10
0
5
0
0
0
0
0
0
27
0
0
6
16
0
12
5
0
1
0
0
9
0
9
0
0
13
0
0
10
0
4
0
23
0
0
0
0
10
0
0
0
7
1
0
5
8
0
2
0
0
2
7
0
0
0
0
10
0
0
5
0
0
0
0
0
0
0
0
7
0
8
0
20
0
0
8
0
0
0
0
39
0
0
4
8
3
17
0
11
0
2
4
0
9
12
0
17
0
16
0
41
0
16
0
1
0
0
0
31
12
0
10
4
0
12
14
0
12
2
10
0
0
33
1
0
0
20
22
0
7
25
2
0
0
26
0
0
0
3
40
0
0
7
12
23
0
12
1
31
0
0
9
0
18
0
0
2
16
27
0
4
25
0
49
0
0
5
2
29
0
0
23
0
34
44
0
0
0
2
12
6
30
0
9
0
0
15
4
25
16
0
0
22
5
0
0
0
8
18
11
7
0
28
8
0
18
0
8
6
0
0
12
0
0
0
10
7
0
0
1
6
0
0
4
2
0
7
10
0
0
0
4
0
16
0
14
7
6
0
6
22
44
35
0
0
0
5
0
12
0
28
0
1
21
0
1
0
0
0
0
21
12
0
5
5
0
17
0
0
1
1
15
0
0
7
1
2
7
0
4
2
15
0
21
0
0
4
2
0
12
6
3
0
5
0
5
4
7
0
10
0
0
0
10
1
0
15
0
0
0
0
3
0
0
17
0
44
0
7
0
2
1
0
0
6
0
0
0
4
0
0
7
0
0
0
2
0
4
14
0
0
0
0
0
0
22
9
0
3
0
2
1
0
8
16
2
0
9
6
0
0
19
0
0
0
0
0
2
0
4
6
14
7
26
4
0
0
0
0
0
0
0
1
0
5
0
0
18
0
9
0
0
0
0
32
0
57
0
5
0
15
0
0
5
0
0
0
0
5
1
2
6
0
8
8
0
1
0
0
28
37
0
8
17
16
46
34
0
0
6
0
7
66
0
27
0
0
1
0
3
9
7
8
0
12
9
0
4
0
0
0
173
155
8
6
10
1
8
5
13
0
0
7
0
4
12
0
10
0
0
17
6
5
0
6
5
2
8
13
4
0
0
0
0
7
0
12
7
1
0
0
6
6
0
0
10
0
0
0
4
3
0
4
0
2
18
0
9
4
0
0
0
8
2
10
0
4
0
0
0
18
7
5
0
23
2
0
0
18
0
16
0
11
1
11
0
12
3
0
3
4
0
0
21
0
17
3
0
0
0
0
0
5
0
0
7
0
3
9
4
0
12
0
0
25
0
13
7
0
0
1
0
17
0
0
17
0
1
0
2
9
3
0
5
0
18
3
0
19
5
1
2
0
6
0
0
4
7
14
0
1
0
0
0
0
8
0
2
6
16
0
15
4
0
16
14
0
0
20
6
10
1
0
9
0
32
0
0
1
11
0
0
0
32
0
0
14
8
0
0
15
10
0
1
27
33
0
0
31
21
25
0
0
35
0
18
0
2
0
29
6
0
18
9
45
0
0
16
8
23
0
0
31
0
26
0
0
13
0
16
0
0
20
2
32
0
0
0
0
13
0
32
0
0
0
0
0
17
14
22
16
0
0
0
0
0
0
11
15
0
25
4
4
1
5
8
0
0
8
0
0
6
0
0
5
0
4
4
0
11
0
0
0
15
0
0
0
9
2
9
12
0
0
9
11
4
0
0
9
3
0
0
3
16
33
29
0
0
0
14
0
0
0
15
0
0
2
20
0
1
4
4
6
0
0
8
0
0
0
0
8
2
0
0
3
0
0
1
0
0
8
0
7
0
6
0
0
10
0
0
0
0
0
0
0
0
8
10
0
0
1
0
0
12
16
0
13
0
0
0
0
4
9
0
0
0
14
5
0
16
0
0
44
0
0
6
0
16
0
2
4
0
0
7
0
4
0
5
0
3
4
0
0
8
0
8
10
0
5
0
9
3
0
0
0
9
0
0
0
0
0
2
0
0
4
0
1
0
17
0
0
7
19
0
29
21
0
0
0
33
0
0
0
1
1
0
1
0
0
0
20
0
10
6
20
0
7
0
0
5
7
0
0
24
0
2
2
8
0
0
4
15
0
0
24
0
20
0
10
3
15
0
0
13
0
0
0
15
0
54
0
0
0
36
0
0
5
0
0
0
8
7
0
9
0
26
0
0
4
0
5
0
19
132
145
2
9
0
0
0
0
0
5
15
0
0
4
4
0
10
4
0
14
0
0
0
0
0
11
0
0
20
0
0
1
13
0
22
0
8
0
13
0
0
20
0
2
0
19
0
20
0
9
12
0
6
0
0
13
0
0
0
6
3
12
0
0
0
0
18
0
11
0
0
0
0
0
0
12
12
0
7
0
9
0
4
0
0
0
12
0
0
3
19
1
7
0
1
0
0
12
9
0
15
2
2
14
0
5
21
0
0
1
0
27
0
0
5
0
4
0
5
2
2
0
5
0
12
0
0
9
6
0
0
4
2
10
0
7
0
0
28
0
11
0
0
4
28
1
0
4
0
0
4
18
7
0
14
0
0
15
0
0
8
0
0
24
0
0
13
33
0
8
10
0
13
0
0
0
35
23
0
0
0
22
0
0
12
0
0
3
41
0
0
16
11
0
0
0
0
16
0
0
0
23
19
0
0
6
0
12
0
0
28
20
6
0
8
0
0
11
0
0
34
12
38
0
10
27
19
0
0
3
0
20
35
0
0
0
15
0
29
21
0
0
0
3
5
38
17
1
0
19
16
0
0
0
32
5
12
18
1
0
14
2
0
0
13
11
0
0
6
0
0
4
1
6
2
0
0
0
1
9
0
0
1
2
6
0
1
0
14
3
10
0
0
0
1
0
0
0
0
8
3
1
7
28
43
8
0
0
0
0
12
12
0
13
7
0
6
0
6
3
0
3
20
0
19
4
1
0
0
0
10
4
0
12
0
8
0
12
4
0
14
0
10
6
11
0
0
4
0
7
8
0
1
5
18
0
0
7
0
0
17
10
0
0
9
7
9
3
16
0
0
0
0
23
0
0
16
0
0
26
0
0
0
22
0
0
0
18
0
10
6
0
5
0
2
0
2
0
8
0
13
10
0
0
0
1
2
0
11
0
5
0
4
0
0
0
14
0
3
13
0
5
1
0
1
18
0
13
0
4
6
8
27
2
0
0
0
9
0
0
8
16
37
0
14
0
0
20
0
0
0
15
7
16
0
0
16
0
14
0
14
9
0
12
4
0
26
0
2
0
11
0
26
0
0
0
0
4
0
0
0
3
0
0
40
9
0
0
3
8
0
4
24
0
18
0
12
0
9
30
0
15
10
1
4
0
1
0
0
6
2
0
135
147
8
6
2
10
19
4
0
0
0
11
11
0
0
15
0
10
0
0
0
4
13
0
7
0
8
0
6
0
20
0
9
0
0
19
0
0
4
0
6
0
4
9
0
0
5
0
2
0
0
3
0
7
0
0
0
29
0
0
20
0
5
3
0
0
4
0
0
0
0
1
16
0
0
0
0
0
11
3
8
4
3
0
21
0
0
0
27
0
0
8
0
27
0
2
21
0
0
20
0
13
0
7
0
9
0
5
16
0
11
2
0
4
22
0
6
25
0
0
1
10
7
2
0
0
12
0
0
4
0
0
11
0
23
4
7
0
0
12
0
0
26
0
9
0
0
0
23
18
0
16
0
0
18
0
13
0
9
12
0
26
0
0
0
29
0
0
14
0
4
0
8
0
0
35
14
0
0
49
2
0
0
5
8
0
3
18
0
0
22
28
10
0
20
0
37
0
0
31
0
16
0
0
28
0
41
0
0
6
4
36
0
0
0
8
1
0
26
3
20
0
0
8
13
0
0
0
11
0
31
11
0
0
10
0
4
27
0
0
0
0
2
9
39
0
0
0
0
0
0
0
27
17
0
9
0
12
11
0
1
9
0
0
0
0
10
0
0
12
0
0
16
0
9
0
0
0
2
0
18
0
0
8
3
0
0
8
0
7
16
0
0
0
5
7
0
0
0
9
13
0
0
16
30
53
23
0
0
22
0
0
8
6
0
0
0
19
1
0
0
0
0
0
0
0
6
0
7
24
0
3
11
0
0
0
0
2
0
4
2
3
0
0
2
0
6
0
8
0
2
3
1
0
0
0
15
0
0
0
0
9
0
0
0
10
0
33
0
0
14
0
0
0
4
0
0
18
0
3
5
0
8
0
2
8
0
0
0
8
6
0
0
0
9
0
17
0
0
17
0
0
0
11
1
0
0
16
0
6
0
0
12
0
8
13
0
7
0
0
18
0
0
0
0
0
0
0
4
4
15
6
38
0
0
0
39
0
0
5
0
0
0
9
10
0
19
0
2
20
11
5
0
0
21
0
29
0
1
9
0
0
0
0
1
5
0
0
7
20
13
0
8
0
6
7
0
0
29
2
19
0
46
0
0
0
0
2
0
4
0
3
8
0
0
0
0
8
0
0
5
0
6
9
0
19
0
0
9
0
0
0
137
129
0
6
3
0
0
0
11
0
1
5
0
0
4
1
0
1
1
12
2
0
9
0
0
0
8
0
9
0
8
0
3
16
0
8
0
10
3
0
11
0
8
1
0
0
5
0
10
0
1
14
3
0
1
0
0
0
0
0
7
0
0
5
0
6
0
12
0
0
0
9
0
25
0
15
0
5
0
0
0
2
0
0
0
20
0
8
0
3
0
18
14
0
0
9
0
7
9
0
15
0
0
0
0
9
2
7
10
0
0
0
20
0
0
0
25
0
0
1
6
0
5
11
0
15
0
19
14
7
0
9
0
9
0
7
0
5
0
0
5
0
0
17
8
11
0
10
0
0
1
11
0
0
9
0
0
21
0
0
10
6
0
10
8
4
9
10
0
0
10
0
0
14
29
0
0
4
16
0
0
20
10
12
0
0
5
0
0
38
0
0
0
3
27
6
0
0
35
1
0
0
0
28
17
1
0
13
25
17
0
0
8
0
21
3
0
35
0
24
0
0
18
0
0
0
14
0
10
34
0
0
19
2
0
31
37
0
0
17
4
0
26
32
6
0
8
0
0
0
3
0
10
23
9
1
4
0
15
12
0
1
11
0
0
0
0
1
3
8
15
0
0
14
0
3
0
0
4
0
0
9
0
0
7
9
9
0
0
0
0
4
0
0
2
7
0
0
1
0
1
0
0
0
13
52
24
0
0
0
7
0
8
0
12
17
2
0
0
0
33
14
5
26
0
9
6
0
3
7
0
1
0
4
0
11
0
3
5
0
3
0
2
0
2
12
0
0
2
0
9
0
0
7
4
3
0
3
0
5
5
0
0
14
0
5
12
0
16
22
0
10
0
0
0
0
8
0
5
3
0
0
3
0
2
0
12
7
5
0
6
8
0
0
0
0
1
0
1
0
6
0
2
0
0
7
1
0
4
1
17
0
9
0
8
0
0
6
0
11
0
0
21
0
9
0
15
0
4
15
9
10
11
0
0
0
0
14
0
53
45
29
0
3
0
0
0
5
24
0
27
0
1
4
0
11
0
22
0
8
0
20
0
0
20
0
2
0
18
0
0
21
0
12
0
16
0
0
0
2
0
0
0
23
0
0
0
0
0
12
19
0
11
10
0
3
0
5
23
0
15
10
0
6
0
6
3
0
3
0
0
13
166
142
12
7
0
11
0
14
0
8
0
0
23
0
19
0
5
1
2
0
0
2
7
0
0
11
0
7
0
2
0
0
0
0
10
0
8
8
0
2
0
0
11
1
0
0
3
0
0
0
0
0
15
3
0
5
11
0
15
0
6
2
6
22
0
10
0
0
0
14
3
0
0
0
17
0
12
0
7
16
0
5
1
5
2
25
0
3
11
3
0
5
0
0
5
11
0
9
5
0
12
5
0
1
16
0
2
0
1
0
14
14
0
14
8
0
0
0
23
0
11
4
0
0
11
7
0
0
0
1
0
0
10
0
0
29
5
0
23
0
16
0
25
4
0
0
0
21
0
3
0
6
0
1
7
0
0
0
0
16
6
0
10
12
0
37
0
0
0
32
0
0
33
0
3
0
32
20
0
0
34
0
0
0
27
0
0
0
25
0
0
0
0
5
9
0
4
26
1
0
0
16
1
19
0
0
0
8
0
0
0
2
0
36
0
0
5
0
18
1
0
32
18
26
0
13
0
4
41
0
0
23
0
5
36
5
0
0
22
11
0
2
47
0
0
0
0
0
8
18
14
11
9
4
12
6
0
0
14
14
0
0
0
0
5
0
0
0
9
0
14
6
0
0
5
1
15
5
0
1
10
0
6
0
0
0
8
0
0
0
0
2
7
10
0
13
0
2
8
3
5
11
10
0
0
12
45
21
0
0
0
15
0
5
0
0
7
0
8
0
0
0
8
0
11
0
4
0
0
0
17
2
0
0
6
0
5
1
0
13
0
2
0
9
0
4
0
7
9
3
2
11
0
0
3
0
7
0
16
11
0
11
17
0
12
4
0
0
0
9
0
0
0
0
21
0
0
8
0
0
10
9
0
0
12
0
0
6
0
0
10
0
1
16
0
9
0
0
15
0
0
12
0
0
0
7
5
0
5
0
3
0
0
23
0
0
14
0
3
5
1
0
0
12
5
0
0
32
0
11
14
6
0
0
0
9
0
91
93
0
17
4
39
0
0
0
9
10
0
0
3
0
0
6
0
4
0
0
19
1
0
0
0
9
0
0
6
0
0
0
12
3
12
3
0
12
0
0
27
1
0
0
7
24
0
10
3
4
17
6
0
0
0
0
7
0
6
0
2
17
3
0
0
0
16
3
14
18
0
0
0
3
157
131
7
0
13
0
9
0
2
5
27
0
0
8
0
4
0
19
2
0
0
12
0
10
6
0
9
0
24
0
0
14
0
22
0
0
0
0
8
4
2
0
0
0
15
0
11
3
2
14
10
0
0
0
14
0
0
0
0
5
0
13
0
0
9
5
0
0
21
0
0
7
10
0
0
0
5
6
0
0
0
0
0
0
13
0
0
0
15
0
7
0
0
0
9
0
21
0
0
11
0
11
0
0
3
0
6
0
4
3
0
0
4
0
18
0
5
6
0
0
4
0
4
2
0
0
0
5
0
22
0
14
4
7
0
0
0
12
0
13
0
12
12
0
0
0
10
10
0
0
13
0
10
0
35
0
0
3
12
3
0
21
10
0
10
0
0
2
0
0
0
20
2
0
21
20
0
0
0
24
0
0
12
17
2
0
0
40
0
0
12
27
14
0
0
15
1
12
0
0
27
22
20
0
0
0
29
0
0
0
28
0
30
0
6
26
4
31
0
0
0
2
4
0
11
1
8
0
0
0
4
20
41
22
0
0
33
8
12
15
14
0
4
8
0
0
3
33
22
10
10
8
0
0
3
6
1
5
0
1
15
0
0
2
0
20
7
0
5
0
0
10
16
0
8
0
10
0
1
1
8
0
0
0
0
0
0
5
0
9
0
13
1
6
0
11
5
0
0
8
0
3
11
5
0
1
36
35
0
0
0
0
9
0
28
0
0
1
4
12
0
4
0
2
0
0
0
5
19
0
1
10
0
16
0
0
2
0
5
2
11
0
8
0
0
17
0
4
0
0
0
8
5
14
0
20
0
5
0
0
24
0
17
10
2
0
19
0
7
2
19
0
10
0
1
0
0
6
1
15
0
0
12
0
17
0
9
7
0
0
0
4
9
3
0
11
0
32
0
12
0
9
0
15
0
0
0
0
0
4
7
0
32
0
0
14
0
1
3
0
2
0
0
0
0
0
4
0
30
5
7
8
0
0
21
24
0
0
0
0
0
0
0
7
0
8
0
0
2
13
0
0
22
0
7
0
0
12
8
18
0
9
0
1
0
2
0
27
0
5
0
0
0
0
3
0
13
0
0
19
0
0
7
0
4
0
35
0
0
18
0
25
0
0
0
0
0
0
11
0
0
25
0
1
0
6
17
0
0
2
11
8
165
117
0
17
0
14
0
11
0
0
0
25
0
0
21
0
0
0
6
15
0
15
5
0
0
0
0
0
12
6
0
3
13
0
12
20
0
19
0
6
0
15
0
0
11
0
0
0
0
0
0
7
10
0
3
0
7
1
0
10
0
9
2
0
0
14
2
1
0
0
8
10
4
4
4
0
0
7
0
0
4
15
7
0
0
23
0
4
1
0
0
0
4
3
2
0
6
0
0
3
0
23
0
0
12
0
0
0
11
0
5
25
3
0
6
0
25
0
0
9
0
8
0
0
0
11
3
0
17
0
0
3
0
2
0
7
0
0
11
0
25
12
0
0
9
0
0
3
7
10
0
7
0
17
0
0
31
0
0
0
22
2
0
18
0
0
23
0
18
4
21
0
2
2
19
0
0
1
29
3
0
30
12
0
9
3
32
1
0
19
14
13
0
0
15
24
24
0
9
11
22
0
0
0
12
15
7
0
0
20
6
9
0
5
27
0
0
0
0
10
15
0
0
1
12
29
0
0
17
0
23
20
0
0
0
42
0
39
15
0
0
0
10
0
0
26
32
7
9
2
5
4
5
0
0
0
13
4
0
0
0
4
9
0
5
13
11
0
9
16
0
0
4
0
0
11
0
14
0
0
0
0
5
0
0
6
0
4
8
22
0
1
4
10
0
0
7
2
0
6
2
0
11
0
2
0
11
39
56
0
0
0
0
4
0
9
0
15
0
0
0
13
0
0
16
2
2
0
0
9
0
1
0
4
0
9
0
22
0
4
0
3
0
3
0
9
0
3
0
14
6
0
0
0
13
0
0
0
14
0
0
0
0
0
17
0
15
12
11
0
0
6
0
0
9
7
5
0
17
29
0
5
0
7
0
0
16
0
2
1
3
4
0
1
4
0
0
2
3
0
12
0
2
0
6
15
0
0
0
8
7
0
0
0
8
0
8
0
0
1
0
1
9
1
0
10
9
19
8
41
0
0
0
0
26
0
4
17
0
32
5
0
2
0
20
0
21
0
0
3
0
16
0
0
0
15
0
0
0
0
5
3
14
0
13
0
0
0
1
21
42
0
0
0
4
9
28
0
13
0
0
4
0
0
34
0
0
3
0
8
4
0
0
0
6
0
6
17
0
3
10
0
1
7
11
15
0
0
0
8
8
0
171
127
17
0
0
0
0
0
0
3
0
0
45
14
0
10
2
8
5
0
7
0
2
0
0
26
0
16
0
0
2
0
3
0
5
0
0
0
0
0
1
1
9
0
0
8
0
21
0
13
12
0
0
5
0
5
4
0
0
3
8
17
0
18
4
0
0
3
0
32
0
0
0
15
9
0
22
0
7
9
1
0
0
19
0
13
0
0
21
0
1
0
10
9
15
0
0
28
1
0
0
0
5
5
0
15
2
0
1
15
0
0
0
33
22
0
10
0
0
0
0
0
0
21
0
6
0
12
0
13
3
11
3
5
11
0
0
9
0
20
6
0
0
23
2
0
6
0
0
5
0
35
0
6
0
0
0
38
0
5
0
0
14
0
0
2
0
0
19
10
0
0
20
23
0
7
7
8
0
12
27
1
0
18
28
15
0
0
27
27
0
0
18
32
18
0
0
29
12
26
0
0
3
9
23
0
0
17
0
29
0
0
0
47
0
0
0
38
0
33
0
0
11
9
11
0
0
28
0
37
18
0
0
15
28
0
15
18
0
18
21
0
0
5
0
24
14
7
6
0
3
3
10
5
2
0
3
0
9
0
1
0
22
15
0
0
4
12
0
0
15
0
0
1
0
7
0
0
12
0
3
0
0
16
0
31
0
12
2
0
7
0
14
4
12
0
1
6
0
10
1
0
6
16
16
0
0
29
50
35
0
0
5
0
0
0
0
4
0
17
0
11
8
0
22
0
2
2
0
9
0
6
0
1
0
21
0
0
15
2
0
8
0
0
7
0
14
0
0
3
0
0
0
19
5
0
13
0
15
0
4
0
3
0
0
24
0
0
0
13
0
0
0
2
0
0
10
5
5
0
22
0
24
8
0
0
0
16
0
9
0
1
20
0
0
12
0
2
0
21
0
0
0
9
0
1
0
30
0
0
0
15
0
2
9
0
0
0
3
7
0
4
0
0
0
0
5
6
32
0
0
0
0
1
0
9
0
0
16
0
0
7
0
28
0
0
0
14
9
2
0
0
0
40
18
0
8
0
17
2
6
0
0
1
0
8
0
12
0
24
1
1
0
16
0
3
0
20
0
0
6
9
0
4
0
21
0
35
2
0
0
5
10
4
0
13
7
0
11
2
0
0
7
0
6
6
0
0
0
0
3
12
158
119
14
0
4
0
13
0
11
0
10
3
0
0
7
0
5
0
0
24
0
0
15
0
3
8
0
0
11
9
11
0
14
5
0
1
0
7
9
13
0
9
9
0
16
0
17
0
7
0
0
10
0
0
6
3
0
0
9
0
4
0
15
0
0
5
1
0
0
0
0
0
7
0
0
23
0
15
0
0
0
56
0
0
0
13
0
2
6
4
0
11
5
0
0
11
17
0
3
9
0
0
6
0
14
0
0
17
0
0
0
0
19
0
0
18
0
0
8
8
2
11
0
0
0
1
3
0
0
4
0
0
3
0
3
4
20
0
0
11
0
0
0
0
4
2
1
0
0
0
21
3
0
0
17
0
0
21
0
0
7
4
0
0
5
0
10
22
0
0
0
24
0
0
0
0
0
0
45
0
7
0
0
33
0
0
6
29
26
0
0
25
0
0
0
0
21
6
8
0
0
6
30
9
0
0
24
0
18
0
0
22
17
10
0
0
29
18
15
0
0
16
15
8
0
10
7
11
30
9
0
2
27
28
25
23
0
0
29
0
0
0
43
33
0
0
25
4
0
0
3
9
0
7
2
0
0
7
2
11
0
0
29
9
0
0
0
18
0
2
0
12
1
0
0
0
0
0
0
16
15
8
0
24
0
13
0
13
9
4
11
0
5
0
3
0
0
0
8
0
9
0
0
1
1
11
0
8
26
52
0
0
0
0
0
2
0
20
5
2
0
9
0
0
0
0
1
3
2
15
3
9
0
6
5
3
0
12
0
0
0
0
0
2
5
0
9
0
0
13
0
0
0
2
0
6
2
9
0
25
0
0
20
0
3
0
0
9
0
7
4
0
0
0
0
0
0
0
8
0
32
0
0
19
2
0
15
1
0
13
0
6
0
6
2
14
0
2
0
0
13
0
0
1
10
0
0
1
0
16
4
0
0
10
0
0
15
0
0
0
11
0
0
1
0
7
20
0
15
22
0
0
0
11
3
0
7
22
0
4
0
7
6
0
0
9
23
0
0
6
2
18
0
2
0
2
11
14
0
15
0
0
0
0
0
6
15
0
19
0
5
0
1
0
19
0
0
3
2
0
0
11
0
21
0
0
0
7
0
0
0
3
2
2
0
18
0
16
0
19
0
0
0
9
7
0
0
7
8
11
8
0
162
106
4
20
0
0
0
0
21
0
0
3
0
0
0
9
0
0
7
0
14
14
0
11
0
4
0
12
0
10
0
5
6
0
0
10
5
0
0
0
9
0
0
0
4
3
0
1
0
0
0
1
2
0
0
0
27
0
0
32
0
0
6
0
86
0
4
0
0
6
25
9
31
0
0
8
3
0
25
0
0
0
18
0
23
0
7
0
2
0
0
14
0
6
0
5
17
11
0
2
12
0
0
11
0
0
0
0
2
1
7
6
0
21
0
0
7
0
7
5
18
0
3
0
0
0
0
3
13
0
12
5
0
4
0
8
0
0
0
29
0
0
12
0
10
0
0
11
32
0
0
14
18
1
0
35
0
0
0
4
0
0
18
0
6
27
17
0
2
9
23
0
0
15
3
0
0
16
13
0
0
4
38
0
0
49
39
0
0
0
24
27
0
0
10
10
15
17
0
0
26
26
28
0
2
23
2
9
1
0
15
18
0
0
0
16
0
18
0
0
14
15
20
0
30
9
18
0
0
0
23
4
3
47
0
0
0
19
0
0
0
3
19
30
6
0
7
5
0
1
0
0
0
0
4
0
1
0
10
13
8
0
0
10
17
7
0
0
17
11
0
0
3
12
10
0
8
20
0
15
4
12
0
2
1
21
7
3
0
0
16
0
0
0
0
0
0
0
0
0
5
0
0
0
0
0
0
0
14
30
14
15
0
0
0
0
9
0
0
16
0
0
15
23
0
32
1
0
0
0
2
0
7
1
0
0
3
6
0
0
3
2
0
2
10
1
0
0
4
0
14
0
0
13
0
14
3
0
2
3
2
0
0
13
0
9
13
0
6
0
0
0
0
7
77
18
0
0
0
28
9
0
27
0
0
20
0
0
0
8
0
1
15
0
0
0
0
0
15
0
0
5
0
0
0
6
0
0
0
0
0
20
0
7
0
6
0
11
0
0
13
0
22
0
2
10
10
24
5
0
0
27
3
0
0
0
0
1
25
0
0
11
0
0
26
0
1
0
22
24
2
0
0
16
0
4
0
0
3
0
0
0
20
0
0
0
8
17
0
0
0
0
11
27
0
2
10
0
0
4
0
7
48
0
11
0
5
0
5
0
0
15
0
0
15
0
14
0
0
2
6
0
0
13
0
0
6
5
5
0
0
5
168
93
2
0
0
0
7
7
0
1
0
0
7
4
0
14
0
8
7
0
0
0
0
17
13
0
4
0
19
0
2
3
0
0
2
0
1
8
0
23
0
2
8
4
0
4
0
8
0
7
0
17
4
0
12
0
15
0
6
2
13
13
0
8
0
0
0
11
0
6
0
0
0
27
11
0
3
8
0
4
17
0
0
0
15
0
25
0
0
3
0
5
0
19
20
0
0
0
0
0
15
0
12
0
0
9
6
0
5
11
0
16
0
0
0
11
0
28
1
0
0
20
0
0
23
0
6
0
0
2
0
17
0
12
0
0
6
0
20
0
0
0
23
4
0
24
0
0
38
0
0
0
0
0
16
0
0
0
32
0
0
25
0
0
20
0
0
0
6
0
0
34
19
0
10
28
15
0
0
39
0
9
0
0
14
18
0
0
9
6
28
0
0
35
4
10
0
0
10
35
0
16
0
6
43
0
0
3
1
3
10
0
0
0
70
0
19
0
0
21
16
0
0
0
27
11
0
0
28
28
0
37
9
0
8
38
0
0
0
2
54
11
0
14
15
0
0
1
0
10
3
0
3
4
0
3
1
9
0
14
11
0
0
0
6
8
4
0
0
5
4
0
0
5
17
3
0
33
0
2
21
2
0
3
0
0
0
0
0
0
0
22
0
0
2
0
12
0
9
1
0
10
7
0
0
0
5
4
6
11
29
39
34
2
0
0
0
1
0
7
0
0
0
0
5
0
20
9
0
11
11
0
16
0
26
0
0
0
5
1
9
0
3
9
0
1
6
0
6
0
1
0
15
0
2
0
9
0
2
0
6
8
7
0
0
25
4
0
0
1
0
0
8
0
0
0
17
40
15
0
35
12
0
0
4
0
10
28
0
0
11
0
0
0
4
9
7
0
2
0
14
0
9
0
0
8
0
0
23
0
10
0
18
0
10
6
0
9
0
0
9
2
0
0
6
20
7
4
21
0
0
0
10
0
0
11
0
0
0
0
0
0
19
0
8
13
0
16
11
0
0
9
0
8
0
0
0
0
19
14
0
0
1
20
14
5
0
12
0
0
2
5
0
1
0
2
3
18
9
12
6
8
0
19
10
0
0
0
0
19
0
21
0
2
3
5
1
1
7
0
4
14
0
0
0
0
14
0
0
8
8
0
170
102
15
0
0
4
0
9
0
0
3
2
18
0
13
0
6
0
6
4
0
0
17
0
0
37
0
0
0
14
1
0
11
0
8
0
8
0
1
0
0
0
13
0
6
0
12
0
2
0
0
6
0
1
3
0
0
0
0
0
0
11
0
0
0
0
1
0
4
0
6
0
0
5
0
29
0
0
0
0
0
2
25
0
29
0
10
0
11
0
0
1
11
0
2
2
0
19
3
17
0
31
0
0
0
2
0
34
0
0
8
0
0
19
8
0
28
0
29
0
16
0
7
2
0
24
0
23
0
17
0
0
17
0
0
0
0
11
31
0
0
5
0
0
8
2
25
11
0
0
1
0
11
0
0
0
3
0
0
6
12
0
0
33
0
0
0
44
0
19
0
9
6
0
35
14
0
0
46
5
1
0
0
37
22
0
0
27
28
14
0
0
27
0
30
0
0
13
22
3
0
0
0
39
0
0
0
7
19
16
3
0
15
21
0
21
0
13
10
17
0
0
30
13
31
0
0
0
11
0
36
0
0
7
2
0
0
9
22
4
23
17
0
4
8
15
0
2
0
0
1
0
0
1
4
8
2
0
0
0
12
7
3
0
0
0
0
10
0
0
7
18
0
3
13
6
0
14
0
0
6
0
0
0
0
0
0
10
0
11
0
0
13
0
9
0
0
7
0
2
0
7
0
0
4
6
0
4
0
4
21
24
44
44
26
7
0
0
0
0
0
5
10
0
21
18
0
13
0
0
0
8
0
5
0
1
10
0
0
0
0
8
0
1
17
0
0
5
0
0
30
0
0
4
5
1
0
8
0
0
3
7
5
1
2
0
3
0
0
29
0
7
0
11
0
0
41
25
0
0
0
10
18
0
0
39
0
0
5
9
3
3
0
0
3
0
0
2
0
8
0
8
0
0
9
0
12
5
0
12
0
13
0
1
0
15
0
0
0
0
1
4
0
9
0
7
22
32
0
0
1
0
5
8
0
3
1
0
20
13
15
0
24
48
0
0
0
0
0
0
23
0
12
0
32
0
0
4
10
0
25
0
0
0
16
0
11
0
0
11
0
0
12
14
17
0
0
10
0
0
2
0
0
0
0
0
19
0
0
0
6
1
3
8
0
0
0
0
14
0
8
0
4
0
1
5
0
3
35
0
0
6
156
86
2
0
0
0
11
0
3
11
0
0
8
0
19
0
2
0
12
0
9
0
0
0
0
0
29
0
16
0
2
0
0
29
0
0
0
7
0
0
10
0
0
0
0
9
0
11
0
0
2
0
0
0
8
0
8
3
0
10
0
3
0
2
0
26
0
0
0
3
0
7
0
0
33
0
0
8
0
20
0
8
0
0
0
8
0
0
15
0
0
7
0
0
4
0
2
0
0
0
0
9
0
22
0
16
0
0
4
4
0
13
0
0
8
0
3
0
0
0
0
34
0
0
0
12
0
0
0
0
25
9
0
0
14
0
7
39
0
16
4
0
18
0
0
0
0
10
5
11
6
5
0
15
0
17
0
15
8
0
0
10
22
0
1
7
0
0
0
18
3
5
0
32
0
0
2
23
0
0
0
36
28
13
0
0
8
29
0
0
1
10
24
1
11
22
0
11
43
0
0
13
20
12
0
0
27
0
2
0
0
13
18
11
0
0
0
13
0
0
0
51
0
12
0
0
25
0
14
25
0
0
44
0
0
0
14
44
14
9
0
25
8
0
0
14
12
0
6
0
0
18
10
4
5
4
6
0
0
0
0
5
22
8
10
0
0
6
19
0
0
30
0
8
18
14
0
0
0
0
6
0
0
0
18
19
0
0
12
0
4
2
3
9
0
1
0
8
3
0
8
0
5
0
0
3
0
0
7
0
0
11
3
16
45
49
0
0
0
0
7
0
0
5
15
0
16
0
0
0
22
0
8
0
5
2
0
14
9
0
14
0
0
11
0
0
14
0
0
5
0
6
9
0
0
0
0
0
4
8
0
0
5
5
0
7
5
0
0
18
0
0
6
3
7
14
0
0
0
0
0
0
29
0
0
0
6
4
0
0
0
8
2
6
7
8
2
1
0
16
0
0
11
2
0
0
2
0
0
7
0
8
1
10
0
0
0
0
9
0
10
0
7
16
14
24
3
0
0
0
11
20
0
13
0
0
0
0
0
14
0
30
0
1
10
20
0
0
6
5
0
9
7
7
0
0
0
2
0
9
0
0
0
11
8
14
0
0
0
8
0
15
0
0
0
25
0
15
0
12
0
0
20
0
21
0
0
1
4
0
7
10
15
6
3
10
0
0
0
7
0
10
0
0
8
15
4
10
0
0
9
5
168
81
3
0
29
0
21
16
13
0
0
7
10
0
0
3
0
0
22
11
0
0
12
0
6
0
0
0
9
0
0
8
0
0
0
29
4
0
0
0
1
9
0
20
0
1
0
5
0
19
13
5
0
18
0
0
0
0
9
0
18
0
6
4
0
0
0
0
6
0
15
0
0
6
0
14
16
0
1
5
14
0
9
25
0
0
27
0
11
0
9
5
11
0
0
14
0
3
5
0
15
0
4
0
0
0
15
0
18
0
1
3
0
2
0
3
0
9
0
1
0
0
6
24
6
10
0
0
0
40
0
0
16
0
0
0
11
41
0
0
0
1
19
0
4
2
0
7
0
7
0
4
0
0
0
0
0
5
5
0
40
0
0
0
40
0
0
31
4
0
1
4
18
0
0
45
15
0
0
0
11
12
0
0
1
17
16
7
0
29
40
0
4
0
7
0
0
7
0
0
14
18
12
0
0
29
0
11
0
0
0
19
7
0
0
9
23
3
0
0
10
1
0
0
8
29
0
21
35
0
45
21
0
0
0
23
44
7
9
0
0
0
17
0
0
0
0
9
14
3
1
0
8
12
0
10
3
3
11
12
0
7
1
0
2
0
0
19
26
1
0
18
0
0
0
3
0
0
5
7
0
8
0
0
0
11
1
0
16
0
0
9
0
0
13
0
5
0
6
0
2
0
0
3
0
0
1
0
2
4
0
0
18
0
21
42
42
0
0
37
0
0
1
0
0
16
3
0
15
0
6
0
3
0
0
10
0
0
1
0
0
22
0
0
18
0
0
8
0
14
0
0
5
0
0
4
9
0
0
57
0
2
0
0
10
0
0
4
0
23
0
0
0
0
0
0
11
20
0
21
0
15
0
0
6
0
14
0
1
0
3
0
0
7
10
0
5
0
2
3
3
0
5
0
5
0
3
10
1
0
28
0
12
0
0
0
5
5
0
2
0
8
6
8
0
16
15
0
0
0
11
0
0
0
0
0
18
0
0
0
0
35
6
0
0
10
0
46
0
0
10
0
0
0
20
28
0
7
0
11
0
4
44
0
4
0
0
0
0
0
43
0
0
28
4
0
28
0
5
3
12
4
6
13
1
0
0
0
0
10
21
0
10
9
0
0
0
7
7
18
0
0
4
0
8
0
1
0
11
4
0
0
177
94
9
0
0
1
0
0
0
9
0
1
0
1
0
0
6
14
0
0
0
0
4
0
0
9
0
20
0
14
0
7
15
0
7
0
4
0
5
0
8
0
3
0
0
9
0
0
2
0
0
5
11
0
4
4
0
0
8
6
0
0
0
2
0
8
0
9
0
12
0
0
13
11
12
0
0
21
0
4
0
0
10
8
5
0
0
13
0
0
5
0
0
0
1
0
21
0
4
0
7
40
0
0
0
3
5
0
0
0
7
0
0
0
4
0
0
13
0
9
0
0
5
0
0
0
0
0
0
15
0
0
0
16
0
18
19
0
0
7
0
0
0
19
0
4
0
6
17
18
0
0
28
13
5
0
0
0
0
0
0
2
0
35
0
6
0
3
0
0
18
17
0
0
32
0
0
0
43
0
26
0
0
54
4
0
0
0
4
27
0
0
0
0
5
10
33
0
0
33
0
8
0
5
46
0
9
0
19
0
2
27
0
0
39
0
8
0
1
17
22
0
1
28
11
22
0
0
11
10
0
0
0
7
17
15
15
8
4
6
0
0
0
27
0
0
0
19
22
0
0
0
0
8
3
0
0
0
0
0
15
0
0
8
12
9
4
0
33
6
0
0
0
0
0
0
16
13
4
3
0
7
2
0
0
0
7
0
0
6
0
0
4
0
6
5
0
0
0
7
0
3
0
3
4
3
1
4
0
4
6
2
4
4
6
7
36
46
0
0
0
0
8
5
4
0
7
11
0
1
0
0
8
6
3
0
0
11
0
7
7
0
2
0
0
6
5
0
0
13
0
4
0
1
0
17
0
12
0
0
15
0
0
11
8
0
12
17
0
0
1
0
56
4
20
0
3
0
7
0
23
0
0
18
0
10
0
12
13
0
6
1
0
0
3
0
1
11
0
0
9
0
0
10
0
0
0
7
10
0
0
0
5
0
0
8
0
0
0
5
0
11
5
19
13
9
0
0
0
0
0
0
2
11
0
0
8
0
5
0
0
0
0
23
12
0
6
0
7
4
0
4
10
0
12
0
2
0
9
0
0
0
0
0
0
0
0
0
14
0
0
0
0
14
0
0
0
35
19
0
23
0
5
0
0
2
0
0
9
0
1
17
3
0
7
0
4
0
11
4
0
0
0
13
13
4
0
2
0
0
1
4
159
87
0
22
0
0
11
0
0
16
0
0
33
0
12
0
0
10
17
4
0
0
0
0
0
0
2
7
0
0
0
5
2
0
0
16
0
7
9
0
3
2
1
0
12
0
18
0
11
6
0
0
0
1
0
0
4
11
0
0
0
20
0
15
0
2
5
0
0
0
8
0
0
0
0
12
1
2
6
0
3
23
0
0
1
4
0
0
9
0
0
8
7
0
0
0
0
6
2
7
0
0
0
8
11
0
0
25
0
0
0
12
4
0
0
11
6
4
0
0
18
0
5
0
7
0
16
0
16
4
0
8
0
0
0
32
0
0
13
0
0
25
18
0
6
11
8
0
0
0
0
0
15
0
0
10
0
24
6
0
0
6
7
0
2
5
7
0
14
11
0
0
16
29
0
0
8
17
2
27
0
20
11
23
0
0
22
8
17
0
0
13
29
20
14
0
0
27
18
8
9
0
0
49
0
0
0
1
0
5
0
0
0
20
3
0
0
17
0
35
0
0
20
9
17
0
0
24
34
0
0
0
38
11
22
27
0
0
4
0
4
14
0
5
20
0
0
0
0
16
8
0
0
0
10
10
0
8
0
1
0
0
4
0
17
7
3
0
5
0
0
0
12
9
4
0
0
16
5
5
6
0
6
0
0
0
7
3
0
12
4
0
3
6
0
8
2
1
4
0
11
0
20
0
0
2
3
1
0
10
0
0
2
2
0
3
28
29
44
0
0
0
0
3
0
4
0
8
0
10
0
3
0
0
0
20
8
13
0
0
0
5
4
6
0
0
7
0
4
0
3
0
0
21
0
3
0
28
0
8
0
0
0
2
0
4
0
0
4
5
0
0
0
0
11
0
0
0
2
0
0
0
0
0
24
0
34
0
4
9
0
0
2
2
13
4
11
0
19
1
0
0
12
0
0
8
0
0
0
12
11
0
0
5
17
0
1
0
0
3
7
0
7
25
31
0
0
32
0
0
8
0
9
5
0
1
0
38
0
24
0
0
48
0
0
16
0
7
0
7
0
12
4
0
0
23
0
9
0
15
20
0
20
54
8
20
0
0
0
13
34
0
6
3
0
0
0
0
0
0
0
10
0
0
9
0
21
4
1
35
0
12
0
0
0
5
3
4
0
0
5
0
1
0
0
0
9
0
18
0
0
3
161
96
9
0
13
0
14
2
11
0
7
10
0
6
0
20
0
0
0
9
0
0
10
7
0
8
4
0
0
11
4
0
2
7
0
0
5
0
6
12
0
18
0
0
0
0
9
0
0
12
0
5
4
0
5
5
0
0
1
0
0
12
0
5
0
16
0
0
0
0
0
11
0
6
0
8
2
0
9
0
0
5
12
0
14
12
0
19
2
2
8
0
1
16
0
9
0
0
10
0
15
0
6
1
0
5
11
0
0
3
15
0
2
4
5
8
0
1
3
0
0
7
8
0
9
9
0
0
0
0
7
3
0
0
38
19
0
11
0
0
32
5
0
8
0
0
6
0
13
0
10
0
0
2
29
0
0
0
0
15
16
0
0
4
4
0
15
9
0
0
18
30
0
0
0
20
12
2
0
0
11
17
0
0
0
46
13
0
7
0
22
17
0
0
0
0
8
12
35
0
0
0
32
0
0
0
11
7
23
0
0
10
23
16
0
0
17
13
18
0
18
17
3
40
0
0
50
0
0
0
0
0
45
26
0
0
0
0
9
0
8
8
8
0
42
14
5
0
0
0
8
4
1
0
0
0
0
3
0
5
0
22
2
13
0
11
0
0
0
3
0
0
12
14
12
6
0
0
6
14
4
0
2
13
0
0
0
0
16
0
6
10
0
10
0
4
0
6
0
0
3
3
0
0
0
5
0
0
0
0
0
0
0
3
0
2
11
20
27
73
0
0
0
22
0
7
0
2
0
7
0
1
7
0
12
0
13
0
5
0
0
0
0
0
28
0
0
9
0
0
16
0
0
2
0
0
0
6
3
6
0
0
6
8
3
5
3
0
9
0
0
0
0
31
16
0
9
0
0
17
12
0
3
0
10
25
0
0
0
20
10
0
7
4
0
1
3
14
0
1
3
0
0
5
4
0
13
0
0
0
0
19
0
1
0
0
0
2
0
12
10
0
21
5
0
0
0
0
11
0
20
0
0
0
0
29
0
4
0
0
7
18
0
5
0
0
22
0
12
0
0
1
0
1
0
0
0
29
0
0
1
0
0
0
0
0
11
0
4
17
0
1
0
0
0
20
0
7
10
0
21
0
0
26
0
0
19
0
2
0
13
0
5
2
0
6
12
10
0
0
0
8
17
11
0
7
0
0
0
9
4
0
160
80
0
22
0
31
1
0
0
4
2
0
7
18
0
13
10
0
0
18
10
5
0
0
22
0
0
0
0
0
7
4
18
0
1
15
2
3
0
0
0
0
2
0
17
0
8
2
0
2
7
3
0
1
0
11
0
8
1
0
14
0
6
12
0
29
0
0
0
7
6
7
0
17
3
0
9
0
14
0
8
0
0
1
0
0
0
17
0
2
0
0
2
11
0
10
7
0
0
12
7
0
0
30
0
0
0
0
0
0
11
0
0
0
5
0
9
3
0
10
0
0
0
10
3
2
0
13
7
6
0
0
0
0
47
0
0
8
19
16
0
0
0
0
0
6
0
0
6
34
0
8
20
0
0
0
4
0
27
0
0
23
11
26
0
19
0
8
0
34
2
0
0
21
0
14
0
0
9
39
0
0
0
12
33
6
0
0
10
24
12
0
7
0
0
11
0
15
0
0
29
10
8
0
0
14
3
16
0
0
22
1
16
0
16
37
4
0
3
0
0
30
0
0
0
41
0
0
0
10
15
32
0
30
1
0
1
10
0
16
0
12
6
0
0
13
3
0
0
0
0
11
9
3
0
0
0
7
13
0
15
0
5
0
0
0
10
11
3
6
19
0
0
14
0
12
4
0
0
1
31
0
0
0
18
0
2
0
0
15
0
13
2
0
0
0
0
0
0
0
4
0
0
0
0
18
0
0
0
1
0
0
7
0
0
0
12
4
14
32
57
0
0
0
0
0
9
0
0
4
12
0
8
4
0
10
0
6
0
1
1
13
0
0
2
0
4
0
12
0
0
0
6
0
0
1
0
6
0
0
0
7
0
5
0
0
3
0
0
0
17
0
4
0
0
6
5
0
0
0
10
0
0
0
0
3
15
0
0
24
0
9
0
0
0
0
3
1
1
0
16
1
0
0
0
12
0
4
2
0
0
0
10
0
8
3
0
0
10
0
27
18
18
1
0
0
7
6
0
3
4
0
19
0
0
0
0
18
0
0
0
15
0
22
3
4
0
2
0
0
70
0
5
0
10
0
22
0
1
0
20
0
9
0
0
0
0
4
0
0
3
0
35
19
0
0
0
2
0
7
0
1
0
0
2
19
0
10
0
13
0
11
0
0
6
0
0
0
0
0
0
1
0
0
2
0
3
0
1
0
16
0
166
86
0
0
3
0
20
0
3
6
0
13
1
0
0
0
0
13
0
0
1
0
0
18
0
0
0
23
19
2
0
0
3
6
0
0
10
0
13
0
8
6
4
10
0
7
0
1
0
0
0
4
0
0
2
0
9
0
5
0
0
5
0
0
0
7
18
0
0
12
0
0
6
0
24
7
0
10
0
13
0
14
0
24
0
12
0
18
0
19
6
10
0
3
0
5
0
10
0
0
0
33
0
0
6
0
0
35
0
0
5
0
0
22
0
0
5
6
2
6
0
11
12
0
10
0
13
0
0
4
3
0
0
112
9
0
6
0
0
0
43
5
0
0
20
14
0
1
2
0
6
0
5
1
19
0
0
22
0
0
10
0
0
0
27
12
0
0
24
0
4
0
27
0
0
0
1
45
6
0
0
9
37
23
11
0
0
6
25
0
8
0
0
34
20
5
0
0
4
27
0
9
0
0
35
12
12
0
0
14
6
0
0
9
15
24
0
0
17
0
33
0
0
11
24
0
0
0
50
8
16
0
1
0
20
0
0
11
6
0
4
1
19
6
0
0
18
15
0
0
0
0
0
16
0
6
0
0
21
9
0
0
0
1
11
0
12
15
0
0
2
14
0
0
18
7
3
8
0
0
6
22
0
0
13
11
0
5
0
9
0
2
0
0
0
0
15
0
9
0
18
0
8
8
0
1
0
15
0
0
8
0
10
0
0
4
0
0
0
34
64
52
0
0
0
0
0
0
6
0
0
21
0
10
0
0
0
8
0
0
5
0
17
0
0
0
15
0
0
3
0
2
8
0
2
3
0
0
7
17
0
6
0
4
8
6
11
12
0
38
0
17
0
3
13
0
1
0
16
0
13
0
5
0
0
0
0
9
0
14
19
0
0
0
21
4
0
1
5
3
0
0
9
7
0
20
0
5
0
0
6
3
9
0
0
0
0
0
6
19
4
10
25
20
0
0
1
0
16
0
0
24
0
6
20
0
6
9
0
30
0
0
0
0
2
5
0
0
14
0
0
0
11
10
0
0
0
0
16
8
21
0
0
0
3
0
0
11
0
0
1
0
0
59
0
0
0
0
6
0
19
0
0
21
19
0
8
2
13
1
0
6
0
21
8
0
0
0
7
5
0
2
0
23
0
21
0
10
4
1
0
0
169
79
0
0
0
5
0
0
0
3
0
10
10
0
17
0
7
1
7
0
15
0
13
0
13
14
4
0
0
10
14
0
0
0
6
0
0
9
9
4
0
0
0
0
2
17
0
29
0
0
0
7
11
0
10
4
0
9
0
9
17
0
7
9
0
0
6
8
0
11
0
13
0
10
0
0
0
17
0
5
2
0
0
0
25
12
0
0
0
0
0
15
0
0
5
0
7
6
0
0
6
0
0
5
5
0
15
0
0
1
0
11
5
0
26
0
0
0
0
11
6
8
0
0
5
31
0
18
20
0
0
0
59
93
0
6
0
0
0
23
0
0
13
3
0
0
1
0
0
4
1
0
0
0
9
0
4
0
0
6
9
0
12
1
0
0
21
16
2
0
13
10
12
0
0
46
0
0
0
0
2
3
5
0
0
0
18
0
0
10
0
1
46
0
0
0
0
5
25
0
0
0
25
8
5
0
0
26
2
4
1
0
46
0
17
0
0
24
3
0
0
0
12
0
0
0
43
29
24
20
0
0
0
0
22
8
0
0
24
0
0
0
0
6
8
0
0
22
19
0
0
0
0
0
19
16
22
0
9
0
0
0
0
0
15
0
0
0
9
0
0
4
8
0
0
6
14
3
7
0
0
2
13
0
0
9
0
0
0
1
1
0
18
0
8
0
21
9
6
0
1
4
0
0
0
0
0
13
13
1
5
6
0
13
1
9
16
0
9
7
22
51
14
0
0
20
0
0
0
6
0
0
4
11
0
6
16
0
0
10
4
0
0
14
4
2
3
0
5
0
4
14
0
4
0
3
8
0
6
0
15
0
12
0
0
8
0
0
0
6
0
0
0
0
6
0
11
30
0
24
0
9
0
0
0
22
2
10
11
0
14
0
8
3
4
0
7
0
0
14
0
9
0
0
14
0
0
0
5
0
0
0
0
0
15
0
19
0
0
23
0
14
0
0
0
16
0
3
0
0
2
0
0
0
46
0
0
2
7
0
12
0
6
0
0
19
38
0
37
0
10
0
0
0
0
1
0
0
27
0
3
0
33
0
0
4
16
0
43
0
6
0
0
0
13
0
0
12
0
12
0
0
7
3
0
7
16
0
0
21
0
0
0
0
0
5
0
4
1
0
20
2
0
0
8
0
6
1
6
0
10
0
161
86
0
22
0
0
23
0
30
0
20
0
7
0
0
18
9
0
6
0
2
2
8
0
0
0
0
9
0
7
0
0
5
0
0
32
0
0
0
0
3
0
8
0
0
0
0
8
0
0
0
0
6
0
0
9
1
0
3
1
0
0
1
0
0
0
0
0
0
2
0
0
9
9
0
21
4
0
0
12
0
0
9
0
0
6
0
0
23
0
13
0
6
5
7
9
0
0
0
6
18
0
5
0
5
0
0
8
0
7
1
0
2
18
0
8
0
10
1
0
18
0
0
7
0
0
0
4
0
0
0
0
61
37
0
0
0
0
11
6
3
6
5
1
0
31
0
0
8
10
0
7
16
0
20
0
2
16
6
0
0
30
6
0
0
9
0
0
0
30
1
6
0
31
11
16
0
0
3
28
40
6
0
0
0
18
11
0
0
7
18
28
0
0
0
0
48
15
0
0
7
41
0
0
0
10
5
32
10
0
0
22
0
0
0
12
28
14
0
0
15
6
0
0
0
9
45
23
0
11
0
21
0
8
0
20
19
0
23
16
0
0
0
10
13
11
0
0
26
18
6
0
7
11
10
18
0
0
0
0
10
9
1
0
9
12
14
0
3
9
0
3
11
1
0
0
3
0
8
10
0
0
14
0
0
10
0
0
7
5
3
0
10
0
0
0
0
0
0
1
1
0
0
10
1
0
0
8
0
0
0
0
0
7
0
8
0
0
0
0
0
45
74
0
0
0
0
0
0
5
1
10
0
0
0
0
6
0
2
0
0
14
4
0
3
2
0
3
0
10
0
0
5
2
6
0
0
0
15
0
4
6
0
7
0
11
2
5
0
0
0
5
0
8
0
19
0
0
21
0
37
0
0
19
0
0
17
0
1
0
14
15
0
1
2
0
14
0
7
0
18
6
0
3
0
6
0
2
8
6
0
0
17
0
0
0
0
12
1
23
16
26
0
12
0
0
16
1
2
7
12
0
27
0
0
22
0
10
1
0
18
8
0
0
18
0
0
10
0
3
0
22
0
24
0
15
0
0
0
0
0
0
0
0
7
0
9
13
0
16
0
0
0
0
23
0
0
0
17
0
1
0
1
10
3
0
11
26
7
0
22
0
4
0
3
0
0
12
0
14
1
0
2
0
0
0
1
0
7
0
5
0
169
105
15
0
0
15
0
0
0
27
0
10
5
0
5
0
0
0
15
1
1
1
0
9
0
20
0
9
0
15
0
10
0
9
0
0
0
9
0
0
0
7
2
3
0
1
3
0
1
0
14
1
0
8
13
0
3
0
1
0
15
5
0
21
0
12
12
0
23
0
2
12
0
12
0
2
0
16
0
0
5
2
0
27
0
10
0
0
7
3
0
0
3
0
0
9
0
0
3
1
0
11
0
19
0
13
0
0
3
0
7
0
0
13
3
0
14
11
0
0
7
0
0
0
2
22
0
5
0
11
0
0
81
0
23
0
0
6
0
0
0
0
0
26
0
0
7
11
8
5
0
2
0
15
0
11
10
0
0
28
17
0
0
20
8
0
0
0
41
0
0
0
12
13
11
0
0
16
13
4
0
0
15
0
5
18
0
7
32
13
5
10
0
0
30
42
12
0
0
17
26
1
0
0
0
28
20
0
0
10
23
33
0
0
15
20
10
13
0
8
9
0
0
33
38
0
0
29
0
0
1
0
25
8
0
0
16
9
0
10
21
0
0
4
0
18
0
0
0
11
27
1
6
8
0
0
0
7
0
10
2
1
8
0
0
1
3
0
7
3
8
0
0
10
0
0
10
12
6
17
0
0
36
0
0
13
12
0
0
0
6
5
5
0
3
0
0
8
0
0
5
1
4
7
3
0
0
0
0
0
5
7
1
1
0
21
0
0
10
0
6
41
57
0
0
31
41
9
0
0
0
0
19
20
0
0
1
0
0
19
0
3
0
1
5
0
3
0
4
0
0
1
6
0
0
11
9
0
0
0
1
11
0
1
20
0
0
9
0
7
0
2
13
0
0
3
0
0
4
0
0
0
0
0
0
2
0
5
6
10
0
12
14
11
0
0
5
0
0
0
1
2
13
0
0
6
0
0
0
0
6
0
8
2
0
3
0
10
41
0
25
0
0
0
24
0
0
0
0
0
0
0
0
44
13
0
4
0
26
0
11
10
0
20
0
24
0
9
0
48
0
0
0
1
4
0
33
0
2
25
0
0
0
12
8
6
3
0
28
7
16
2
0
36
0
0
1
0
0
35
0
8
0
9
17
0
13
0
0
8
0
10
6
0
0
8
2
0
6
0
0
5
0
0
0
12
0
9
0
3
9
0
169
81
0
0
0
0
0
9
36
0
3
12
13
0
0
11
0
0
0
0
1
0
1
0
0
0
0
1
12
0
6
4
0
0
2
10
0
1
0
13
0
10
2
0
10
2
0
6
0
14
0
0
16
2
0
7
0
8
2
0
0
0
0
0
0
10
4
3
0
0
8
17
0
0
4
6
0
0
7
0
0
14
12
0
21
5
0
11
0
0
8
0
0
20
0
3
0
12
0
18
0
7
0
0
0
9
4
0
1
0
0
0
3
7
0
19
0
9
4
0
0
15
0
11
0
0
2
0
18
0
0
66
45
0
9
0
0
0
18
12
7
0
38
6
0
5
27
0
19
0
0
24
9
0
14
0
8
0
12
0
0
0
2
0
5
0
34
9
7
0
0
17
8
0
0
0
28
14
0
0
0
13
1
0
6
0
0
31
7
0
0
0
11
18
36
2
0
0
13
22
0
0
0
12
26
0
0
0
24
33
0
0
0
0
46
0
2
0
41
0
0
0
38
13
28
0
0
13
26
0
0
11
0
24
0
0
37
10
0
0
14
6
0
1
0
0
22
13
0
0
35
25
0
0
0
16
3
6
1
1
18
0
0
15
0
0
8
24
0
0
0
3
1
8
26
0
0
24
1
0
0
0
5
18
7
0
6
8
0
1
0
5
0
1
2
10
3
9
2
5
0
0
0
0
0
8
0
9
0
2
0
0
11
0
2
0
5
2
1
9
0
7
31
10
0
0
11
0
20
11
0
0
0
0
10
1
4
0
0
2
1
0
11
12
0
4
12
0
0
0
29
0
0
7
0
11
0
0
1
8
3
0
0
6
0
3
0
2
0
22
0
0
0
1
3
0
3
0
1
20
0
18
0
5
6
6
0
0
19
0
4
0
0
8
1
0
5
5
1
6
0
0
0
0
0
0
3
0
14
14
0
0
0
3
0
0
10
2
0
13
26
0
0
0
0
2
14
0
5
24
0
15
0
9
0
4
4
7
0
0
0
0
0
0
0
0
0
0
32
0
0
10
0
0
13
0
0
3
6
0
0
21
0
0
13
0
9
0
4
5
0
23
1
3
0
0
0
28
0
0
8
18
8
21
0
8
7
7
5
0
20
0
0
0
15
0
8
5
0
12
0
2
8
0
19
0
0
4
7
0
10
0
159
93
4
0
20
0
0
0
0
20
0
0
0
0
0
15
11
0
4
0
0
0
11
0
0
9
0
6
0
18
0
9
19
5
0
14
4
10
0
0
0
0
0
4
1
0
25
0
3
0
0
0
3
0
4
0
0
0
16
27
0
18
8
0
16
0
18
0
19
5
0
0
22
5
0
1
1
4
11
6
0
0
0
4
0
17
0
0
13
1
3
5
0
1
0
5
3
0
0
0
0
16
0
11
0
8
6
0
10
8
8
0
2
4
2
0
3
10
0
4
12
0
19
8
7
12
0
0
4
0
0
53
39
18
0
0
0
32
5
0
26
47
0
0
2
0
0
1
0
0
11
20
0
0
44
0
10
3
6
0
0
19
0
0
8
10
0
21
0
0
27
0
0
28
2
27
23
0
0
19
0
6
10
0
12
14
36
11
0
0
2
32
0
32
0
0
0
54
17
7
0
0
7
34
9
0
0
12
23
1
0
13
34
16
0
0
7
0
0
0
12
61
0
13
0
18
0
0
10
15
14
0
0
5
14
0
0
2
19
0
0
26
6
1
0
0
11
31
26
0
0
0
7
6
0
14
6
4
1
7
0
11
9
2
9
0
0
3
6
0
0
6
0
0
6
15
0
1
18
5
8
0
0
2
10
2
0
0
9
0
0
11
2
4
0
5
4
0
0
0
0
0
0
5
11
0
3
9
16
0
4
0
11
8
0
0
6
4
0
3
13
0
28
46
17
0
0
0
0
6
0
9
0
6
0
12
0
12
2
1
2
3
0
0
7
0
4
0
0
12
0
0
5
16
0
9
0
7
2
0
2
0
20
0
3
13
0
5
0
4
1
0
15
0
0
0
4
19
10
0
10
0
0
0
2
0
0
18
0
1
0
15
0
5
7
2
3
0
0
0
0
0
0
0
0
0
0
0
0
0
0
0
0
11
0
10
4
23
8
28
0
0
0
5
0
0
0
11
0
0
5
11
0
0
6
0
0
24
2
12
0
9
4
6
0
9
13
1
0
12
8
0
14
14
2
13
6
4
12
0
0
14
0
0
7
12
0
14
11
0
0
0
4
0
0
5
0
0
0
4
12
0
7
0
8
0
1
0
0
18
4
0
0
0
14
9
6
4
0
0
0
15
0
1
1
0
0
0
0
4
0
5
159
102
9
0
0
6
0
1
3
15
0
0
3
5
0
0
4
8
6
0
2
4
10
19
0
0
6
0
0
0
0
4
0
0
0
0
5
0
0
0
6
0
0
3
1
3
0
11
0
14
0
0
20
3
7
0
8
3
0
1
2
4
0
0
2
12
0
2
0
0
7
0
0
12
22
0
0
0
9
0
0
5
5
9
6
0
0
3
0
16
0
0
0
3
13
0
23
0
10
0
8
0
20
0
14
0
8
3
20
0
0
0
0
10
0
0
0
2
0
2
0
12
0
0
0
0
0
0
0
0
7
62
12
35
0
0
34
0
0
0
0
0
0
16
6
0
19
0
7
18
0
0
24
0
0
0
13
0
0
16
0
0
37
16
0
8
0
0
49
8
0
0
0
0
14
0
0
0
23
0
5
0
0
28
0
30
0
0
0
26
15
0
0
0
0
2
40
0
0
0
0
12
17
0
0
9
22
11
0
0
24
25
0
0
0
16
0
0
0
33
18
30
1
0
0
16
28
0
4
23
5
0
0
6
31
0
0
0
0
32
0
0
16
16
5
5
0
0
0
0
0
5
13
7
2
0
7
16
0
0
0
0
1
8
3
0
0
0
15
14
0
6
0
0
0
14
0
0
0
14
7
0
0
0
0
6
0
0
0
14
2
0
21
0
3
0
0
0
0
13
9
6
0
0
16
0
0
0
6
5
0
1
0
0
4
0
0
11
1
0
0
12
0
21
50
37
0
0
0
15
0
2
4
0
3
18
9
0
0
5
0
2
3
21
0
14
7
0
2
0
5
0
0
0
5
0
2
0
0
1
0
5
0
8
10
0
0
12
0
0
17
15
0
16
3
0
16
0
0
29
0
5
8
0
0
10
0
0
0
14
0
3
12
0
0
0
0
0
36
13
7
15
17
30
36
38
0
0
0
0
0
4
15
5
0
10
15
24
23
0
0
0
0
14
22
0
0
32
7
0
0
0
1
0
9
28
2
0
28
0
0
0
0
24
0
0
8
0
0
9
0
23
3
0
0
20
0
0
26
3
0
0
7
17
0
0
23
0
10
2
0
0
0
16
0
0
0
0
34
0
4
25
0
18
0
4
12
0
21
0
0
0
10
0
0
4
0
3
5
15
0
0
5
6
0
0
17
13
1
0
4
0
166
73
0
36
0
0
14
11
0
1
4
14
19
3
0
19
0
0
14
0
22
0
0
8
0
2
0
0
8
0
0
5
0
0
5
2
4
0
0
14
0
12
1
0
6
0
8
2
0
1
0
19
0
3
0
0
26
0
0
1
0
0
0
14
0
7
0
14
0
0
12
17
0
3
0
7
0
0
29
0
0
8
0
3
0
0
3
8
0
0
0
0
21
1
0
0
0
4
0
0
0
13
2
0
4
12
0
0
2
0
8
16
0
0
0
16
5
2
0
22
0
1
0
16
5
7
0
10
0
0
83
31
14
0
0
0
0
4
3
8
0
11
13
0
2
15
0
16
0
0
18
14
3
0
1
18
0
0
35
0
0
19
0
0
0
0
10
13
0
0
0
32
23
0
0
5
0
11
5
2
0
33
27
0
9
0
0
0
17
32
0
0
0
3
19
20
7
0
4
0
33
15
0
0
28
7
18
0
0
19
19
10
0
0
42
0
0
7
35
3
46
0
12
0
0
0
27
18
0
14
23
22
0
0
0
2
0
0
0
13
17
0
0
21
31
0
0
0
0
19
21
5
0
22
0
0
0
17
9
7
1
0
0
0
27
0
2
0
0
5
0
0
5
0
7
11
10
0
0
0
23
0
10
8
0
14
16
6
0
6
15
0
0
0
0
2
1
3
0
0
16
4
4
2
0
9
0
7
0
5
5
0
9
2
0
0
0
0
6
0
0
0
7
17
31
54
12
0
0
0
0
0
12
0
9
0
12
0
13
0
7
4
2
2
0
0
0
9
0
0
0
10
0
18
0
7
14
4
0
25
1
0
7
0
0
9
0
9
18
0
0
0
12
7
0
0
0
0
13
13
0
9
0
31
6
0
6
0
0
0
0
0
0
0
0
0
12
70
1
4
14
33
25
28
28
24
39
0
0
8
2
41
43
0
0
1
12
2
23
0
0
1
0
0
0
12
0
0
40
6
24
9
0
15
1
0
5
10
0
5
0
0
0
5
0
0
0
17
3
2
0
20
0
0
35
9
0
18
0
0
0
23
8
0
28
0
0
14
0
0
17
3
12
0
0
0
0
2
0
18
6
0
4
0
4
0
0
0
2
0
8
0
0
0
5
0
9
0
0
9
0
7
0
0
10
0
0
0
9
0
6
12
156
113
23
0
16
0
12
0
16
6
0
0
0
0
16
0
10
0
0
5
15
4
0
0
4
0
0
0
0
5
17
16
0
15
0
4
0
2
7
0
0
0
5
0
0
20
0
11
0
4
0
5
0
6
13
0
1
0
24
3
0
0
0
4
5
0
0
0
16
0
0
0
6
6
0
0
11
19
0
0
24
0
0
15
0
0
0
0
3
1
0
4
0
20
4
0
2
23
0
3
26
0
0
2
1
0
0
17
0
23
0
0
16
0
10
0
17
3
0
4
6
0
0
0
0
21
0
0
0
46
57
14
4
0
14
0
0
0
28
0
9
3
0
0
1
0
0
24
0
3
0
0
5
0
5
0
1
9
0
0
33
24
0
0
22
25
0
1
0
26
1
0
2
0
14
0
24
17
0
0
13
13
0
0
0
0
2
34
0
19
0
0
42
0
8
0
0
28
0
0
15
0
25
49
15
0
0
0
22
0
17
0
0
0
0
0
1
44
47
7
0
0
0
30
3
0
0
19
0
0
14
1
21
0
8
4
14
1
0
0
22
36
13
0
0
0
0
25
3
5
0
15
3
0
16
1
0
0
0
17
5
0
0
0
0
11
2
14
0
1
2
10
0
12
5
0
3
0
17
0
0
5
0
0
0
0
7
15
0
0
1
0
0
1
14
7
1
0
6
0
3
1
10
2
0
0
3
17
0
1
0
0
0
0
5
7
0
0
9
4
0
0
4
0
10
59
70
0
0
16
0
1
0
1
0
0
9
2
0
0
12
0
15
3
0
0
10
0
3
10
7
0
9
0
0
0
9
0
5
5
0
9
0
0
0
3
11
0
0
5
0
20
0
0
13
11
0
16
1
0
25
0
0
10
0
6
14
0
4
15
0
0
0
0
23
71
41
0
6
15
27
7
0
1
20
12
13
3
0
16
10
18
0
12
0
0
30
0
0
0
5
1
14
0
0
0
3
0
0
0
0
4
0
0
8
0
13
0
8
12
2
5
12
0
18
18
0
1
5
0
37
0
0
5
0
0
24
0
0
17
0
0
0
14
0
20
14
0
0
0
0
6
0
0
0
0
1
3
0
16
6
0
26
0
12
0
0
0
0
6
0
0
7
14
0
20
0
0
4
0
0
10
1
0
0
9
9
0
0
11
0
0
167
81
0
13
25
0
0
9
0
9
0
0
14
0
0
2
0
6
0
2
0
0
10
0
2
0
13
0
4
15
0
0
1
0
0
0
1
0
0
12
0
1
1
8
0
0
0
12
0
17
0
2
27
0
15
0
0
11
0
22
0
6
24
0
10
4
12
15
0
27
0
9
0
0
17
14
8
0
12
8
0
9
0
0
10
3
19
0
15
33
0
3
2
15
0
11
0
0
1
0
8
2
0
53
5
16
0
9
0
0
0
0
8
0
10
0
0
0
11
0
0
0
10
18
0
0
9
0
0
54
33
8
0
59
0
0
0
0
18
19
0
0
8
10
0
15
9
0
18
0
0
5
10
0
6
26
0
0
0
3
2
0
0
25
10
0
0
0
25
7
7
0
0
18
12
0
0
0
4
14
0
0
0
0
0
27
7
0
0
0
17
19
22
0
0
0
31
0
1
0
9
28
0
13
0
0
47
10
13
5
0
0
0
0
0
28
4
0
0
28
0
0
3
0
25
0
0
5
41
0
0
0
9
7
2
0
0
0
10
0
0
21
0
0
0
18
0
0
36
0
0
0
0
0
0
13
0
0
0
0
18
4
2
13
0
0
15
0
11
0
12
4
0
0
0
10
0
5
0
9
0
0
13
19
5
6
0
0
0
0
0
6
2
0
10
2
0
0
3
3
0
0
1
8
6
5
0
0
0
8
9
10
0
0
1
3
5
0
0
13
8
0
4
4
0
30
68
0
0
0
9
0
30
0
13
0
10
1
10
8
0
2
3
3
0
0
2
3
0
9
1
0
6
6
0
3
0
2
0
0
15
0
0
30
0
20
15
0
9
9
10
0
0
20
0
0
5
1
0
8
0
10
16
0
0
6
0
5
0
0
0
0
0
75
51
2
0
10
39
4
4
7
13
16
0
0
0
8
22
28
10
10
11
26
46
35
0
0
0
0
0
1
0
30
0
0
24
64
15
0
23
0
33
5
4
4
0
8
0
0
0
11
0
10
6
23
26
0
0
0
0
19
7
0
26
5
0
3
0
0
9
13
0
0
19
0
13
0
11
3
0
0
0
15
0
11
0
17
12
0
21
6
0
2
0
2
5
6
0
0
4
0
13
0
4
0
0
7
0
7
0
0
13
6
0
0
3
8
0
0
6
1
155
98
2
21
0
0
18
0
0
1
6
0
1
0
0
10
21
0
0
0
0
5
0
0
0
0
0
0
0
14
0
2
0
9
0
15
0
21
0
0
0
14
0
0
0
11
5
0
0
0
3
0
0
11
2
2
0
5
1
7
0
0
8
7
4
0
0
10
0
0
16
6
0
0
0
0
3
8
4
1
1
0
6
4
7
0
6
12
0
0
0
0
0
5
0
7
0
0
0
0
1
14
0
0
2
0
0
0
20
0
5
8
6
0
2
0
34
0
1
0
0
2
0
1
7
5
0
0
0
64
13
19
7
0
0
0
0
15
0
0
11
9
0
0
17
0
14
0
5
18
3
0
8
6
0
0
0
6
11
0
0
5
20
19
0
0
22
33
0
0
0
0
25
9
0
0
6
8
1
12
0
0
0
37
9
11
6
2
23
16
10
6
0
0
14
15
11
6
0
20
22
21
0
0
0
29
9
0
0
0
5
0
0
21
27
38
10
0
0
10
27
0
12
0
11
15
0
0
22
5
0
0
21
30
0
8
0
17
28
10
0
0
0
5
0
21
23
0
0
15
2
2
0
11
0
0
1
16
0
0
4
14
8
0
0
0
12
0
8
0
0
13
8
0
1
2
8
0
0
19
8
0
1
1
0
0
0
0
0
3
20
6
3
4
0
0
14
0
6
0
8
0
3
10
0
12
4
0
0
0
4
0
0
0
2
0
0
5
0
2
1
6
0
6
1
6
60
36
0
0
0
19
0
0
9
23
0
0
6
0
11
6
0
1
0
3
0
10
0
4
0
0
6
0
0
0
19
0
0
0
0
17
0
0
0
0
2
4
0
0
15
0
16
0
5
20
0
0
20
0
10
3
0
7
0
0
0
0
0
0
0
0
80
50
0
2
29
31
0
20
19
0
0
0
0
14
12
6
5
3
0
0
10
9
36
53
30
0
0
9
0
4
0
4
0
0
0
0
0
0
2
0
0
0
4
0
0
0
0
3
0
9
0
0
2
0
0
17
0
0
6
0
0
8
0
0
0
25
0
27
0
0
0
8
0
0
0
0
0
0
0
18
23
0
21
0
7
4
12
0
14
0
0
0
0
9
0
0
0
0
12
0
13
2
5
0
9
0
10
7
0
7
0
0
2
13
0
5
4
12
0
10
165
86
0
0
14
2
17
0
0
25
0
29
0
0
5
0
6
0
21
2
7
0
17
10
0
0
12
0
0
0
0
9
10
0
5
12
0
5
6
2
0
0
10
0
16
0
18
0
0
0
1
2
13
4
5
0
11
1
0
0
0
1
0
7
0
20
6
0
0
0
3
0
3
0
6
0
12
0
12
0
13
0
1
19
0
28
0
0
0
10
10
0
3
0
14
0
0
14
8
20
0
0
0
4
0
0
2
2
8
0
0
14
0
5
8
28
0
0
12
0
12
0
10
0
0
26
0
0
48
49
0
18
17
0
3
0
11
0
17
0
17
0
23
1
0
22
0
0
4
14
0
11
7
0
14
0
36
18
0
0
8
33
4
0
16
24
10
0
0
6
19
13
5
0
0
14
20
0
19
0
0
10
19
3
0
0
0
13
0
0
0
0
0
6
0
11
0
10
20
14
4
0
0
20
29
21
4
0
0
0
0
0
11
59
0
12
7
0
8
0
31
12
0
14
0
16
0
0
0
6
11
0
0
4
0
16
3
21
24
0
0
0
13
13
0
0
38
7
0
0
19
0
0
0
1
0
0
3
15
4
0
6
12
0
0
12
4
0
13
0
0
0
0
14
0
5
2
9
0
0
25
4
0
0
0
8
6
18
0
0
6
17
5
6
0
0
0
2
0
8
0
7
0
0
7
4
3
4
0
14
0
9
2
0
0
2
9
0
4
0
0
3
4
0
2
8
47
51
0
0
2
0
3
1
8
0
8
1
0
0
1
0
3
1
4
0
1
21
0
2
8
0
5
5
0
3
15
0
0
11
15
0
0
23
0
27
0
6
31
0
0
3
0
17
0
0
7
11
0
20
0
0
13
1
0
54
0
0
0
0
17
78
42
0
15
20
7
0
23
0
0
0
0
22
14
0
0
0
0
0
0
0
0
0
12
24
98
0
0
0
0
0
17
0
25
0
11
7
22
0
0
30
0
17
23
24
0
22
4
0
29
0
0
23
0
14
0
0
43
0
14
0
2
1
26
0
14
0
0
5
0
13
0
40
5
0
0
2
0
0
3
0
0
0
14
6
0
17
7
0
9
0
6
0
0
4
1
0
5
0
2
5
0
4
0
13
0
0
3
0
6
3
1
11
0
0
5
0
0
3
2
0
167
73
0
0
0
0
0
12
8
0
9
4
4
2
14
5
12
0
22
12
0
5
0
6
0
0
0
6
17
0
0
17
0
0
6
0
0
5
0
5
3
1
0
3
0
12
0
11
3
3
5
0
2
0
14
0
10
0
0
4
3
0
9
0
0
12
0
0
0
0
0
8
0
3
0
3
6
7
0
3
0
0
12
0
5
0
0
0
13
0
0
3
0
0
6
0
0
4
0
5
0
13
10
19
3
2
2
0
9
0
2
0
20
0
0
0
0
7
0
9
8
0
0
0
0
0
0
0
94
20
32
0
0
0
0
4
0
1
17
8
0
0
0
13
9
0
2
23
0
0
14
25
0
0
3
0
14
0
18
10
0
0
0
15
10
0
0
0
12
29
0
8
0
0
30
0
0
0
18
10
11
0
0
0
0
29
30
0
12
0
0
0
22
0
7
0
28
13
0
3
0
0
13
27
0
10
0
16
0
0
3
22
0
15
3
5
0
9
0
0
7
20
8
0
19
0
35
0
0
0
0
8
0
0
15
37
18
0
0
0
21
4
0
32
24
0
0
28
7
0
0
20
10
0
1
5
0
6
8
7
0
0
12
13
0
3
0
0
0
12
1
8
0
0
19
1
0
5
8
0
0
0
0
0
16
10
0
12
2
0
0
4
0
2
9
0
0
0
5
0
9
0
0
0
0
3
3
0
12
0
8
0
1
11
0
5
0
0
0
1
0
4
18
0
1
7
7
64
0
0
0
18
0
9
0
1
0
0
20
0
13
7
10
13
0
0
0
0
1
11
0
6
0
0
5
6
0
0
16
0
0
20
0
0
0
1
0
12
0
13
12
0
1
0
16
0
13
0
3
0
0
0
0
8
0
0
0
0
0
66
71
9
8
8
19
0
12
20
0
0
0
9
10
0
0
0
5
9
0
7
3
1
11
0
0
7
77
0
0
0
5
26
0
9
0
19
0
0
0
5
0
0
0
0
0
0
19
0
0
26
1
80
0
0
0
0
6
0
0
7
0
0
0
3
0
11
0
0
0
0
0
48
0
0
26
3
23
0
34
0
5
0
0
0
0
14
8
10
0
8
4
14
0
0
0
4
0
0
0
17
5
0
9
0
11
9
8
0
0
7
0
2
6
0
9
0
0
2
1
5
0
8
141
110
19
3
0
4
0
11
9
2
3
0
2
0
0
1
0
5
0
0
1
3
0
27
0
0
21
0
0
14
5
0
4
7
6
0
5
0
0
0
9
0
15
0
1
12
0
0
4
0
6
3
0
0
7
0
6
1
10
1
3
0
0
16
5
0
2
0
0
21
0
8
9
21
0
3
0
14
0
0
8
17
0
12
0
7
8
0
5
0
11
11
0
7
0
7
0
13
0
11
0
6
0
7
0
0
10
0
0
0
0
11
0
11
0
9
2
8
0
0
0
14
0
0
0
3
0
0
77
14
7
0
24
0
0
13
0
9
16
0
0
17
0
0
0
24
4
0
0
16
1
12
0
0
23
0
0
0
16
2
0
0
28
30
0
0
24
21
6
0
0
0
25
4
4
0
0
0
59
0
20
20
0
29
19
12
0
5
0
2
34
11
0
2
1
0
23
0
0
0
0
17
33
0
0
0
0
0
0
7
47
22
0
0
0
6
5
7
19
0
1
37
0
0
0
12
0
20
1
0
0
0
11
40
12
8
0
0
0
19
8
14
0
0
21
1
0
0
15
17
0
0
13
1
6
0
9
0
0
4
0
0
5
29
0
0
0
0
0
11
0
4
0
1
0
21
16
0
0
0
0
0
3
6
0
10
5
0
1
14
0
0
7
7
0
17
4
0
1
0
0
0
0
13
0
0
15
0
7
0
0
11
0
0
12
0
0
5
0
4
0
0
6
13
0
4
10
35
37
0
0
0
0
0
0
13
22
0
0
16
0
0
0
0
0
0
7
3
7
0
6
4
0
0
5
0
5
0
10
13
8
0
4
1
12
0
5
0
27
0
0
0
2
2
0
0
1
12
0
26
0
0
3
3
0
0
0
0
70
57
3
12
25
11
0
28
0
0
0
22
21
0
7
0
7
14
5
11
4
2
17
9
4
9
0
6
58
71
0
8
0
0
11
0
33
0
0
0
3
6
0
17
21
0
0
8
0
20
0
13
0
8
0
1
26
27
0
3
0
0
0
10
0
27
8
0
0
8
0
31
0
0
14
0
0
0
0
2
0
0
0
0
11
0
7
5
0
2
16
0
0
0
0
15
0
0
0
0
0
0
0
24
0
20
0
15
0
0
4
0
0
0
0
13
0
0
10
0
0
1
5
2
170
101
14
0
0
10
8
0
0
6
0
4
1
5
8
0
0
0
0
0
0
0
3
0
17
0
0
0
1
3
8
0
0
0
1
7
0
4
5
2
2
0
0
0
3
0
0
2
4
3
0
11
8
16
0
0
0
0
4
0
26
0
12
0
2
0
14
0
20
0
22
0
11
0
38
0
0
9
0
22
0
3
0
0
0
21
0
0
4
0
0
0
0
6
1
0
0
4
0
10
0
2
1
0
18
1
0
23
0
7
0
0
0
0
0
0
27
0
1
2
27
0
2
0
2
0
0
62
36
9
0
19
0
0
0
0
9
0
0
25
0
1
10
0
26
6
0
6
36
0
0
0
25
9
0
0
15
6
0
0
17
0
6
0
0
37
9
0
0
15
0
6
1
0
0
0
11
6
0
16
0
0
5
34
10
0
0
0
30
2
0
0
0
0
32
9
0
0
0
40
42
11
0
0
19
0
0
0
49
0
23
0
0
0
0
13
0
26
25
0
16
22
0
0
0
0
12
2
7
4
2
2
8
22
0
0
4
18
5
0
19
6
3
0
0
25
9
0
0
0
18
8
0
11
0
0
0
0
1
6
18
0
0
0
9
13
0
1
15
0
2
15
1
10
5
0
0
0
8
0
12
0
1
1
0
2
0
11
0
11
0
0
0
9
6
0
7
0
0
0
14
0
3
3
4
0
0
0
0
11
0
1
0
0
4
11
10
0
8
0
7
0
0
5
0
9
6
25
70
0
0
0
18
0
17
0
0
18
15
0
0
19
0
0
4
5
0
0
0
11
1
0
0
1
0
19
6
0
0
0
0
14
0
9
0
0
0
0
0
0
1
7
0
0
2
5
0
0
0
0
0
16
0
0
0
0
1
78
34
5
11
25
11
19
32
0
0
0
28
12
0
4
9
10
7
2
9
0
9
1
0
3
7
1
8
3
32
87
0
0
8
10
0
16
0
0
35
0
0
0
33
0
5
18
12
0
6
0
0
23
0
0
17
0
0
0
0
9
0
20
0
12
0
0
0
0
34
0
42
0
17
6
1
0
0
39
0
25
0
0
0
4
0
23
0
28
1
21
0
7
8
0
0
0
8
0
0
9
0
7
0
26
0
0
0
0
4
0
8
0
9
8
0
0
5
0
5
0
4
0
15
0
150
79
0
3
20
0
0
10
4
0
16
1
14
0
4
0
7
0
1
11
17
0
12
0
0
4
6
13
0
1
13
0
9
0
0
0
12
0
0
0
0
5
8
0
12
0
9
0
0
1
0
2
0
0
8
0
0
0
9
4
0
2
0
11
0
0
0
19
0
0
0
0
4
0
0
0
11
2
9
0
0
9
0
11
7
0
3
4
8
0
8
4
10
12
0
1
2
15
16
0
12
1
0
29
0
0
0
0
23
0
0
12
0
11
8
0
0
0
21
0
0
14
0
5
0
0
0
92
26
0
0
7
20
4
0
3
0
0
20
0
13
13
0
0
0
8
2
11
0
0
16
4
7
0
0
37
0
0
0
30
17
0
0
0
17
3
0
0
23
10
0
0
0
5
9
0
31
0
20
0
39
26
31
0
0
0
0
15
6
3
0
0
37
0
0
0
0
23
49
2
2
0
3
10
0
0
12
37
25
29
0
12
0
8
0
26
15
0
0
0
0
0
31
7
1
0
0
0
0
5
45
43
0
0
0
5
0
34
13
0
11
1
8
0
0
0
20
16
4
0
0
8
3
5
8
0
2
0
2
0
3
12
0
0
0
9
16
0
0
14
2
0
8
11
0
0
0
12
0
9
2
3
0
5
0
0
7
0
8
3
0
0
0
0
3
14
4
0
3
0
0
1
3
0
5
1
0
4
10
0
5
2
0
1
0
0
0
0
0
0
0
13
0
0
16
0
1
11
33
36
0
0
0
35
0
18
5
0
1
0
16
0
3
0
0
14
0
0
0
6
0
13
5
0
7
0
0
5
0
4
4
0
21
0
10
4
7
0
3
9
0
0
0
11
0
12
0
0
52
0
0
0
0
0
0
38
72
30
5
24
21
5
33
3
0
0
21
26
0
0
11
8
3
0
7
0
0
6
0
2
0
1
0
13
6
5
16
85
11
0
0
18
0
0
30
2
0
0
10
0
0
0
9
5
0
10
1
20
0
0
15
0
14
3
1
0
0
0
18
0
0
23
0
3
0
16
4
0
3
23
0
0
0
46
0
0
0
0
0
42
20
0
31
0
0
3
12
0
0
9
0
4
11
0
0
0
0
0
6
0
7
0
4
4
1
10
0
4
0
0
0
0
4
3
0
13
0
5
7
0
0
1
166
84
0
0
2
0
21
6
0
13
0
8
2
10
6
0
20
0
6
0
0
0
13
0
10
0
0
9
0
0
11
0
6
0
4
0
0
4
0
0
15
0
11
14
0
1
0
13
0
0
11
0
10
4
0
6
18
0
14
0
7
14
1
7
0
16
1
0
0
15
1
8
0
19
1
4
0
0
14
0
5
0
21
0
0
0
0
0
0
2
0
0
0
12
0
2
10
0
0
0
0
27
0
0
0
20
0
17
0
7
0
0
0
8
0
17
0
15
0
2
0
19
6
0
0
0
0
63
0
11
0
14
50
0
5
0
2
25
0
27
0
0
20
5
15
0
26
1
0
1
12
0
0
6
0
0
8
5
19
0
0
3
6
13
28
0
0
0
39
0
0
0
0
24
12
10
0
0
0
30
24
9
6
0
0
45
2
23
0
13
0
16
0
0
0
0
0
29
0
0
0
12
7
0
0
23
7
23
0
7
3
0
22
0
15
4
27
0
0
0
0
0
0
25
0
2
0
9
1
37
0
0
0
8
14
0
6
0
0
17
0
0
20
0
5
5
0
4
21
0
0
0
22
0
8
0
0
31
0
0
0
2
9
11
0
0
30
6
0
0
22
0
0
0
0
3
5
4
4
6
16
0
2
0
3
2
0
0
11
12
0
1
6
0
0
0
16
11
3
2
0
0
5
0
0
0
7
0
2
0
0
3
0
0
0
0
0
0
0
0
0
4
8
0
3
1
2
2
31
44
0
0
0
0
0
13
0
20
0
0
1
27
20
0
2
0
1
20
0
14
0
0
15
6
0
8
0
0
7
8
0
4
2
0
0
0
0
10
4
23
16
0
28
0
14
0
21
0
0
0
0
0
0
0
63
43
25
4
21
12
21
36
0
0
0
42
19
0
6
19
0
10
0
3
7
3
5
0
0
0
0
2
0
0
5
8
4
52
61
0
0
0
6
0
0
2
15
0
5
4
0
0
0
0
26
0
0
0
28
0
4
0
0
0
5
15
0
36
0
8
0
0
8
1
0
1
0
37
0
14
35
0
31
0
13
0
7
0
15
0
0
0
1
23
3
8
8
0
13
0
0
17
0
2
12
0
5
0
0
11
0
0
4
0
2
0
7
0
0
22
0
3
0
0
6
0
4
12
0
0
14
0
155
93
8
0
0
8
0
0
0
0
0
0
0
0
10
0
0
8
0
17
0
6
0
9
0
6
0
0
7
17
0
0
0
11
3
0
0
5
13
0
0
16
0
9
5
4
11
1
1
0
10
4
0
5
0
7
0
7
0
0
8
4
18
0
0
3
0
16
0
0
10
0
0
12
0
0
16
2
0
2
6
0
0
0
23
0
0
23
2
0
0
19
0
0
5
0
1
0
0
20
1
0
19
0
0
6
0
14
1
0
0
0
1
0
9
3
8
0
0
15
0
0
1
0
0
0
0
39
18
0
0
34
0
0
0
0
21
0
9
2
0
20
0
0
8
3
0
0
3
0
0
25
0
0
0
0
18
14
0
0
10
20
22
0
0
0
29
7
0
7
3
0
44
0
5
0
0
4
26
19
0
0
0
14
15
0
35
0
6
25
0
20
5
0
8
22
23
7
0
0
11
7
0
0
32
19
18
0
2
0
28
6
2
0
8
2
0
7
0
0
3
20
0
0
14
0
24
36
17
0
0
8
0
9
20
18
6
0
4
27
0
0
1
12
0
4
0
0
16
0
8
0
19
14
8
0
0
0
25
0
0
0
2
13
0
0
0
31
11
0
0
0
0
9
4
20
9
0
3
0
11
9
0
5
0
9
0
0
8
0
0
0
2
1
1
0
0
4
9
0
1
0
0
16
0
11
2
0
0
13
0
0
13
0
0
0
0
15
7
0
0
0
4
0
2
10
5
0
12
36
65
0
0
0
0
15
0
3
0
14
15
0
0
1
17
0
0
0
12
0
0
11
1
0
2
0
0
0
6
0
23
0
8
0
11
11
0
25
1
0
0
0
0
0
9
0
0
0
0
0
0
0
0
104
41
18
12
12
16
22
21
0
0
7
43
16
0
7
0
4
6
0
2
0
0
2
0
0
4
9
0
0
0
0
13
0
6
37
82
0
0
6
0
17
7
2
0
0
19
0
0
0
8
0
0
11
4
65
0
0
0
0
28
16
0
0
0
0
19
26
31
0
5
0
44
0
0
0
0
0
0
0
1
0
23
0
0
10
0
17
6
0
25
0
0
15
0
13
9
0
10
0
0
0
8
0
8
0
10
0
10
0
13
7
0
4
0
7
0
0
1
0
6
6
0
0
12
0
1
3
4
0
160
90
0
20
0
8
0
0
31
14
0
3
15
2
0
31
5
0
15
0
0
6
7
4
0
0
0
7
6
0
16
8
1
16
0
10
0
7
0
0
0
0
7
0
0
0
0
7
4
0
0
0
11
1
2
0
9
0
4
0
16
0
0
2
0
4
16
0
3
16
0
16
0
0
0
0
6
0
3
19
4
0
0
12
0
4
0
0
0
6
3
8
0
14
8
2
0
0
1
0
0
13
0
0
14
4
4
9
4
0
3
11
0
13
5
5
0
7
10
0
43
0
9
0
0
0
75
26
11
0
47
0
0
0
0
0
5
7
0
0
21
8
2
0
27
0
0
19
0
0
9
19
13
0
12
0
9
0
6
0
37
3
0
0
0
26
13
0
0
20
0
18
18
0
0
0
16
26
20
0
0
0
10
17
16
0
0
17
7
0
14
0
0
26
8
12
0
0
7
41
0
0
21
23
23
23
0
4
0
15
0
32
0
14
0
0
9
0
11
16
0
0
11
0
0
36
55
0
0
0
8
27
6
0
0
6
7
0
0
0
18
5
0
0
7
4
8
0
0
15
5
13
0
7
8
10
0
0
16
24
0
0
8
0
1
10
0
0
12
0
0
0
0
23
2
0
9
5
0
7
0
10
0
0
4
6
0
9
0
0
0
0
4
2
0
5
0
0
12
5
0
0
0
13
0
0
9
0
0
0
0
1
0
1
0
0
11
0
5
8
0
0
0
8
0
8
0
2
5
19
44
23
0
0
6
0
9
6
0
0
0
12
0
15
19
16
0
2
1
0
7
3
0
6
8
0
1
1
0
6
0
21
0
13
0
7
18
0
24
0
0
0
16
0
0
0
21
0
0
0
0
6
86
32
10
17
11
9
31
12
0
0
30
26
3
0
18
5
9
0
1
7
2
0
0
0
0
0
5
1
4
11
0
0
4
7
11
16
85
0
0
0
17
0
0
2
0
2
0
7
42
0
17
44
0
0
1
0
0
0
27
0
0
0
13
0
34
7
7
0
0
0
0
3
0
15
0
0
19
0
0
8
7
0
0
0
0
12
0
0
24
4
19
1
12
3
0
0
0
0
9
0
0
0
0
20
0
8
0
0
0
13
0
0
0
0
0
0
0
5
0
0
0
8
0
21
0
3
4
3
0
17
147
83
0
25
0
14
8
20
0
0
0
1
7
0
0
0
0
3
0
0
8
0
11
0
12
0
6
22
0
0
0
0
0
0
0
0
3
0
0
2
0
0
11
0
10
0
0
0
7
0
7
5
6
0
1
0
0
0
1
14
0
9
0
10
15
0
0
31
0
0
5
0
9
0
11
17
0
0
3
8
0
2
1
0
0
5
1
1
0
0
0
0
22
0
0
13
1
0
0
13
0
3
0
3
0
0
5
0
0
7
20
0
0
4
0
0
5
3
0
11
23
0
0
2
0
0
87
1
2
31
0
15
19
0
0
0
5
0
0
0
0
0
3
0
0
5
9
0
0
15
7
19
0
18
0
0
0
38
9
4
8
0
0
22
1
0
31
0
10
10
2
3
0
0
4
10
25
16
0
0
23
19
0
13
5
0
17
9
1
0
0
0
38
0
4
0
0
9
13
0
0
8
28
27
0
24
16
0
13
1
12
6
12
0
11
0
0
29
0
0
8
0
0
61
16
0
2
0
0
24
0
6
33
1
0
1
19
18
0
0
0
37
0
0
3
7
18
2
0
0
32
17
0
0
0
34
2
0
0
20
21
0
0
0
31
30
0
0
2
6
15
11
0
0
17
0
0
9
4
0
0
0
15
0
2
3
6
0
0
8
0
7
7
1
5
4
0
0
6
0
0
1
0
0
11
0
0
18
0
0
12
2
0
9
1
7
0
10
0
0
6
10
0
12
0
5
14
5
0
18
14
54
0
0
0
0
4
5
3
9
0
0
25
0
1
0
3
19
0
13
0
4
6
0
8
0
0
20
2
0
29
6
0
12
10
6
0
12
0
21
0
0
0
0
6
0
0
0
0
0
59
65
8
7
22
20
14
29
0
0
0
27
13
0
9
13
0
0
0
0
0
0
0
0
7
6
1
15
0
15
0
0
7
0
0
6
9
9
71
0
0
7
0
12
0
18
0
0
27
0
0
2
0
0
0
28
0
26
5
0
18
0
18
0
6
0
5
0
0
3
4
0
0
26
0
0
0
10
0
3
7
10
5
12
0
34
0
0
0
0
0
27
0
31
0
10
2
4
0
7
0
0
0
8
0
13
0
6
0
9
6
8
0
5
7
0
18
0
2
9
0
5
5
0
19
0
4
2
2
1
3
0
157
111
19
0
0
0
19
0
0
9
0
10
0
12
0
11
17
0
0
0
3
0
0
0
17
0
0
0
0
10
0
10
1
14
1
6
0
2
10
3
0
8
0
10
0
12
0
10
0
8
10
0
0
7
0
0
7
15
0
0
22
0
6
0
0
0
0
17
5
0
15
19
0
7
0
10
0
19
0
9
7
0
17
15
0
0
39
0
6
8
0
0
0
22
0
1
1
0
8
1
0
0
0
11
0
8
0
6
3
0
0
0
12
0
0
12
0
0
25
0
0
0
14
0
0
33
64
0
9
0
14
0
0
11
0
6
0
0
26
0
2
19
0
6
0
8
0
0
22
2
0
0
51
14
0
0
6
26
10
0
0
9
36
6
6
0
7
0
28
0
0
0
3
21
50
0
0
0
7
0
4
0
2
0
22
21
0
5
0
0
16
12
9
0
0
1
19
18
0
0
13
30
20
0
27
0
30
6
0
0
23
19
0
31
0
14
0
13
0
9
0
14
34
33
0
0
0
0
7
11
24
0
0
22
1
0
0
0
2
0
0
0
34
12
0
0
5
2
8
0
0
0
2
20
0
0
18
4
0
0
8
41
0
9
1
0
0
4
4
5
8
10
0
0
0
17
0
0
0
12
2
0
4
8
1
0
12
0
0
0
0
0
0
1
1
0
2
0
0
0
20
6
0
2
0
3
0
6
4
0
5
1
8
0
2
16
0
0
8
4
0
0
0
0
8
0
2
7
0
17
10
36
54
0
0
0
27
0
1
6
3
0
0
17
1
11
0
0
0
6
0
2
0
16
0
0
6
10
0
0
3
0
5
0
14
0
4
5
17
0
0
17
0
10
0
0
0
0
0
80
49
15
11
26
0
19
25
0
0
8
35
0
13
12
1
0
6
0
1
3
0
0
0
0
0
0
11
1
0
0
0
7
0
10
0
6
14
6
44
56
0
0
0
9
0
6
0
12
0
8
1
1
8
14
0
19
0
0
0
2
0
0
0
14
8
0
1
17
4
0
5
13
0
20
16
0
21
10
8
0
24
0
0
20
0
0
0
3
0
20
15
0
14
9
23
0
10
7
0
12
0
0
7
0
0
0
10
0
0
11
0
0
3
0
0
1
0
0
10
0
10
0
7
0
0
4
0
0
7
0
6
6
159
78
0
7
0
26
0
4
10
23
0
0
0
0
8
0
0
16
0
21
3
9
0
1
0
2
16
3
0
2
0
16
0
13
0
0
7
5
0
18
4
14
0
0
0
8
0
0
0
0
0
6
2
11
0
9
0
7
0
0
8
13
2
14
0
0
9
0
8
10
0
0
4
8
0
12
0
6
0
6
0
11
0
0
14
0
0
0
3
0
19
7
0
16
0
10
0
0
0
0
11
15
1
0
0
0
0
0
15
0
16
14
0
15
17
0
11
6
0
0
41
2
0
0
0
8
45
14
0
0
53
0
15
5
0
2
0
24
0
34
7
0
5
0
4
0
18
10
19
0
27
27
0
0
0
0
49
0
0
0
17
18
7
0
0
0
7
21
12
0
0
16
0
21
0
0
0
1
3
15
0
12
10
4
6
0
0
0
0
35
27
8
0
0
0
35
0
0
0
38
2
9
14
0
0
15
0
37
0
6
0
0
5
0
29
0
0
0
0
6
33
46
6
0
0
33
0
44
0
0
2
8
0
8
10
16
0
0
0
10
9
0
4
17
3
0
17
16
7
15
0
0
15
0
18
0
0
25
16
0
0
8
27
0
0
0
22
9
14
1
0
8
10
0
0
0
9
5
0
0
7
0
0
0
0
6
0
8
3
0
9
0
1
0
6
0
0
13
0
0
8
0
10
0
0
1
15
0
0
16
0
16
5
10
5
0
3
0
0
0
0
2
3
0
0
0
1
3
0
0
27
11
60
0
0
0
0
11
0
1
11
16
0
0
0
3
0
0
0
0
13
2
0
5
0
1
0
0
0
10
0
6
3
5
0
0
21
0
78
0
0
0
0
0
1
0
0
0
57
47
7
26
23
10
36
6
0
0
14
24
1
14
14
9
0
4
0
3
1
0
0
4
4
0
18
3
0
7
0
0
1
2
0
8
0
4
9
11
50
42
0
7
12
0
0
0
8
0
0
0
0
0
13
13
0
0
25
18
30
0
1
0
3
0
2
0
16
0
17
0
0
11
6
0
0
17
0
30
0
3
0
13
16
0
0
8
0
0
17
0
20
0
1
6
0
0
0
6
0
0
0
5
0
15
0
3
0
8
0
0
2
0
9
2
12
0
3
12
0
0
6
6
1
0
0
13
0
0
6
0
0
1
154
102
10
0
11
0
20
0
0
0
0
3
2
0
14
0
1
0
5
1
0
5
12
0
0
0
0
2
2
12
11
0
0
0
0
0
0
4
9
0
13
0
0
6
0
0
5
0
5
0
7
12
0
0
0
0
17
0
3
0
3
0
1
11
1
12
0
0
0
0
0
8
6
14
0
10
0
6
0
0
8
1
10
8
0
2
11
0
0
19
0
0
9
0
5
0
12
14
1
0
0
0
0
0
8
0
11
0
0
14
0
0
9
0
0
0
7
0
0
7
0
6
0
0
0
63
23
10
0
41
0
44
0
0
0
0
15
0
3
0
0
0
0
12
0
20
0
0
4
10
25
0
0
0
3
7
0
0
6
3
24
0
0
15
17
7
0
0
0
10
15
30
0
0
0
0
16
11
0
18
11
20
24
2
0
0
0
19
27
0
3
0
0
25
0
0
0
0
8
19
32
0
0
29
0
0
9
1
30
0
11
0
0
21
0
10
6
0
29
8
21
0
0
0
15
4
27
0
24
0
0
0
13
0
0
8
6
0
0
9
22
0
0
45
17
0
0
15
8
10
0
0
0
0
0
14
0
0
25
36
0
0
0
0
7
0
22
9
7
0
2
0
2
13
0
0
8
13
0
0
8
4
0
0
0
0
15
0
7
10
0
4
0
8
6
2
4
4
4
0
0
0
0
13
0
7
9
6
6
0
10
0
0
0
0
0
0
8
8
0
10
0
11
2
0
3
0
0
1
0
0
8
38
26
0
0
15
4
0
0
0
0
12
0
8
3
8
0
3
2
0
5
0
0
0
1
5
26
0
0
0
32
0
8
0
31
0
1
0
0
3
4
0
0
0
0
15
74
28
22
29
15
1
14
0
0
0
0
31
0
10
8
0
3
0
5
4
0
0
2
2
5
15
0
4
1
0
0
0
4
0
7
0
1
0
3
7
16
56
31
0
0
0
0
0
0
16
4
3
5
0
0
0
0
0
13
11
0
0
8
0
0
16
0
0
28
0
15
0
17
0
14
0
17
0
2
0
0
7
8
5
12
0
10
0
0
0
0
10
14
3
16
22
0
4
15
0
4
4
0
4
0
0
0
0
15
0
1
0
0
0
0
4
0
0
14
0
1
2
0
0
4
0
8
3
0
12
5
0
0
5
0
168
92
0
11
0
20
0
15
5
2
0
2
0
12
0
13
0
0
9
0
0
43
0
21
19
7
0
8
0
0
13
0
7
0
0
13
0
0
0
11
0
5
23
0
3
1
0
3
0
1
7
0
0
11
0
11
1
0
23
9
0
0
0
0
0
0
0
13
0
5
7
18
0
1
10
8
1
8
15
0
4
0
3
0
0
5
0
0
0
0
5
0
18
0
2
0
0
10
0
21
0
21
8
0
8
20
0
1
0
0
13
9
0
9
0
0
22
0
0
0
0
14
0
0
0
87
17
0
26
0
12
57
24
0
7
0
0
23
3
0
0
24
1
5
17
12
0
9
0
47
0
0
6
28
0
21
0
15
9
0
0
0
2
17
2
0
0
0
9
19
5
0
0
0
16
18
8
0
0
0
9
7
0
0
0
0
30
3
14
3
0
0
30
0
0
0
0
19
28
3
0
1
0
10
23
0
16
0
0
15
0
16
0
0
0
0
0
27
22
20
0
0
7
6
26
3
0
12
0
14
0
2
16
6
0
0
23
15
0
0
28
13
0
0
25
11
0
0
30
18
0
0
22
31
0
0
6
18
12
16
0
0
0
22
9
0
0
12
3
2
0
7
0
0
14
0
0
1
13
3
1
5
5
12
0
0
2
13
0
1
0
0
0
0
0
3
2
0
6
10
4
20
0
22
19
4
0
6
0
0
0
3
1
0
2
1
14
1
5
1
2
0
0
0
1
0
0
0
4
0
0
0
20
37
0
0
0
0
12
4
0
7
0
10
0
0
3
9
0
8
0
5
0
0
14
2
0
9
0
24
1
0
2
1
1
8
0
0
0
5
0
0
0
0
0
34
70
19
29
15
0
22
15
0
0
0
12
28
0
22
7
1
0
2
3
1
0
8
0
0
4
8
0
0
20
0
0
0
9
6
2
0
0
0
3
0
5
5
55
46
0
11
0
7
0
0
0
0
8
9
0
39
0
13
19
0
0
22
0
0
0
3
0
12
0
0
0
0
0
10
0
0
6
0
0
0
41
0
16
0
14
0
0
0
13
0
4
5
7
13
13
0
4
6
0
5
0
5
0
4
0
5
15
0
8
0
6
0
4
6
9
7
0
1
6
2
0
0
13
0
0
12
5
3
0
0
0
0
0
0
4
3
154
88
0
2
3
23
0
1
9
0
0
35
0
15
1
0
4
0
11
0
7
0
18
0
0
3
0
0
17
4
6
0
5
7
0
0
13
0
18
0
7
0
0
5
0
8
3
0
6
0
10
0
7
3
11
0
5
0
0
15
0
11
0
16
2
16
13
0
1
9
0
8
12
5
0
0
6
0
0
0
0
0
5
0
5
6
0
13
9
7
7
0
0
0
6
0
6
0
6
12
2
0
7
0
5
2
0
13
7
0
0
0
0
1
2
5
0
3
38
0
1
0
0
0
0
75
7
13
0
0
28
0
22
0
0
0
0
0
6
26
5
13
0
20
0
10
7
27
10
0
0
9
33
0
0
0
0
0
10
0
0
23
2
6
4
0
4
32
0
0
0
0
4
24
12
15
0
0
0
18
0
0
0
0
31
5
0
4
26
0
41
3
0
12
0
0
9
42
23
6
0
0
15
0
16
26
0
7
0
0
33
0
0
0
0
4
36
28
2
0
4
22
0
15
0
3
0
14
4
0
12
0
0
0
20
0
14
16
0
0
4
23
0
0
0
23
26
0
0
8
18
2
0
17
24
9
0
0
0
0
12
24
7
6
14
8
0
0
1
12
3
0
0
12
1
15
0
0
0
17
10
0
6
12
3
0
0
0
16
1
2
0
13
0
0
0
7
0
11
16
0
9
27
0
0
0
6
0
0
14
0
8
1
16
2
0
0
0
0
0
8
5
0
3
1
0
2
6
0
9
10
1
19
14
45
14
0
0
0
1
4
7
5
0
0
0
0
10
2
0
8
0
2
3
0
6
17
0
14
0
0
0
26
0
0
0
25
28
34
0
0
0
0
19
53
37
24
26
13
4
16
0
0
0
0
26
18
4
6
7
0
2
0
3
1
0
0
7
0
12
2
0
0
0
0
0
2
0
0
3
0
8
0
0
6
0
21
17
48
40
0
0
0
7
0
19
30
7
0
0
4
0
0
28
0
6
0
2
0
19
0
0
0
27
10
7
0
24
0
24
0
0
0
38
0
16
0
16
0
0
0
0
4
2
0
0
0
0
6
13
4
23
0
3
7
0
7
0
2
0
4
3
0
0
7
0
0
2
0
10
0
0
0
3
5
0
0
7
0
0
0
2
2
0
10
0
5
2
0
5
0
4
156
98
2
6
0
0
0
5
0
17
0
4
0
11
2
1
0
0
15
0
6
6
0
15
5
0
6
3
0
0
0
15
6
0
8
5
0
0
5
0
0
18
1
6
0
10
0
12
0
12
0
8
0
0
0
0
11
0
1
2
0
6
4
0
7
0
5
0
15
0
0
0
0
11
7
0
12
0
9
13
0
31
0
25
0
0
0
0
3
0
29
1
5
0
0
21
1
9
0
0
0
0
10
12
0
4
21
0
7
0
0
0
26
0
6
7
0
0
0
0
17
4
0
0
0
64
0
46
0
50
0
0
0
0
16
0
6
15
3
2
0
0
38
0
11
0
0
6
0
0
22
10
0
0
26
15
0
0
18
5
16
0
0
0
0
16
37
0
0
5
0
21
17
0
6
0
0
20
24
0
0
0
0
60
5
1
6
0
0
7
0
0
0
0
0
16
0
5
9
11
12
0
0
25
0
13
0
0
11
2
0
17
1
0
27
10
47
0
0
0
0
41
2
0
11
0
23
0
0
6
0
0
0
1
17
22
0
28
6
0
0
0
18
9
6
0
6
38
0
0
15
16
4
0
20
34
0
0
0
0
0
24
8
0
0
3
9
0
4
0
5
0
0
11
6
3
6
0
0
0
0
14
0
5
1
17
0
0
0
17
2
0
10
0
0
1
0
0
0
31
31
17
0
0
0
4
0
17
0
2
18
0
0
0
3
3
0
11
0
21
0
1
0
5
9
0
0
10
0
0
7
0
0
9
30
36
6
0
0
0
0
6
3
0
0
18
0
0
0
0
10
0
0
1
5
0
0
0
0
11
4
0
9
5
7
1
0
0
0
0
0
0
51
34
35
32
24
8
9
18
0
0
0
3
33
0
1
12
7
0
0
6
0
15
0
9
0
0
0
1
0
0
7
7
0
0
0
7
0
0
2
0
7
0
6
0
0
12
53
39
0
0
0
0
6
0
0
0
0
6
10
0
39
13
0
18
9
0
18
0
16
6
0
0
0
13
0
0
30
0
0
30
1
0
3
0
0
27
0
12
2
0
0
41
0
0
3
14
13
12
0
0
16
0
0
3
0
4
0
13
0
13
1
0
0
10
0
1
0
5
0
5
4
0
3
6
0
0
0
13
0
8
0
11
0
3
7
1
3
0
21
0
152
96
1
0
26
0
13
0
6
0
9
0
2
2
0
0
15
0
10
7
0
4
0
0
0
0
0
20
0
8
0
21
0
6
0
0
11
0
1
7
3
0
7
4
0
0
0
0
0
2
0
0
12
0
2
4
9
11
9
0
10
0
0
2
11
0
0
31
0
9
3
17
8
0
1
1
0
17
0
9
0
0
0
2
8
4
12
7
0
24
0
0
0
35
0
0
0
6
1
2
11
6
0
7
2
0
0
0
6
1
11
4
0
0
1
0
1
1
5
1
6
0
0
0
33
38
18
0
39
0
16
0
0
31
0
6
0
4
15
0
0
28
1
0
0
20
17
0
0
16
15
1
14
16
0
4
0
12
12
32
6
0
0
14
20
12
0
1
0
8
30
0
3
7
0
6
11
0
0
6
0
22
57
2
0
0
17
9
34
7
0
0
0
4
26
19
0
0
0
19
17
10
0
10
0
0
27
16
1
0
6
0
18
50
28
0
0
0
0
21
0
0
34
0
0
0
0
18
0
14
10
0
1
0
26
6
0
0
24
24
0
4
8
0
10
0
0
12
40
0
0
0
45
4
0
0
0
4
42
15
0
1
14
1
0
0
17
24
0
0
5
20
0
0
0
7
0
2
6
0
0
8
7
0
0
0
14
4
0
0
9
0
6
3
0
8
0
15
0
19
4
0
0
18
17
12
0
1
0
0
11
0
4
0
2
4
2
5
0
8
8
0
5
0
0
15
0
0
0
13
3
4
6
0
11
20
27
47
0
0
0
0
19
0
16
0
0
22
0
1
11
0
4
0
2
0
10
0
0
11
13
0
0
21
0
0
0
0
0
0
45
61
29
20
39
17
10
0
0
0
0
0
10
22
0
7
5
18
0
3
6
0
5
0
0
7
0
9
0
0
8
2
10
0
7
0
0
0
2
0
0
2
1
0
0
1
1
10
66
19
0
0
0
1
0
0
27
14
9
0
7
0
0
3
19
0
12
1
7
0
2
0
3
0
0
0
1
3
0
0
14
0
21
0
8
0
0
6
2
0
0
0
0
0
9
0
7
25
15
0
12
0
0
10
0
5
5
0
4
0
6
0
0
0
8
0
0
3
0
0
21
0
0
2
0
0
0
9
13
0
25
0
0
0
2
0
0
0
0
0
0
14
145
88
0
18
0
8
3
6
0
7
0
10
34
0
0
2
0
8
0
8
0
2
4
12
0
0
9
0
0
9
9
0
22
0
8
4
3
0
0
17
0
3
0
0
0
11
8
12
0
0
0
4
4
0
9
0
0
19
1
2
18
0
0
8
4
0
2
0
0
0
6
0
10
0
12
0
6
6
0
0
9
0
0
6
0
0
0
16
0
0
9
0
2
5
0
33
0
1
3
0
0
0
0
0
6
13
0
0
0
14
0
0
7
0
0
0
13
0
6
0
0
0
0
0
97
34
0
0
54
0
6
0
41
0
34
0
11
0
0
4
5
5
0
14
11
0
0
16
8
7
0
23
0
0
0
0
17
0
0
0
0
0
8
7
9
0
0
0
16
0
0
17
0
0
1
21
8
6
0
0
17
0
0
1
0
14
4
19
4
0
0
11
0
47
4
17
17
0
0
0
30
26
18
0
0
0
0
10
0
0
0
27
51
19
0
0
3
0
14
3
18
0
0
36
9
0
13
0
0
3
3
18
0
33
0
19
0
0
0
22
20
0
0
0
25
16
0
0
3
27
1
0
8
45
0
0
0
2
16
27
0
0
3
4
7
0
0
0
14
6
0
0
7
4
0
6
1
15
4
6
7
0
0
8
0
1
8
3
1
0
0
13
0
10
3
2
3
25
2
0
0
0
25
4
3
6
0
8
0
0
0
10
2
0
0
0
6
0
3
0
1
0
2
5
4
0
3
0
1
0
0
10
0
1
0
7
15
35
30
0
0
0
3
1
1
0
3
0
9
2
0
10
0
15
0
0
0
1
17
0
7
6
3
0
4
0
0
0
0
46
33
27
46
11
2
16
0
0
14
0
0
20
18
0
8
7
0
0
5
0
0
0
4
14
2
0
1
0
0
6
0
4
0
0
1
0
3
7
1
0
0
2
0
3
9
0
2
13
73
5
0
29
0
7
15
9
0
2
0
0
0
0
23
0
11
0
0
13
0
10
8
0
1
8
0
0
0
0
26
0
1
36
0
3
0
41
0
0
0
11
0
0
0
13
0
0
25
1
0
13
2
0
7
0
5
0
0
0
13
0
7
0
5
6
0
3
5
0
8
9
0
0
8
5
0
8
1
0
4
6
0
0
6
8
3
11
0
5
0
7
0
0
178
104
3
11
0
3
1
0
17
2
5
0
0
0
0
0
13
0
2
0
0
25
0
0
0
0
0
0
0
13
4
1
0
0
0
13
0
19
6
0
12
0
12
0
12
0
0
4
13
5
13
0
0
15
2
0
7
0
0
0
0
0
7
3
0
0
10
1
0
6
4
4
0
8
0
0
17
3
0
0
18
0
19
4
0
1
5
0
16
9
20
0
1
4
0
13
0
13
4
0
10
0
19
0
10
8
0
24
14
0
0
8
0
11
22
0
7
8
0
8
6
0
0
0
64
26
0
31
44
0
13
18
0
14
5
11
0
0
6
11
0
0
9
0
0
0
22
15
0
1
0
15
10
0
0
38
32
15
0
0
14
39
22
8
0
0
0
34
0
6
0
0
0
13
28
0
0
31
0
18
0
7
0
3
0
29
0
0
0
0
0
0
36
2
36
0
9
0
0
0
0
38
5
1
0
14
0
0
0
27
32
19
2
0
0
0
31
0
0
4
2
0
0
0
26
17
0
2
0
17
5
10
2
0
0
0
4
1
1
0
24
15
0
0
0
3
13
4
0
10
44
5
0
0
10
0
26
0
1
1
19
16
0
7
0
8
0
0
2
8
0
0
0
5
8
5
2
0
8
0
18
0
8
0
0
7
0
17
5
0
0
9
3
0
15
18
18
0
0
0
20
41
3
10
15
0
7
3
0
8
0
0
5
0
0
0
0
4
2
0
0
1
2
1
3
0
3
0
9
0
0
8
6
11
0
0
7
12
30
35
0
0
0
0
9
0
4
0
0
2
5
0
10
0
6
14
0
14
0
0
10
0
0
15
0
0
0
38
52
33
28
30
9
5
0
0
23
19
0
0
26
3
0
13
13
0
0
0
2
0
3
6
0
0
2
0
0
3
3
0
2
0
2
1
0
6
0
4
1
9
0
2
0
0
0
9
0
12
79
0
0
1
0
0
17
0
8
0
10
6
1
9
0
61
0
0
0
0
0
0
0
0
18
0
33
0
6
19
14
9
12
1
0
12
15
0
2
20
0
0
0
0
0
0
0
29
8
7
0
5
0
0
4
0
3
0
0
0
0
5
8
0
0
0
0
5
0
10
0
0
0
5
0
0
9
2
0
8
0
0
0
8
1
3
0
1
0
0
15
0
2
0
155
100
3
0
4
3
1
14
0
4
0
0
0
11
9
0
0
0
0
0
3
0
14
12
0
6
0
1
0
0
6
7
0
25
0
1
2
6
0
0
3
11
0
1
3
11
6
0
0
5
0
8
0
0
0
2
1
0
1
10
5
1
0
1
0
0
0
3
0
0
0
2
0
24
0
0
0
6
0
11
0
9
0
5
0
8
5
0
8
0
0
12
16
0
13
0
21
0
5
0
0
1
0
9
0
0
28
0
0
0
16
0
22
0
0
29
0
7
6
0
9
1
0
0
65
0
1
31
0
0
29
0
10
0
0
6
0
0
23
0
6
18
12
0
0
25
0
0
0
13
1
4
0
0
28
11
0
0
0
13
49
0
2
0
0
34
13
2
12
0
0
7
6
10
0
0
2
19
16
7
0
0
9
9
38
18
0
0
0
3
0
9
19
0
0
21
0
26
30
0
0
0
21
2
19
0
0
0
0
54
51
0
0
0
1
42
0
36
0
0
0
0
0
0
0
13
16
0
2
0
20
8
18
0
0
4
0
1
19
0
0
36
11
3
0
0
8
0
18
0
19
0
0
2
1
15
0
8
0
0
0
9
8
1
0
5
20
0
0
8
16
0
1
0
8
5
0
10
3
0
0
15
5
1
7
0
0
0
0
18
0
0
7
3
14
42
8
0
0
0
0
22
2
0
6
0
9
0
0
1
1
8
2
0
0
3
0
7
0
6
6
0
0
2
0
0
7
0
10
3
0
0
4
0
9
0
12
0
21
16
31
0
0
0
0
3
0
6
4
0
0
5
6
2
0
9
9
0
6
0
6
5
0
0
0
0
60
29
19
35
13
0
7
0
0
16
24
0
0
14
9
0
12
2
0
5
0
2
0
7
0
0
0
12
0
0
3
0
0
0
0
10
7
0
2
0
0
0
0
0
9
0
0
0
1
2
0
16
106
0
0
8
0
0
0
10
0
2
0
0
0
0
0
20
0
0
53
0
1
12
0
8
14
3
0
27
0
0
0
2
0
11
0
0
12
5
0
0
1
0
0
0
0
13
22
0
1
22
5
8
0
0
6
1
0
0
21
0
3
0
0
4
2
4
0
5
9
3
0
6
0
27
0
0
14
2
0
9
0
9
0
2
0
0
0
8
11
15
0
16
0
19
152
94
0
0
2
0
4
0
29
0
9
11
0
0
0
0
26
0
0
35
0
0
0
0
19
0
4
0
0
17
0
0
0
0
19
0
1
0
0
6
0
1
6
0
0
0
0
0
0
0
17
0
21
0
2
0
9
0
12
12
0
11
0
0
0
3
16
0
0
18
0
18
0
5
0
0
0
13
0
4
0
10
0
3
0
5
0
0
1
0
8
0
0
10
9
19
0
22
0
7
2
5
0
0
0
10
18
0
9
0
2
5
0
8
0
3
1
2
10
14
0
8
0
24
73
0
26
11
12
48
0
0
5
0
29
0
0
25
0
0
5
0
0
1
32
0
6
9
11
0
0
0
0
43
0
0
0
0
46
0
0
17
0
0
18
6
10
15
0
8
14
0
0
12
0
0
33
0
0
0
0
13
0
8
7
0
0
0
0
1
44
16
0
9
0
12
14
0
12
0
0
0
0
12
15
0
0
26
50
0
0
0
0
29
0
17
12
0
0
10
0
11
0
11
0
0
40
19
15
0
0
22
23
5
0
20
5
0
2
8
2
0
9
19
0
10
0
15
16
24
0
0
37
8
0
11
6
0
1
7
0
2
9
3
2
3
0
9
0
3
0
0
17
0
0
5
6
5
0
8
0
3
0
14
2
0
2
0
0
22
0
0
15
28
0
1
0
5
9
15
2
0
0
9
0
1
0
2
4
0
0
0
11
0
0
0
12
0
0
1
0
4
0
0
0
1
0
0
7
0
13
0
2
2
2
0
3
0
5
12
34
0
0
1
9
5
6
2
2
9
0
8
0
2
10
0
0
12
3
0
0
0
0
0
17
41
22
30
22
30
3
3
0
11
13
10
0
9
7
1
8
10
8
0
0
4
0
0
7
3
0
0
0
4
6
0
0
5
0
5
4
4
0
3
10
0
0
0
0
2
3
2
0
3
1
7
0
43
82
0
0
17
4
0
2
0
7
11
0
12
0
9
7
0
8
1
0
10
16
0
0
0
0
0
2
0
0
0
38
0
14
4
0
1
0
9
0
6
0
6
0
0
20
10
5
2
5
3
4
0
14
3
0
0
0
9
0
3
0
0
12
0
0
16
0
0
0
0
0
4
15
0
0
0
0
0
0
5
0
0
4
11
0
6
6
0
0
1
0
2
0
0
153
103
5
0
4
1
1
2
0
0
0
0
7
0
10
0
0
0
31
0
0
8
12
0
0
20
0
14
0
4
3
12
0
0
0
0
0
11
8
1
12
0
11
0
0
9
8
2
0
9
0
2
0
0
23
0
0
3
0
9
4
0
8
5
3
0
1
0
0
2
11
0
0
8
12
1
0
5
4
0
0
16
0
0
0
0
18
0
10
3
0
0
10
6
0
0
17
0
0
0
7
0
22
0
18
5
0
0
0
1
4
0
0
2
0
14
1
0
15
0
0
0
0
52
65
0
11
0
40
0
0
0
0
18
16
0
2
0
0
23
14
0
6
11
0
0
0
40
20
0
0
15
34
12
0
0
0
23
11
0
8
0
11
27
9
1
0
0
0
1
8
12
0
0
44
25
2
0
0
6
10
6
2
5
0
0
0
0
26
3
6
23
0
3
0
0
4
24
5
1
1
0
0
0
0
15
33
12
0
0
0
10
17
0
13
0
4
14
0
4
0
4
14
0
4
11
0
29
4
8
0
0
11
20
0
0
0
0
0
19
14
0
0
33
9
0
0
3
9
0
6
0
19
28
8
7
0
7
0
0
6
0
9
15
10
0
6
0
6
0
0
15
11
0
0
0
0
9
4
0
0
0
0
5
3
0
0
3
0
1
5
15
13
25
0
0
3
21
11
18
0
0
2
0
5
4
0
12
8
0
0
11
0
0
7
9
0
9
0
6
0
0
11
0
7
0
2
0
0
0
0
5
0
1
5
2
1
0
0
6
23
27
0
0
0
6
0
2
0
0
12
0
9
9
0
16
14
0
0
0
0
0
36
32
29
26
32
1
19
1
0
0
27
33
0
0
12
0
5
14
9
0
0
2
0
0
2
12
0
0
0
7
13
0
0
5
0
0
5
2
5
0
0
0
2
6
0
3
7
0
1
0
5
0
1
3
0
52
87
0
0
12
0
18
0
21
2
0
0
0
9
0
11
6
0
13
9
0
0
0
14
9
0
12
5
0
0
10
0
0
0
1
9
13
20
15
0
0
1
0
0
0
10
1
3
28
0
9
0
0
0
14
0
0
2
0
0
12
15
0
12
0
0
2
2
3
0
0
2
8
0
0
9
0
0
7
0
0
0
0
2
0
3
5
0
9
4
2
0
6
2
0
159
106
1
20
0
0
0
0
16
16
17
0
0
0
1
11
0
0
0
8
0
8
0
0
12
0
6
0
0
0
2
17
0
13
2
2
13
0
0
0
0
10
0
6
1
0
11
0
5
0
0
8
2
5
0
2
1
7
7
0
21
0
4
8
10
0
0
14
0
0
0
11
0
2
4
0
17
6
0
17
15
0
10
23
0
13
3
0
7
0
0
0
22
0
0
20
14
0
21
0
11
0
3
0
0
1
13
0
6
11
0
23
0
0
0
5
3
5
0
12
4
0
0
0
53
11
4
19
0
0
48
0
12
6
0
0
9
0
5
7
0
12
15
0
0
24
0
0
0
0
32
21
0
0
0
6
9
7
0
0
0
16
10
4
2
0
6
1
0
0
0
3
16
2
3
4
0
0
13
34
10
0
6
0
2
0
0
24
23
12
0
15
24
4
0
22
0
6
0
0
0
19
0
0
0
72
67
0
0
0
0
5
17
0
0
14
0
0
1
0
11
4
0
20
20
0
0
0
0
20
9
0
0
0
18
24
0
0
1
0
10
21
0
0
38
31
9
0
0
0
7
4
0
9
13
8
0
0
12
0
0
16
0
0
18
16
17
0
0
1
0
0
23
9
0
9
0
1
4
15
0
5
11
5
0
8
9
0
9
0
13
33
8
0
0
0
19
0
11
15
0
0
0
0
0
1
6
0
6
0
11
0
2
0
4
11
0
1
4
0
0
13
0
0
0
0
6
3
0
6
4
0
8
0
0
4
2
4
0
0
26
34
0
0
9
0
0
16
0
26
0
2
0
23
0
0
0
0
0
0
45
30
16
4
26
20
8
8
0
0
2
50
0
0
0
20
0
6
5
0
1
1
3
2
0
11
0
0
0
1
7
0
2
0
0
0
0
4
3
1
0
0
3
0
0
5
0
3
0
0
0
3
0
0
16
0
8
61
30
0
0
0
0
1
31
0
22
35
2
0
3
0
12
0
0
4
0
1
17
0
0
0
0
2
0
10
0
6
0
0
18
0
0
16
0
0
16
0
0
0
9
0
19
2
0
8
8
2
7
0
0
0
0
12
6
0
0
0
0
7
0
0
1
0
13
4
4
1
3
5
0
3
0
12
10
0
9
10
5
1
2
9
0
0
7
0
0
0
4
1
1
0
160
95
0
18
0
11
0
10
0
0
0
0
0
0
4
0
0
19
0
2
2
0
4
2
0
0
0
0
0
3
0
8
0
14
0
0
0
0
3
20
0
1
9
0
5
7
0
14
0
4
8
0
3
0
23
2
0
15
0
8
0
5
0
12
0
6
0
9
0
9
11
0
12
0
10
0
0
0
3
0
5
0
0
1
7
6
0
6
0
1
0
5
0
0
2
4
0
19
0
0
16
0
12
6
20
0
0
0
7
12
0
0
0
28
0
0
0
0
0
0
0
0
0
43
45
6
0
26
0
7
0
11
35
0
4
18
0
16
19
0
0
19
0
0
22
0
7
0
0
16
12
0
0
0
34
22
0
15
0
6
23
18
0
0
0
21
8
0
0
21
0
0
0
7
0
0
0
23
21
0
12
0
0
0
0
0
10
0
4
27
0
0
37
7
0
0
7
0
0
15
0
0
18
16
36
0
0
0
0
8
2
0
0
21
28
0
0
0
0
12
0
14
0
2
42
0
15
2
0
22
13
7
0
0
0
37
16
9
0
0
0
24
25
0
16
33
0
0
0
27
19
8
0
0
10
15
8
0
19
6
0
6
4
0
0
0
0
34
13
0
2
0
0
0
25
10
0
0
0
0
22
0
0
13
5
0
4
9
8
14
17
0
0
0
4
4
0
9
0
0
0
13
19
9
1
6
6
0
0
0
1
1
1
0
0
4
5
0
3
4
2
0
0
12
0
10
0
10
0
0
5
0
17
0
0
0
0
2
11
0
16
16
24
0
0
0
0
2
15
0
0
10
6
6
0
1
0
0
14
40
2
14
41
15
11
16
0
0
0
41
39
0
0
14
9
0
13
14
0
4
0
0
0
0
9
0
1
0
9
0
5
2
0
0
8
0
0
1
0
2
0
5
8
0
0
1
8
5
2
3
3
0
8
0
0
0
13
81
0
0
0
14
0
0
0
18
0
0
0
0
3
0
0
0
30
0
6
28
0
0
27
0
23
0
21
0
4
4
0
22
0
3
0
0
25
0
0
4
9
0
0
0
7
15
13
0
1
10
0
7
0
0
0
2
0
0
12
0
20
3
2
0
0
4
0
0
0
4
0
0
3
0
7
0
0
12
0
0
0
12
0
0
0
4
0
25
0
21
0
0
10
0
161
104
8
0
0
21
5
6
4
7
0
0
25
0
5
0
0
8
14
0
15
0
0
0
15
0
11
0
7
2
0
12
3
0
13
0
5
11
0
3
4
0
0
7
0
0
31
0
5
0
0
0
3
16
7
0
0
0
14
0
0
0
6
1
0
0
0
0
13
0
9
3
5
0
0
0
22
0
19
8
0
9
9
0
0
0
2
24
0
0
11
10
0
13
0
8
12
0
2
0
9
0
0
0
0
0
12
13
0
0
0
7
0
1
0
10
6
0
18
0
0
0
0
106
12
0
43
0
42
0
0
38
0
0
16
2
0
24
0
0
25
1
0
11
0
14
0
0
53
9
0
0
25
14
29
0
0
0
26
15
14
0
0
0
7
19
0
14
6
0
31
14
4
0
0
0
16
0
0
0
4
0
28
0
0
31
19
0
0
6
0
0
0
10
32
0
0
2
1
0
1
0
23
56
0
0
0
0
39
17
0
24
0
0
5
6
0
8
0
0
23
0
19
0
0
29
0
27
0
0
0
26
5
7
0
0
34
21
9
2
0
0
26
21
0
0
0
14
13
0
9
12
1
0
0
0
24
14
0
0
11
0
0
7
3
0
0
0
16
18
0
2
0
0
0
12
12
3
4
0
0
10
0
7
11
7
5
9
17
17
0
0
0
35
18
0
7
7
3
4
0
0
0
11
0
0
1
12
0
4
0
2
0
5
0
18
0
1
0
9
0
6
9
1
0
7
0
0
15
0
0
9
5
4
2
0
4
9
11
0
7
12
41
0
6
8
0
5
0
0
2
0
0
0
0
0
0
46
5
0
23
22
1
15
0
0
0
20
60
0
0
3
17
8
5
14
3
2
7
0
0
2
2
5
0
0
2
5
0
3
0
0
0
7
1
4
4
0
0
0
0
0
1
4
4
0
8
0
0
0
1
1
4
0
7
0
17
87
0
0
1
2
0
0
0
7
0
0
19
31
0
0
8
0
0
2
18
0
10
8
0
13
0
18
0
7
0
0
13
0
18
0
18
0
0
4
0
0
0
1
17
6
11
0
17
1
8
0
3
0
2
14
0
0
0
22
0
14
0
0
2
0
10
0
0
20
2
7
1
4
3
2
0
1
0
8
0
7
0
0
0
7
15
0
1
0
5
0
0
8
0
4
146
88
0
19
0
0
17
0
14
0
14
8
0
14
0
17
0
9
0
0
0
0
24
0
0
16
0
0
0
3
10
0
0
4
2
3
4
0
8
4
5
0
0
14
0
0
0
8
0
6
5
3
2
0
0
6
0
8
6
2
0
12
2
0
0
19
0
0
5
3
0
0
0
0
9
0
17
0
0
0
0
13
0
31
0
2
0
2
23
0
0
0
0
11
0
1
0
0
4
3
0
0
13
0
10
0
9
0
0
8
6
0
0
0
2
0
14
17
0
5
0
0
0
69
11
13
27
0
0
10
31
0
9
15
2
0
13
2
0
17
0
0
26
0
0
0
11
7
15
0
0
12
31
0
0
0
16
21
4
0
0
0
7
27
2
0
0
0
22
8
4
0
0
0
7
32
3
0
0
4
0
13
0
0
28
13
22
0
0
0
28
14
0
16
14
0
3
0
17
0
0
45
53
0
0
0
7
22
0
5
27
0
0
0
0
11
13
0
14
13
0
41
0
4
0
7
0
0
44
0
0
0
0
39
11
0
0
21
10
19
0
2
2
0
0
0
28
15
13
0
0
10
7
3
18
0
0
27
24
0
0
0
23
0
9
0
9
0
0
1
31
12
1
0
0
0
8
1
4
18
8
9
12
0
13
23
10
12
6
0
0
5
30
10
0
20
21
0
15
0
24
0
15
1
0
0
11
1
0
5
0
4
2
0
0
0
26
0
0
0
4
0
14
0
0
2
3
2
1
8
0
8
0
11
0
0
0
0
0
0
1
22
18
0
0
10
5
0
5
0
9
0
0
0
0
6
31
2
4
31
1
0
13
0
0
0
37
33
0
0
8
0
5
15
0
6
0
3
0
11
0
0
5
0
0
0
0
2
0
10
0
7
4
3
1
0
7
0
0
2
1
0
0
0
0
10
0
0
3
0
1
0
0
1
0
3
18
106
0
0
0
8
20
0
70
0
3
5
0
0
0
17
0
30
0
0
30
0
0
33
0
0
0
0
0
0
0
0
1
7
0
0
4
0
8
0
0
0
9
0
0
7
14
3
3
18
0
4
0
4
11
0
0
0
10
0
0
10
0
1
0
0
0
9
7
2
0
1
1
5
0
4
3
0
3
0
4
0
2
1
5
2
0
6
0
0
12
0
8
0
12
0
170
113
12
0
12
0
0
0
0
13
0
5
0
7
0
6
0
3
20
0
0
7
0
0
18
0
18
7
0
3
0
9
0
10
0
0
0
2
2
1
0
2
0
0
5
4
0
8
6
0
0
5
0
0
4
0
15
1
0
1
4
0
0
16
0
17
0
14
0
0
0
0
23
21
0
0
22
0
12
8
21
0
21
0
0
3
5
0
0
12
0
0
17
0
16
4
3
23
13
0
35
6
0
4
8
0
6
0
11
0
0
5
7
0
0
17
0
14
0
0
27
0
0
60
7
0
30
0
3
28
0
0
16
9
0
0
0
0
3
17
0
20
7
0
0
5
20
0
0
0
44
21
10
0
0
23
7
0
0
0
10
18
17
1
0
0
0
19
0
0
1
0
0
37
0
0
8
2
0
16
0
0
0
28
18
7
0
30
5
0
2
16
0
0
0
15
0
0
0
9
30
48
0
0
0
39
31
0
24
0
0
13
7
0
0
0
24
44
0
14
0
0
25
0
12
0
0
0
0
14
16
0
0
0
50
21
0
0
28
4
17
0
0
0
8
0
1
23
8
6
0
0
0
10
6
6
0
0
9
29
0
0
0
15
1
1
0
11
0
0
17
21
0
0
0
0
0
20
5
0
22
0
17
0
9
0
0
0
0
0
5
0
0
1
0
0
15
1
1
11
0
0
0
0
0
4
6
0
0
0
5
0
0
5
14
0
0
12
4
2
0
0
0
19
3
0
16
3
0
4
17
0
12
7
4
0
0
0
0
6
0
9
24
9
0
0
20
0
12
0
0
0
0
6
43
12
0
15
36
27
8
0
0
0
39
48
0
0
0
19
0
22
9
0
5
0
0
0
4
0
2
0
0
3
0
2
0
0
0
0
2
1
0
0
0
10
5
0
0
4
2
0
5
5
5
0
1
0
0
5
0
11
2
3
0
0
43
86
0
0
0
8
0
6
0
0
22
0
13
0
0
2
15
0
0
7
0
13
0
0
2
0
0
0
27
7
6
1
8
9
0
9
23
0
0
12
0
10
0
0
11
6
5
0
0
10
0
3
0
0
0
0
4
0
15
0
8
0
6
2
4
12
0
0
0
0
9
0
0
0
0
6
17
0
16
3
0
8
0
0
0
7
0
0
23
0
0
0
1
3
0
0
143
91
0
5
0
21
0
6
17
0
8
0
0
17
0
0
0
3
1
0
0
19
0
0
9
0
3
0
2
17
2
0
0
2
5
0
0
1
10
0
5
0
0
0
1
0
6
0
6
0
0
3
1
7
0
1
0
2
7
8
0
17
0
0
0
0
0
6
2
6
0
0
0
0
7
0
29
0
9
0
0
4
11
0
9
0
0
4
0
13
5
9
0
8
0
12
0
0
0
16
0
6
0
0
5
0
0
2
14
0
11
0
9
0
4
0
10
17
0
12
0
0
35
51
0
8
0
20
19
0
24
17
0
3
19
0
0
11
22
0
0
11
3
0
16
7
20
0
2
14
0
2
0
0
9
22
0
11
0
21
12
19
10
0
12
14
21
20
0
0
0
0
43
0
7
4
0
7
21
0
0
0
25
41
0
0
0
0
0
10
0
8
15
0
0
7
5
0
26
0
35
0
0
0
25
0
0
14
0
5
3
0
25
0
1
29
0
24
32
0
0
12
0
12
0
0
9
0
2
9
10
32
0
0
0
45
9
0
0
23
30
0
0
0
23
12
5
0
0
3
0
9
16
0
0
9
23
0
0
0
30
12
0
0
8
10
24
0
0
0
0
9
16
9
0
0
7
2
2
0
0
17
14
0
0
0
0
0
9
4
4
13
0
23
7
20
0
0
0
2
0
0
0
15
0
3
0
0
0
0
20
0
1
1
13
3
0
0
9
16
0
1
3
0
11
0
7
0
0
3
3
0
9
0
5
0
0
0
8
2
0
7
16
19
0
0
0
34
0
6
0
0
27
28
0
8
40
14
0
0
0
0
7
48
6
0
0
31
0
0
13
1
10
0
0
0
0
4
1
0
0
0
0
8
0
3
2
0
6
0
4
0
3
4
5
0
6
0
5
14
0
13
0
0
8
0
0
0
4
11
0
4
7
0
1
5
59
39
0
31
2
0
9
7
4
0
0
4
0
23
0
0
14
11
0
1
6
0
0
0
0
0
0
15
3
0
0
0
6
0
0
2
0
0
28
0
0
0
0
0
9
23
0
11
0
0
1
0
2
0
0
0
10
16
0
9
2
13
0
0
0
7
0
18
0
16
0
9
2
10
0
10
0
0
0
3
7
3
5
8
0
0
4
0
0
3
7
0
0
0
9
0
159
110
8
2
0
6
0
0
1
0
7
0
0
0
7
2
11
0
24
0
10
0
0
2
9
0
7
7
0
6
0
8
2
0
5
0
18
0
0
4
0
0
8
0
25
0
3
3
0
4
22
0
5
7
12
0
5
1
0
0
8
0
4
17
0
30
0
0
2
3
1
22
0
7
0
13
0
0
12
9
0
19
2
0
13
0
5
1
9
0
0
4
8
0
0
0
10
0
0
10
0
0
0
9
11
0
1
0
15
0
9
1
10
0
0
12
0
0
11
0
0
0
99
31
0
11
0
16
0
3
0
11
0
9
17
2
0
5
0
11
3
0
0
18
5
17
0
7
18
17
0
0
7
0
32
0
7
0
35
18
0
0
0
0
43
4
0
0
13
0
7
33
0
0
17
0
15
8
0
0
0
38
0
7
10
0
8
16
12
0
2
0
0
43
0
0
0
44
56
0
0
0
0
30
2
10
0
0
7
0
11
7
0
18
16
13
0
0
16
33
6
0
0
0
11
2
0
18
0
0
20
2
35
0
0
0
53
7
0
0
0
0
0
2
6
0
30
0
0
0
0
2
0
7
0
0
16
11
5
0
0
23
26
0
0
0
39
0
14
0
0
0
1
15
13
0
14
0
19
0
0
16
0
0
6
20
0
6
0
3
12
8
12
24
0
16
0
2
0
0
14
1
1
0
7
2
14
6
0
0
0
11
12
0
2
4
22
0
0
0
0
3
0
22
0
5
7
0
3
0
11
2
0
3
6
0
0
6
14
0
0
0
12
17
33
0
0
0
0
0
0
32
6
1
6
28
21
0
0
0
18
32
15
0
0
0
14
0
2
13
9
3
0
3
0
6
7
0
0
4
3
6
0
0
2
3
0
4
4
0
0
0
0
2
0
7
1
0
1
7
0
0
0
0
7
0
0
0
0
0
0
0
0
3
0
14
61
21
0
0
9
0
0
1
0
17
0
15
0
0
14
0
0
11
0
1
10
0
5
0
0
27
0
7
10
0
7
33
0
0
25
9
0
13
0
15
0
10
3
0
2
10
9
0
6
0
5
0
0
0
13
7
0
8
0
3
8
0
0
8
0
17
0
0
0
6
5
0
0
7
0
6
0
2
4
0
0
3
0
3
0
10
0
0
13
3
0
12
0
0
9
4
147
97
0
10
0
0
1
0
9
28
0
10
0
0
0
0
0
10
0
2
5
9
0
0
7
0
0
4
11
0
6
4
0
0
13
2
0
18
0
3
8
4
0
0
0
12
0
0
12
0
0
32
0
3
0
19
0
0
9
0
3
20
0
0
3
4
0
21
0
2
5
0
6
0
65
13
4
0
0
2
13
0
0
10
0
0
8
0
8
0
0
11
0
2
0
15
0
0
1
19
0
6
18
0
0
10
0
17
0
0
8
0
0
26
0
8
5
2
0
7
0
0
75
7
15
0
53
0
1
43
0
0
0
34
0
0
18
0
0
10
0
0
1
0
0
0
15
6
13
0
0
0
22
2
0
0
3
2
4
8
0
0
9
8
2
0
0
0
0
30
0
0
2
13
0
10
0
0
0
7
7
12
23
0
10
10
0
11
15
0
0
3
0
0
14
0
0
19
35
0
0
16
0
23
19
20
13
0
0
0
0
10
16
0
49
0
0
0
0
7
27
0
0
0
0
13
16
0
0
0
16
18
15
2
0
0
6
41
0
0
0
21
23
2
0
0
0
24
17
0
0
15
9
0
17
4
0
2
23
2
0
0
13
22
0
0
0
29
14
3
0
0
1
17
0
0
0
0
31
28
0
0
4
33
14
6
0
3
0
5
2
0
2
0
0
0
6
23
13
6
0
22
0
0
0
7
11
0
6
0
0
0
8
3
0
1
0
0
0
0
12
1
13
0
6
0
18
0
1
0
10
0
0
0
14
3
7
0
0
15
0
0
7
19
28
1
0
0
13
4
23
31
10
18
8
0
0
0
32
34
11
0
0
2
24
14
5
5
13
0
4
2
0
0
3
5
0
3
2
0
15
0
0
7
0
0
0
0
0
9
6
0
1
1
3
0
0
7
0
0
2
0
0
1
3
0
3
0
4
0
7
0
1
0
9
11
64
12
0
0
0
5
31
0
18
0
15
31
0
4
0
13
28
5
4
6
0
19
16
5
0
0
1
4
0
0
0
0
9
0
0
0
19
1
0
0
0
0
0
3
0
7
3
11
0
22
0
0
7
0
1
0
1
2
3
0
0
9
13
0
1
0
6
0
0
3
0
1
0
4
5
0
7
0
1
3
0
6
0
0
0
4
0
8
0
0
30
0
6
8
0
0
165
102
0
8
10
0
10
0
0
0
0
18
0
23
9
14
0
8
5
0
3
0
24
0
0
0
10
1
0
0
9
0
1
12
0
4
11
0
17
0
0
0
6
0
0
9
0
10
0
0
7
0
7
0
5
0
14
10
0
25
8
0
0
18
2
0
0
0
6
27
0
0
6
0
0
27
0
6
0
0
0
0
5
2
15
8
5
0
9
0
0
0
0
7
0
0
3
0
15
0
2
0
7
0
0
10
0
0
2
6
1
11
0
0
0
0
0
3
2
0
0
0
55
0
9
12
0
0
72
25
0
12
30
0
34
7
34
0
0
24
0
0
2
18
0
5
5
1
0
0
6
29
27
0
0
0
34
0
0
0
0
25
28
6
0
1
0
25
11
5
0
19
12
0
22
0
0
0
0
32
0
6
0
12
0
16
0
0
11
7
0
0
0
0
13
28
55
0
0
0
7
24
0
0
0
0
25
3
0
0
0
0
21
37
0
8
0
17
0
0
0
21
12
0
12
0
14
16
0
0
0
4
9
23
31
0
0
0
0
7
0
19
18
22
0
2
0
0
5
27
0
0
0
0
6
4
0
0
0
23
15
0
0
20
12
0
0
0
14
20
7
0
0
0
8
0
7
37
0
0
0
13
5
0
25
10
16
9
0
14
5
0
9
6
0
0
0
0
7
2
0
0
19
2
0
11
9
12
0
15
2
5
3
8
0
2
0
0
12
2
0
0
0
0
17
0
0
13
3
3
0
13
0
0
11
15
0
0
8
0
2
0
0
5
18
27
0
2
19
4
26
11
20
15
0
0
0
26
11
0
0
8
21
0
11
0
8
3
0
0
0
0
5
0
4
0
0
0
0
7
0
0
3
0
5
0
8
0
4
0
0
6
5
4
1
0
4
0
7
0
1
0
0
4
5
0
4
0
2
0
5
15
0
3
0
15
105
0
0
0
0
0
6
3
0
2
0
13
0
10
0
0
0
0
5
0
0
0
7
0
0
24
0
21
1
0
11
7
4
5
33
0
0
0
0
0
8
0
19
20
21
0
3
0
4
0
6
4
0
0
1
0
11
0
7
1
0
0
0
0
0
5
0
1
12
0
0
0
0
8
0
0
0
16
0
0
0
9
0
10
9
0
2
0
0
7
0
0
0
0
15
0
146
94
0
1
0
16
0
1
15
10
17
0
0
0
0
0
14
0
0
0
0
18
0
0
16
0
0
0
14
13
0
11
0
0
6
0
1
0
0
2
1
0
13
0
4
0
1
0
0
15
0
1
6
4
3
0
0
11
0
4
0
0
1
0
15
0
1
12
0
0
1
0
0
0
0
0
17
0
6
0
16
0
10
0
0
0
0
7
0
18
0
4
13
0
1
0
11
6
1
0
11
13
0
0
0
22
1
13
0
7
0
0
4
0
12
0
13
12
0
0
0
9
61
21
0
11
0
36
0
0
0
10
0
8
0
5
0
32
0
0
8
15
0
12
1
7
0
0
0
16
7
0
10
0
14
18
0
4
1
0
2
19
0
0
0
0
19
12
0
21
2
2
8
10
0
0
0
0
10
34
0
0
14
0
9
0
26
2
0
7
0
0
5
0
2
37
55
0
0
0
33
0
32
0
0
0
17
15
0
7
0
33
14
0
0
19
30
4
0
20
0
0
17
13
0
18
0
0
19
0
0
0
24
4
33
1
0
2
0
9
20
0
3
0
22
1
0
0
0
0
44
6
0
0
17
0
4
12
0
2
4
20
0
0
29
7
8
0
0
21
14
4
4
0
27
20
9
0
0
5
0
5
8
0
0
0
0
0
13
2
0
13
0
19
4
0
6
7
0
10
0
0
0
17
0
0
23
0
5
0
0
0
1
2
9
8
0
0
0
2
0
2
13
0
5
10
0
6
8
9
0
9
13
0
0
26
12
0
0
15
13
0
0
5
17
0
16
19
12
10
17
0
11
0
0
2
34
12
0
0
14
3
0
7
3
15
0
0
1
0
6
4
0
0
0
3
6
6
0
17
0
2
0
0
0
0
0
6
4
0
5
0
0
0
3
0
26
0
0
0
0
0
6
14
0
8
0
0
0
12
2
1
0
5
7
26
106
0
0
0
17
3
0
0
22
0
0
0
5
0
1
65
0
39
6
0
5
25
0
0
0
23
0
0
0
0
0
9
0
0
14
0
8
32
0
4
19
7
0
7
0
7
6
0
0
0
0
0
0
3
5
2
0
9
0
1
9
2
0
9
13
0
13
0
0
7
3
3
0
0
7
7
4
0
5
1
3
3
4
0
8
3
2
8
2
0
21
0
4
0
0
7
148
103
6
0
15
0
8
0
5
4
0
17
0
0
3
12
0
36
0
3
2
0
0
6
3
0
4
8
0
12
1
0
3
0
25
0
0
0
24
0
10
6
0
0
0
8
0
18
1
0
6
5
0
0
15
0
2
0
0
10
2
7
0
11
0
0
0
0
5
17
0
20
0
17
1
17
0
5
1
9
9
0
0
19
0
19
0
2
4
0
0
9
0
11
0
15
0
0
9
6
13
0
0
17
0
0
0
0
14
0
6
40
0
16
0
2
0
0
13
0
0
66
30
1
15
0
0
45
0
24
3
0
0
0
0
0
0
7
0
0
0
22
18
5
0
31
0
0
11
0
0
20
0
14
5
0
3
0
14
13
0
0
3
0
0
27
0
0
0
15
0
0
3
0
4
0
0
26
18
11
0
0
0
14
7
5
9
0
0
0
6
0
0
71
0
0
0
0
28
29
0
0
0
12
6
4
0
0
16
38
21
0
3
0
27
0
5
3
0
0
30
0
0
12
29
10
11
0
26
30
0
0
0
15
6
0
0
22
40
0
22
5
0
0
10
15
9
9
0
0
0
16
30
0
0
14
0
14
11
0
0
0
2
0
5
23
13
0
0
0
24
17
20
0
4
0
0
0
11
6
10
4
0
10
4
0
0
0
1
31
0
11
0
15
0
3
0
0
2
0
15
4
0
11
0
0
0
16
2
10
7
0
0
4
8
0
7
4
3
0
1
0
0
0
12
5
0
0
4
11
0
0
9
0
0
0
7
2
0
0
13
0
0
0
0
15
0
5
18
14
2
0
0
0
29
5
0
0
20
2
0
0
7
15
0
0
0
0
7
4
0
1
0
5
0
0
1
0
0
3
0
0
9
5
0
3
0
0
12
0
0
11
0
0
5
3
1
0
3
0
12
0
9
2
0
0
0
0
0
4
0
0
2
5
3
49
70
0
0
27
0
1
24
0
0
11
32
7
0
0
0
8
0
0
18
0
26
0
0
21
0
0
25
0
41
0
0
21
12
14
27
0
0
0
5
0
4
0
13
0
22
0
2
0
8
0
0
4
1
11
0
15
5
0
0
0
0
3
6
0
0
0
0
13
9
0
5
0
0
4
0
0
8
0
0
0
14
0
0
7
0
12
0
0
9
0
3
0
10
0
12
4
152
91
0
9
0
0
0
14
0
18
28
0
11
23
0
9
0
6
6
0
3
0
12
9
0
0
0
24
0
15
0
0
5
0
0
14
0
21
0
10
0
0
0
18
0
1
1
0
0
2
3
9
0
5
0
5
0
9
5
6
4
0
0
23
4
0
19
0
0
16
0
0
0
0
5
2
8
0
4
1
0
6
2
0
13
0
0
14
18
7
20
0
10
0
2
0
22
0
0
0
3
0
10
6
0
6
0
0
6
5
0
0
0
0
5
0
0
13
0
0
0
54
39
0
0
29
6
0
27
0
1
0
40
30
0
10
25
0
0
20
0
0
2
0
17
0
0
17
0
18
0
0
10
0
0
0
0
21
21
7
8
0
7
23
28
13
0
5
4
24
2
0
0
9
0
0
39
20
0
22
5
6
0
0
32
0
10
0
14
0
0
34
16
3
0
0
0
6
0
25
12
0
0
0
42
0
0
0
21
26
5
0
0
7
9
0
0
1
12
0
0
19
0
0
0
14
9
23
0
25
4
4
0
3
0
11
7
3
1
45
0
2
28
0
0
2
11
0
0
1
0
8
0
39
2
0
5
0
3
2
0
21
0
19
0
0
13
16
13
0
0
19
21
0
0
0
0
1
13
2
4
13
15
0
2
16
10
4
0
0
8
4
8
0
4
3
7
0
0
2
13
0
0
0
11
15
0
0
11
24
0
1
0
0
14
0
0
11
8
0
0
11
11
0
3
21
0
0
18
0
4
6
19
0
0
0
1
18
10
0
8
0
0
0
20
0
15
19
16
18
0
4
0
12
1
0
0
1
3
0
1
15
8
0
13
0
12
6
0
1
0
4
3
0
4
0
6
7
0
0
2
7
0
0
4
6
0
8
0
2
0
0
3
0
2
14
7
0
1
0
0
4
0
0
0
3
1
0
6
1
0
0
3
4
9
69
34
0
0
0
5
0
0
0
15
9
0
0
2
0
23
0
19
0
0
10
0
0
10
0
0
1
10
0
0
28
0
3
0
0
0
0
0
0
3
0
0
15
1
11
0
0
19
6
0
13
0
0
0
0
8
0
0
1
5
0
23
0
4
3
0
5
0
0
0
0
5
8
0
0
0
5
0
0
5
4
0
0
9
0
0
1
1
2
3
0
6
0
12
0
0
0
163
113
13
0
0
18
0
0
4
0
0
0
0
2
0
27
0
12
0
7
9
5
12
0
0
4
4
0
9
0
0
11
1
0
14
0
14
0
0
0
0
15
0
0
2
0
10
1
0
1
0
0
0
3
0
4
3
0
0
0
0
0
0
23
0
10
0
19
0
0
0
21
0
0
0
3
0
14
14
0
0
0
9
0
0
6
16
0
1
0
1
5
0
0
0
15
0
6
4
0
4
0
35
0
26
0
13
0
4
3
2
0
9
0
0
6
0
0
0
0
0
71
42
0
0
33
0
2
59
0
0
2
47
0
0
29
9
0
8
44
0
0
11
0
0
0
42
0
0
0
11
0
38
0
4
0
15
0
7
0
0
20
0
44
0
0
1
3
0
5
0
19
1
0
4
1
32
0
0
0
5
24
0
0
10
0
0
0
0
0
21
20
6
0
0
0
14
18
0
0
7
10
0
0
0
11
15
0
0
35
19
0
2
0
0
4
12
0
5
0
0
8
29
0
0
0
5
1
20
0
16
18
0
0
23
0
3
0
14
25
2
24
0
5
0
0
18
0
12
23
0
0
0
0
26
6
0
0
9
3
16
0
7
0
1
0
0
13
15
19
0
0
0
0
19
9
0
0
0
0
4
0
1
7
10
15
0
0
1
0
0
0
6
7
0
18
6
0
0
0
5
7
3
0
0
11
0
0
0
0
13
27
15
0
0
10
10
0
10
5
11
0
5
0
0
19
3
11
0
12
21
0
0
11
0
0
0
6
0
0
0
11
0
35
23
20
26
0
0
0
0
16
17
0
0
0
0
0
3
6
4
2
0
5
0
8
0
0
0
6
4
1
0
0
0
0
1
0
2
3
7
0
0
2
0
5
0
12
1
0
10
0
3
0
12
2
0
0
8
0
3
10
0
1
12
0
0
5
0
22
2
0
10
0
9
95
0
0
8
8
0
35
0
5
0
22
0
1
0
21
4
8
0
0
0
5
0
29
0
72
0
4
0
10
2
24
4
0
29
0
15
0
41
0
23
0
21
8
0
18
0
10
0
12
0
0
3
2
14
2
1
7
0
11
0
1
0
0
0
0
1
1
5
0
4
1
0
7
0
0
6
0
4
0
15
0
0
7
0
10
0
10
0
0
7
1
0
10
0
0
4
0
149
110
7
12
0
0
7
0
6
0
7
10
11
0
2
0
1
0
0
0
0
4
0
4
0
16
0
14
0
11
0
4
0
1
11
0
8
0
7
8
7
0
0
6
0
6
2
0
0
0
0
9
2
6
0
11
0
0
12
0
5
11
1
2
0
0
0
0
0
17
0
0
0
13
12
5
0
0
3
12
15
0
14
9
14
0
0
8
9
0
12
6
0
1
4
0
12
0
3
0
0
37
0
14
0
0
1
0
10
20
0
0
12
0
0
21
0
4
0
0
0
96
6
4
19
0
0
54
52
0
53
0
14
0
30
0
0
0
36
15
4
9
0
9
6
1
8
0
0
10
4
8
0
11
1
45
0
10
0
0
0
7
11
0
0
5
0
11
22
0
12
8
0
0
11
19
7
14
4
0
0
16
17
3
0
10
0
13
0
12
69
0
0
29
0
0
7
25
10
0
0
5
0
0
3
0
49
28
0
0
11
28
1
0
0
0
32
0
3
4
0
11
0
36
0
3
0
0
15
31
0
0
0
0
30
14
1
0
0
12
21
1
0
0
5
5
0
7
1
0
17
0
0
0
0
26
32
0
7
0
2
14
17
0
0
1
11
0
0
36
9
0
0
0
0
4
25
3
2
0
0
0
0
0
7
11
0
0
11
19
0
0
1
0
0
2
4
0
0
14
0
0
7
16
0
0
6
0
0
0
0
3
18
16
0
0
0
1
4
0
0
7
0
29
0
0
14
1
0
8
2
3
0
0
15
0
0
0
7
0
1
33
27
2
7
0
0
0
0
6
12
0
12
0
3
0
6
12
3
8
8
0
3
3
11
9
0
0
5
0
0
0
0
1
0
7
1
5
0
2
0
0
3
9
0
0
0
8
3
0
0
4
0
18
21
0
0
0
0
0
7
0
6
3
0
8
0
5
0
0
3
1
0
0
43
94
0
0
0
0
0
0
8
17
0
0
13
0
12
0
0
0
14
0
28
0
0
0
12
0
0
0
1
18
0
0
12
0
25
0
0
0
17
2
0
0
24
0
21
0
1
5
0
0
5
0
0
0
0
4
5
0
2
0
0
0
9
0
0
4
0
8
1
8
0
4
1
1
5
0
12
0
11
0
0
0
0
9
5
0
5
7
7
6
0
2
0
0
14
0
7
0
163
105
7
0
0
12
0
0
17
8
8
0
20
0
0
2
0
0
1
0
0
0
17
0
7
0
7
6
1
9
0
0
40
0
1
0
0
0
14
0
0
0
1
2
13
0
2
12
0
4
0
15
0
0
3
0
9
0
7
2
0
0
0
1
13
0
0
5
0
0
0
5
18
0
0
14
0
27
0
0
3
0
3
13
0
15
2
5
0
0
0
3
0
13
0
24
0
3
7
9
0
0
12
4
3
6
0
0
8
0
25
0
0
0
6
9
14
0
0
0
0
68
8
6
12
0
45
25
0
0
44
0
0
39
0
6
14
0
8
0
0
2
1
0
39
0
0
2
6
28
0
0
19
0
4
8
0
0
1
26
2
2
0
0
25
0
26
0
0
0
10
0
1
7
9
13
0
0
8
27
0
0
8
21
0
0
16
0
2
51
39
0
8
0
4
9
6
17
0
12
18
0
15
0
1
22
17
5
0
0
0
18
29
0
0
0
19
32
11
14
0
0
0
0
35
0
0
0
0
0
0
0
0
43
0
14
16
0
0
0
0
0
33
9
0
0
14
0
0
0
18
13
0
0
0
0
17
10
0
3
0
0
6
0
0
30
8
6
0
0
0
11
14
0
0
2
3
17
8
2
13
22
0
0
6
5
0
4
0
0
5
3
9
0
0
0
12
0
8
0
0
0
5
8
6
0
0
13
9
8
0
0
0
0
37
0
3
9
13
1
2
0
9
4
17
0
14
19
0
0
26
0
1
0
0
0
0
0
9
29
30
22
10
0
0
0
0
30
9
24
1
0
0
0
0
9
8
0
3
0
0
0
0
7
5
0
0
4
7
0
8
0
0
3
4
1
3
0
0
3
6
0
1
0
6
0
0
0
0
3
0
4
10
21
0
0
23
0
0
12
1
23
0
11
0
0
1
0
1
6
0
3
0
1
71
29
0
11
0
0
8
7
7
0
48
0
0
47
4
0
16
8
8
0
0
25
0
20
0
0
6
0
22
0
20
7
0
3
0
0
15
0
0
0
6
7
3
5
0
0
14
0
11
7
0
3
0
4
0
0
0
9
0
12
8
0
5
0
12
6
6
0
0
0
5
18
0
0
0
8
0
0
11
1
0
13
3
0
0
4
0
0
1
0
5
0
2
2
0
0
6
0
158
84
0
11
0
0
6
0
6
0
0
0
0
5
0
9
0
0
14
0
21
0
14
2
0
2
0
20
0
0
9
0
0
3
3
0
5
0
6
0
12
0
15
0
0
0
0
0
0
2
8
0
0
0
0
9
7
0
0
15
0
14
0
12
0
4
12
0
6
0
13
6
3
3
0
14
0
0
0
5
0
1
0
0
7
0
0
3
0
5
0
1
11
0
22
0
28
0
4
0
21
1
0
1
0
13
4
9
0
6
0
11
2
18
0
0
0
0
0
0
0
69
24
0
0
17
31
0
72
15
0
8
32
0
0
0
25
0
0
18
4
3
0
20
15
0
0
11
18
0
0
9
0
12
0
0
0
8
17
1
0
55
0
0
13
30
0
0
13
0
0
0
8
47
0
0
0
6
0
19
3
0
0
13
14
0
0
26
74
0
0
0
0
13
10
5
8
0
15
0
1
4
0
22
16
17
0
0
21
26
0
0
0
36
14
0
0
0
19
12
11
0
0
12
0
29
0
0
0
0
0
30
24
0
3
4
0
20
15
0
0
0
19
7
9
0
0
19
0
0
17
0
27
0
0
1
0
17
17
1
0
10
0
0
14
0
0
19
0
0
0
0
16
4
0
0
2
0
12
15
8
0
4
3
0
0
6
25
0
0
0
30
0
0
0
1
0
4
5
0
11
2
0
0
6
8
0
2
0
9
12
0
0
0
14
20
0
0
3
28
0
0
3
0
6
0
0
25
7
0
8
14
0
0
0
10
13
14
33
9
0
10
0
0
0
15
27
0
5
7
0
3
0
7
2
13
0
3
3
0
4
6
8
0
0
0
15
1
0
1
0
6
6
0
0
7
0
0
5
0
2
0
7
0
4
1
0
8
0
7
0
0
19
0
0
0
0
0
0
5
5
7
0
7
7
1
3
0
4
0
6
10
0
18
90
0
0
13
0
0
12
0
0
0
0
0
11
0
2
0
4
0
5
57
8
0
0
0
4
0
7
12
24
0
24
0
26
0
8
0
0
0
0
18
9
5
0
6
15
14
0
5
0
0
0
0
17
0
2
14
1
1
0
0
7
1
10
0
0
5
9
7
0
5
0
6
0
0
12
0
2
6
0
0
4
0
15
1
9
5
0
0
4
0
6
0
0
0
7
0
9
17
145
107
12
0
0
4
3
0
20
0
34
23
1
0
2
0
0
5
0
12
0
0
3
3
1
0
0
0
0
21
0
23
0
0
0
7
0
5
0
0
0
11
1
5
0
17
0
0
7
1
0
8
0
14
0
0
18
0
5
0
7
9
0
16
0
0
0
0
8
0
0
0
0
0
0
5
0
20
2
12
6
0
0
1
2
3
0
5
6
0
9
0
0
14
0
0
2
0
13
0
12
0
2
4
0
0
0
8
0
0
9
0
12
0
0
16
5
4
0
0
0
89
0
0
0
29
0
19
48
0
0
41
0
0
0
17
9
0
0
75
5
0
2
0
0
0
0
2
0
0
0
44
9
0
0
6
17
22
0
3
0
2
0
18
1
0
0
17
1
0
8
6
0
25
15
0
0
25
3
0
19
13
0
0
0
10
14
20
21
0
0
0
28
0
0
0
16
11
0
0
0
31
0
0
0
2
0
0
0
0
26
0
0
0
14
48
9
0
0
40
3
28
0
0
16
12
7
0
0
4
12
7
8
0
0
0
14
0
0
31
0
0
0
5
17
14
0
0
12
6
0
2
11
9
1
0
27
0
7
33
4
13
0
0
5
0
0
5
30
12
12
0
0
8
21
0
0
8
0
22
0
0
4
13
6
1
5
0
2
0
0
0
8
3
1
0
10
0
7
8
7
0
15
0
0
0
16
6
0
9
10
13
1
4
0
1
41
0
0
16
12
3
0
14
16
11
0
27
12
0
0
0
0
9
1
28
22
28
0
0
1
0
0
38
0
14
0
13
5
0
0
0
17
7
0
0
8
0
0
0
10
0
0
0
0
0
2
8
0
2
0
2
0
2
8
0
3
2
0
0
2
5
0
0
0
7
8
0
2
0
3
26
10
0
0
0
2
7
0
0
0
0
0
9
22
5
0
0
9
0
19
4
0
39
113
0
0
0
16
0
0
0
11
10
0
15
0
13
6
6
0
13
32
0
0
0
2
0
34
0
9
0
0
12
23
8
0
10
0
0
0
0
0
12
0
9
26
13
0
0
8
0
0
1
7
0
0
0
5
0
3
0
0
6
0
0
0
6
0
5
0
0
18
0
0
0
7
3
6
0
1
5
0
0
9
15
0
0
0
0
6
9
0
0
0
0
6
6
0
9
0
0
153
91
0
5
0
14
1
0
6
0
5
0
0
0
4
0
16
7
0
12
6
0
0
0
21
0
0
16
0
0
8
5
13
0
11
0
0
0
0
6
7
0
0
0
2
6
0
11
0
0
0
0
6
0
0
3
13
4
0
11
0
0
5
12
0
5
10
0
0
0
3
3
9
0
9
0
4
0
1
0
1
0
2
7
0
0
0
0
14
7
0
0
0
7
6
0
0
1
0
2
1
0
4
2
0
4
9
0
0
13
0
10
6
0
19
0
0
8
0
0
0
84
6
1
28
0
39
29
0
0
32
24
0
0
35
10
1
0
13
0
0
18
18
0
0
41
0
0
11
1
0
1
11
0
0
19
12
0
0
0
22
17
36
4
0
0
0
0
0
0
10
27
0
0
13
0
0
5
27
0
0
13
3
0
16
26
60
0
0
0
0
5
20
17
0
11
0
0
22
3
17
0
10
13
0
7
0
0
0
8
0
0
12
0
6
0
35
0
0
0
22
11
25
0
16
0
0
0
0
5
27
0
0
22
14
0
6
6
0
0
17
10
0
0
32
14
0
5
0
0
16
0
20
7
12
0
0
0
6
0
0
21
6
10
16
0
0
0
0
12
8
0
8
0
10
20
26
0
0
0
17
6
0
0
0
7
8
3
0
9
12
0
0
20
2
11
0
0
3
3
2
0
0
0
5
0
0
2
0
0
0
0
18
13
0
0
11
34
0
0
35
0
0
6
0
9
0
9
1
0
0
0
26
21
26
33
0
0
0
0
0
21
24
0
0
9
0
0
0
6
15
1
2
8
0
3
2
2
0
15
0
0
0
0
3
0
5
0
3
0
2
0
0
9
0
0
8
0
5
15
0
0
9
0
0
0
0
8
9
0
12
18
0
0
0
0
0
16
0
0
8
0
3
26
13
0
0
1
0
11
0
0
7
69
64
0
14
14
0
0
19
0
0
0
0
0
35
0
1
0
0
12
0
0
22
27
0
0
0
18
0
0
0
0
0
5
0
0
6
0
0
0
11
8
20
0
9
0
4
4
0
4
0
5
0
10
3
1
6
0
0
0
14
0
5
5
14
0
2
0
13
0
1
2
8
0
19
0
0
0
7
0
0
0
0
7
0
0
6
4
6
0
0
12
11
6
0
6
2
0
21
0
146
91
0
17
7
0
25
0
3
0
0
12
0
7
1
5
5
10
0
22
0
9
5
0
0
0
0
15
0
1
0
2
2
0
0
27
0
9
8
0
0
12
3
9
3
0
13
0
0
13
0
22
0
0
21
0
0
0
3
0
10
0
0
15
0
1
0
10
9
0
3
6
0
27
2
0
2
0
0
6
0
22
0
14
5
5
0
4
1
0
19
0
0
9
0
2
16
0
0
19
4
1
11
0
0
15
0
10
0
0
17
0
6
0
0
0
5
4
0
0
0
64
13
15
0
0
19
24
0
11
60
17
0
0
0
0
25
9
0
0
0
16
0
0
13
0
0
10
12
3
10
4
0
0
32
12
13
0
0
0
15
13
0
0
0
0
2
0
0
17
26
20
18
0
0
29
11
0
12
7
0
5
9
3
0
29
35
0
0
14
3
0
8
0
15
0
0
0
4
11
0
16
2
2
20
0
0
0
0
10
2
3
8
15
0
0
46
7
1
0
0
27
34
12
0
0
0
18
15
0
16
0
0
0
0
24
0
0
16
16
0
6
17
0
0
0
31
28
5
0
0
3
0
13
11
20
15
0
3
0
0
0
2
25
10
18
0
0
0
0
0
28
13
21
0
2
9
0
0
0
0
21
17
0
0
0
16
2
9
0
15
0
0
0
6
4
7
0
0
11
0
4
16
0
0
19
7
0
8
0
0
0
30
0
41
0
0
45
0
0
8
5
11
4
0
12
0
0
0
0
19
26
21
22
18
0
0
0
0
17
35
8
0
8
6
0
0
0
13
0
8
0
0
0
2
3
0
1
11
0
7
0
0
1
0
6
0
4
0
13
0
0
5
0
14
0
0
6
0
3
0
0
2
2
1
0
0
11
0
0
21
0
0
2
0
0
18
0
0
0
0
0
38
40
0
1
7
0
5
8
7
0
21
110
0
0
0
0
0
23
0
10
0
0
25
0
0
23
0
0
0
0
0
15
0
0
7
15
0
0
0
10
0
8
0
0
4
4
0
11
0
13
4
0
3
8
0
10
1
0
7
3
2
0
12
0
12
0
2
0
9
10
0
10
0
6
0
8
6
1
0
0
5
0
0
15
0
0
0
0
0
18
0
6
2
2
0
0
10
0
0
0
0
0
0
2
0
14
0
5
0
16
152
106
10
0
0
0
0
1
3
20
0
7
38
0
3
0
0
2
0
16
0
0
8
5
0
20
0
0
0
14
1
0
0
2
0
1
3
6
0
15
3
0
0
0
0
12
2
0
9
2
2
0
1
16
0
0
0
12
2
0
3
15
0
0
4
0
22
0
10
0
0
0
11
0
0
14
0
5
6
5
2
0
13
0
0
13
0
9
0
19
10
0
0
3
0
13
0
4
7
0
0
9
0
7
0
0
4
0
23
0
0
3
0
15
0
0
6
0
2
0
0
79
9
8
0
55
6
0
39
19
22
0
66
71
0
0
28
57
0
0
33
0
0
0
0
12
0
11
21
4
0
0
13
10
14
0
0
0
9
27
0
0
0
0
12
6
0
0
24
2
22
0
0
0
0
0
16
6
13
14
0
0
24
37
12
0
0
5
0
0
37
1
0
7
0
11
0
12
0
6
35
0
0
0
0
0
0
0
22
0
0
42
31
0
0
0
0
34
20
0
0
0
10
0
0
21
23
17
1
8
0
5
0
0
0
0
0
18
0
0
5
0
3
0
0
0
0
0
31
14
0
0
0
0
11
6
0
10
0
9
17
2
0
0
24
1
0
20
0
0
26
0
27
0
0
0
0
5
32
0
0
0
12
6
0
1
0
10
7
1
10
0
19
0
5
0
3
9
0
0
0
0
10
0
3
0
2
19
11
0
13
21
0
5
0
25
0
30
27
0
0
36
0
0
0
0
0
0
5
24
25
24
39
0
0
2
0
0
33
16
0
17
3
0
2
4
0
21
0
5
3
0
9
0
10
0
12
0
9
0
0
2
0
0
2
2
0
7
3
0
2
0
0
1
0
9
0
2
6
0
4
0
5
0
10
0
11
0
0
15
17
0
0
12
0
9
0
0
0
0
0
23
52
0
0
0
0
8
10
2
0
6
53
63
0
0
21
0
0
49
0
10
14
29
0
0
21
0
9
8
5
32
0
0
5
2
0
0
13
0
7
3
0
0
0
4
0
28
0
0
0
18
1
29
11
1
1
12
0
10
4
0
4
0
2
15
0
23
0
11
0
2
0
5
0
0
0
8
0
8
0
11
0
23
0
3
0
0
1
16
0
0
7
7
9
0
0
5
1
0
3
5
2
9
0
3
0
0
0
0
1
6
151
95
0
10
0
18
0
0
12
0
19
0
0
2
0
9
2
0
12
1
11
0
6
0
0
0
0
9
0
0
5
6
12
6
2
0
3
0
11
9
0
6
1
25
0
0
0
0
11
0
0
0
0
7
1
13
0
0
8
0
0
0
0
12
0
0
0
0
0
0
0
1
0
4
0
13
0
4
0
15
0
3
0
7
0
0
32
0
12
0
0
0
18
0
5
0
7
0
0
3
13
0
1
5
2
0
8
1
5
3
2
8
0
0
13
4
18
0
0
0
6
82
11
0
28
0
0
0
39
0
0
3
39
5
0
14
11
0
0
38
7
1
9
0
18
0
13
12
0
0
0
0
53
6
11
0
0
21
7
0
13
0
24
11
5
0
0
0
25
5
0
0
11
10
17
0
0
2
0
0
0
0
39
63
0
0
0
4
0
21
28
0
0
4
5
0
3
0
9
2
0
22
0
15
31
0
0
10
0
28
15
0
6
3
0
0
0
11
19
19
9
0
0
0
32
0
7
20
0
8
7
0
0
8
0
0
4
7
21
0
0
14
0
0
30
0
0
0
11
0
24
0
0
0
0
0
6
8
7
5
0
17
3
0
0
13
9
4
20
16
17
0
0
2
0
13
20
0
17
0
2
0
0
2
13
0
0
6
8
0
0
16
0
15
0
0
11
0
9
0
0
0
0
4
0
0
0
0
25
0
0
0
0
6
0
33
0
0
36
8
0
28
0
25
0
0
0
0
28
39
18
3
0
0
0
0
33
16
0
0
0
0
0
15
11
8
10
0
0
8
0
0
0
0
3
0
0
1
0
0
5
0
8
6
0
0
0
4
0
0
1
1
13
0
0
3
5
0
15
0
0
8
0
0
5
0
9
0
0
37
0
8
0
12
0
4
0
0
0
0
34
72
0
0
0
12
0
10
0
0
6
11
105
0
0
1
0
12
5
0
44
0
0
0
33
0
1
0
45
0
0
2
0
16
0
0
14
0
8
9
0
0
0
0
0
19
27
17
6
0
11
0
12
0
2
1
6
0
1
6
0
0
3
0
10
0
4
0
0
3
0
2
2
0
6
14
0
3
1
0
7
0
0
7
4
1
0
0
0
5
9
5
0
3
0
3
8
0
7
0
0
2
1
0
4
0
1
0
5
8
10
0
160
85
0
6
0
0
1
15
7
8
0
1
18
0
8
0
22
0
13
0
0
0
0
12
0
12
0
0
10
3
0
0
0
0
2
1
0
10
5
0
4
0
3
0
0
0
18
0
0
0
7
3
17
0
7
0
0
9
0
12
0
17
0
0
19
1
0
26
0
8
0
19
0
6
0
18
1
0
1
0
0
0
0
0
10
0
0
0
0
1
9
0
2
6
0
12
0
16
0
5
0
3
0
20
0
0
0
1
4
0
11
0
15
14
0
15
0
20
4
0
0
68
17
0
29
0
59
22
0
0
55
0
0
0
0
0
12
0
0
7
0
0
21
0
8
9
2
4
0
0
3
37
0
0
12
0
16
30
5
2
0
12
18
0
0
18
17
25
0
25
3
0
0
10
14
0
0
5
12
0
21
45
22
0
0
0
0
9
24
9
0
19
4
0
0
17
0
13
0
0
0
18
0
0
0
30
0
3
30
0
9
0
0
0
0
0
0
0
6
43
0
0
0
31
8
15
0
0
17
13
0
2
19
0
0
4
2
0
0
7
2
0
0
10
0
16
0
3
0
2
9
13
10
0
0
6
7
0
24
3
0
0
19
20
0
0
17
5
2
44
0
0
0
0
0
18
0
1
3
0
5
0
4
3
7
20
0
6
3
5
7
0
8
16
0
7
0
14
0
4
14
0
0
5
9
15
0
0
12
0
0
19
2
0
0
4
18
0
24
9
0
7
0
0
0
8
17
15
48
0
0
0
0
0
9
14
0
0
3
5
0
0
9
20
1
4
0
9
0
0
18
1
4
0
0
0
3
12
0
11
0
0
5
0
0
12
3
0
0
0
4
0
0
2
4
0
2
2
0
0
7
0
0
11
0
3
3
0
25
27
0
1
0
0
0
0
0
1
0
29
66
0
0
0
0
0
12
0
17
0
0
39
112
0
0
31
8
0
0
55
0
57
0
15
0
3
0
23
0
2
0
17
0
32
0
0
8
0
19
0
0
21
1
0
6
0
0
0
0
20
0
13
0
6
7
0
11
1
10
0
0
1
0
19
0
7
6
0
7
1
3
0
11
5
5
0
0
2
8
3
0
0
6
0
10
4
0
4
2
0
0
15
0
0
11
0
0
4
0
7
0
25
0
8
6
0
0
13
0
0
9
1
148
112
13
3
15
0
9
0
44
0
0
14
0
23
0
7
0
0
0
21
1
0
5
20
0
0
0
0
2
0
0
6
0
14
8
0
8
0
0
0
12
0
2
0
14
0
5
0
7
12
0
16
0
2
0
8
16
0
0
9
0
13
0
7
0
0
21
0
16
0
6
0
0
17
0
0
0
10
3
15
0
21
13
7
0
15
0
0
14
5
3
9
0
0
11
0
0
5
0
1
14
0
4
0
4
2
3
14
0
11
16
0
0
5
6
0
0
0
0
0
0
85
7
15
0
32
37
17
0
21
11
17
0
17
27
7
0
47
0
7
0
0
23
19
0
20
0
0
6
2
45
0
0
0
0
21
9
0
0
1
5
24
0
0
0
25
19
0
0
0
0
15
0
1
5
15
0
0
0
0
30
29
0
0
3
5
0
11
2
16
0
0
9
0
1
9
16
0
0
4
0
17
5
0
0
0
31
21
8
0
0
5
15
0
8
39
0
11
0
0
0
1
18
0
30
11
16
0
0
0
14
1
0
26
0
0
0
0
0
13
7
3
0
35
0
0
25
0
0
0
0
4
16
37
0
0
0
0
0
4
4
0
0
12
28
0
7
22
0
0
13
0
15
10
0
0
10
0
22
4
1
15
0
17
0
17
0
0
0
21
2
11
0
0
11
0
0
0
21
9
0
0
3
6
0
19
0
2
0
5
23
5
12
6
1
0
43
0
0
47
0
0
1
9
10
23
25
20
0
0
0
0
38
14
20
0
0
2
0
0
15
9
9
0
0
3
0
0
1
0
9
1
0
7
0
3
14
0
0
6
0
10
0
6
5
0
3
0
0
5
2
12
4
0
0
5
0
2
2
0
8
4
0
8
0
10
0
0
44
0
0
0
0
0
0
17
3
0
17
84
0
0
0
0
1
0
17
0
0
0
6
73
50
0
0
0
29
0
0
0
0
24
4
0
66
0
0
0
16
0
9
0
6
0
2
17
0
0
25
0
0
1
0
19
0
20
28
0
0
4
0
29
6
12
0
16
0
0
0
0
4
7
4
3
6
0
0
3
0
0
6
4
0
6
0
8
9
0
0
1
7
0
10
5
0
0
0
14
0
22
2
0
19
10
0
23
0
2
14
0
3
0
2
1
3
0
8
0
0
6
0
2
167
92
0
0
14
12
0
13
0
0
2
14
0
0
0
5
6
10
17
0
0
10
13
0
20
0
6
8
0
2
0
7
8
3
0
6
0
1
0
2
0
11
0
0
3
0
0
0
0
9
0
0
14
4
0
6
0
0
12
1
5
0
0
0
4
0
7
0
0
2
0
0
14
7
8
2
12
0
0
12
0
0
0
37
0
9
3
5
1
0
1
4
0
0
7
0
10
0
9
0
4
0
8
0
0
0
15
0
1
0
7
16
0
6
0
14
5
0
0
0
24
73
6
0
0
13
24
0
60
14
24
0
65
45
46
0
0
34
0
0
13
7
19
0
1
0
9
0
0
22
0
2
0
0
11
27
6
0
7
15
12
0
0
0
34
8
9
11
0
0
0
14
8
0
0
6
0
0
16
49
24
0
0
5
0
0
7
0
0
0
6
5
13
13
0
0
12
11
3
0
0
21
16
7
0
21
0
25
0
0
0
31
0
23
0
0
21
3
0
0
16
45
2
0
0
6
9
22
0
0
10
0
1
0
27
0
0
16
0
11
0
0
5
0
13
19
0
6
8
0
0
0
0
46
17
0
0
0
4
0
6
11
9
29
0
13
0
0
2
0
17
8
0
0
17
0
0
20
0
27
1
0
21
11
0
0
37
0
0
5
17
0
15
1
0
6
16
0
0
0
14
0
2
7
17
0
13
17
5
0
4
10
0
0
16
0
4
10
0
0
0
0
13
0
42
33
0
0
0
0
0
33
0
0
0
10
4
0
16
4
0
7
0
5
0
1
16
3
18
0
0
0
10
0
19
0
0
0
5
0
12
5
2
0
0
3
0
2
1
0
13
0
6
0
0
15
0
0
2
1
7
2
4
0
7
0
0
19
37
0
0
12
0
0
12
0
5
10
84
0
0
0
7
0
0
9
10
0
16
0
32
102
0
0
0
10
0
0
2
0
0
5
0
0
35
8
11
15
0
0
1
0
0
30
0
0
15
4
0
0
5
15
0
0
10
4
0
0
8
8
2
0
6
1
8
0
10
3
0
21
0
0
0
2
12
0
15
0
14
0
0
5
0
0
10
15
0
12
3
0
1
0
4
0
0
12
0
0
6
0
2
0
0
0
9
0
13
4
0
2
5
9
0
0
9
0
9
2
0
0
0
0
149
104
6
7
0
0
0
8
0
3
6
0
18
0
0
11
0
0
0
13
0
0
0
7
0
0
0
0
5
3
12
0
3
0
0
2
7
0
21
0
0
0
5
0
8
0
10
11
0
0
0
2
0
3
0
2
4
0
0
7
0
0
10
0
17
0
20
0
0
0
17
0
0
0
0
9
0
2
1
10
0
15
0
0
0
0
9
0
4
0
0
0
41
0
0
2
7
4
0
3
0
8
0
0
11
0
0
17
0
0
8
8
0
8
1
0
6
0
0
0
17
56
0
0
20
23
0
5
8
43
0
0
35
49
0
5
0
11
0
14
48
11
0
0
0
2
0
19
1
3
0
0
0
50
0
0
0
0
5
21
0
0
0
30
18
9
0
3
0
22
2
0
19
8
0
0
16
1
14
37
0
0
17
26
0
0
34
0
0
0
0
0
0
20
11
0
0
0
22
2
0
0
0
35
13
37
0
36
0
2
0
20
14
0
7
0
14
0
0
3
25
0
30
20
0
0
0
0
26
9
0
0
8
24
0
0
28
0
4
0
19
16
0
4
3
4
3
0
0
11
8
0
0
22
8
31
7
0
0
0
9
20
16
0
0
0
0
14
23
18
12
19
3
3
18
19
0
0
0
0
21
0
21
15
0
0
26
5
0
0
0
23
2
5
13
0
5
0
2
0
0
6
2
0
8
0
0
25
0
3
0
28
0
0
2
0
0
17
0
0
13
23
22
40
37
0
0
0
0
34
24
0
0
14
0
0
6
19
13
1
0
0
0
0
8
0
4
5
0
0
0
4
0
4
5
0
18
0
3
5
0
0
0
0
9
0
0
0
11
0
0
1
0
1
0
9
0
0
0
0
3
0
3
0
9
0
7
45
0
0
0
0
13
9
0
3
11
73
0
0
0
0
0
13
5
0
0
0
0
3
53
101
0
0
19
0
10
0
18
0
0
14
0
3
48
0
0
0
0
10
0
8
0
0
0
21
7
0
20
0
0
0
0
13
0
0
0
0
0
0
35
0
0
19
0
13
5
2
0
0
2
15
0
2
0
7
0
10
0
2
8
0
19
2
0
0
7
5
0
5
0
1
0
0
10
3
0
2
3
6
11
0
6
4
0
1
0
0
0
2
0
25
0
7
9
0
15
1
0
0
19
0
173
85
0
0
20
3
0
0
0
9
2
0
1
10
0
1
15
7
9
0
4
0
39
0
0
4
0
8
1
7
0
19
0
0
6
1
0
0
3
0
0
0
9
3
0
0
6
0
15
0
7
9
0
4
3
0
3
9
0
11
6
4
0
6
0
16
0
0
6
13
0
0
4
0
16
0
0
10
0
11
0
0
0
2
19
1
17
2
3
11
3
0
0
1
9
1
3
0
16
2
19
0
0
11
0
5
4
0
6
28
0
0
2
4
0
9
0
10
0
0
31
77
0
19
32
0
25
36
8
0
42
15
24
0
0
25
44
0
0
28
26
0
53
7
16
0
1
0
4
0
0
27
6
4
7
0
30
6
0
0
0
0
44
21
0
0
13
0
14
0
14
0
0
34
0
1
16
67
0
0
0
2
0
0
0
17
0
25
0
0
0
11
11
0
1
32
0
0
4
31
0
0
7
0
66
0
0
16
25
0
15
0
8
11
16
0
0
0
0
0
0
45
0
9
13
6
0
0
0
0
28
0
0
3
21
2
18
0
0
8
0
19
0
0
0
0
0
7
18
0
11
12
0
0
0
4
18
6
6
22
0
0
0
0
32
24
0
1
0
8
0
0
10
0
6
0
6
11
0
0
25
10
0
0
5
0
0
23
0
14
0
5
25
0
0
16
0
12
0
0
6
0
42
3
8
0
0
0
46
0
0
18
6
9
0
0
0
12
0
16
20
52
11
0
0
0
0
20
19
0
0
8
27
0
0
20
9
0
0
4
0
8
6
7
0
0
0
3
2
5
6
5
3
2
0
0
2
0
4
0
0
10
0
0
2
4
5
0
0
2
0
0
11
0
6
0
0
0
5
0
3
0
2
2
0
0
19
28
0
0
0
16
0
0
0
2
84
0
0
2
0
0
0
11
9
14
3
0
0
11
63
67
0
0
0
0
5
0
0
1
1
4
0
8
0
0
22
0
34
0
0
1
15
0
39
0
0
5
11
0
0
0
16
7
0
0
0
2
3
11
0
10
16
0
0
5
0
0
6
0
0
7
10
3
2
0
11
3
0
0
0
9
0
8
5
4
4
9
0
0
0
13
0
9
0
0
4
0
0
3
0
15
7
1
5
6
0
3
0
0
0
0
0
7
0
0
0
0
17
0
6
0
151
98
0
38
13
0
0
35
0
0
0
3
14
0
15
0
0
4
0
13
0
0
0
4
15
0
0
0
0
2
0
0
0
5
7
10
0
0
0
0
0
14
0
0
9
0
0
9
0
17
0
5
2
0
5
1
2
0
6
4
7
0
0
0
9
0
3
0
6
0
7
10
0
9
3
5
16
0
0
3
0
16
2
0
6
0
0
0
0
8
0
0
0
0
0
13
0
0
0
0
0
12
0
0
0
14
5
5
0
0
0
21
0
18
0
0
0
0
0
0
80
33
3
17
0
36
11
24
0
0
14
12
0
0
10
0
5
0
41
5
0
0
52
0
0
0
22
21
0
0
20
0
11
1
0
13
8
0
11
0
0
29
0
5
0
11
0
7
0
19
0
0
0
0
7
0
24
2
0
1
24
15
0
0
17
0
0
14
0
21
0
0
3
0
10
9
3
0
0
0
17
38
14
0
8
0
0
0
3
38
0
9
2
9
14
0
0
26
31
0
8
0
0
9
6
15
4
7
0
0
5
39
0
0
0
42
12
34
0
0
0
0
0
2
0
3
11
0
0
31
0
14
7
0
0
0
26
25
46
0
0
0
0
8
0
45
22
0
5
0
0
9
0
0
0
33
0
6
9
0
1
19
3
0
27
0
0
0
26
0
0
0
4
3
7
0
0
20
6
0
0
3
0
9
4
0
9
0
26
2
0
10
0
0
0
0
10
6
12
36
27
0
0
0
0
7
36
0
0
0
13
0
0
1
3
5
6
10
0
5
1
0
0
0
0
8
0
0
15
0
1
0
2
0
2
0
0
0
12
0
0
0
5
0
0
0
8
0
4
0
0
11
0
1
7
5
4
0
0
0
0
0
0
7
12
0
51
0
0
3
1
0
0
8
26
67
0
0
0
0
21
0
28
13
0
0
0
0
2
32
100
0
0
7
0
17
0
26
0
0
6
0
2
0
4
13
0
0
0
19
0
0
3
0
0
20
3
0
0
0
0
2
0
0
33
0
0
26
0
5
4
21
0
0
0
0
0
0
7
9
0
0
3
0
2
0
0
10
0
3
0
0
0
6
2
0
0
0
14
0
8
0
4
0
18
0
3
0
10
0
10
0
0
0
2
0
5
1
0
0
4
4
8
0
0
11
6
0
8
9
0
0
178
101
5
0
4
11
0
0
0
0
9
5
1
12
0
5
0
12
0
4
3
30
0
3
0
0
18
13
0
0
10
1
0
2
0
0
0
0
4
2
0
10
2
1
4
0
0
0
0
0
0
10
0
9
6
0
3
0
0
5
0
26
0
0
7
0
7
0
0
4
0
5
0
0
0
15
0
0
12
18
0
2
0
12
0
8
7
2
13
0
4
3
0
15
15
0
0
2
0
3
12
0
16
14
0
0
5
0
1
29
0
10
0
0
4
2
0
24
0
0
99
36
0
0
0
23
15
0
0
29
32
0
0
72
27
0
0
19
0
0
0
24
16
0
0
17
0
24
0
1
12
0
2
0
31
15
0
0
7
25
6
12
9
7
1
5
3
0
17
1
9
0
15
0
26
75
5
0
8
28
17
0
0
23
0
0
16
0
0
0
36
0
0
2
0
0
0
0
46
0
0
41
0
0
0
17
13
7
0
12
6
0
1
6
0
0
19
3
3
46
0
0
0
0
21
0
9
8
0
0
0
9
23
18
0
0
34
0
26
7
0
1
7
0
0
0
0
10
0
0
7
3
4
28
0
0
5
42
0
0
0
0
32
26
0
0
6
26
0
7
0
3
12
0
0
0
0
19
18
9
0
17
7
0
2
0
7
0
13
25
4
0
0
0
0
1
16
3
0
7
11
0
0
6
4
19
0
0
0
31
0
0
0
0
0
0
17
26
24
11
0
0
0
23
29
9
0
9
12
7
3
8
11
0
14
0
1
0
0
0
6
0
3
0
18
0
2
1
0
2
0
2
0
0
13
0
0
0
6
1
3
7
0
18
0
1
0
3
0
6
3
0
12
0
0
1
3
0
7
0
0
10
0
4
0
32
29
0
0
0
0
0
9
20
41
0
0
0
5
0
9
13
5
10
1
0
4
0
16
50
93
0
0
0
25
0
8
0
24
0
15
0
21
0
0
5
2
75
0
0
7
13
0
0
0
5
12
0
0
0
20
0
26
8
0
31
4
6
0
5
22
0
0
7
8
0
4
1
0
0
10
0
3
11
0
10
7
0
1
28
0
5
4
0
6
4
0
4
0
0
0
0
2
15
0
0
13
0
0
13
0
13
0
0
4
3
0
11
3
0
0
13
0
1
8
0
11
0
7
0
0
2
147
89
0
0
0
0
0
0
9
6
0
0
0
0
36
0
4
0
0
0
8
0
0
0
8
0
0
0
0
17
2
8
0
12
2
7
1
9
0
1
4
0
0
0
8
7
0
0
2
2
4
0
7
0
3
23
0
4
0
0
0
0
9
0
0
19
0
5
0
0
14
0
0
14
12
0
0
1
0
0
33
0
6
0
9
0
11
0
7
0
24
0
0
1
0
10
8
8
0
0
0
0
4
11
0
0
11
4
0
2
5
0
0
1
0
6
9
0
0
0
69
27
0
0
20
21
0
0
19
43
0
0
0
9
11
0
53
8
0
0
57
4
1
0
20
9
0
0
4
0
16
0
0
0
0
0
0
0
20
32
7
26
0
0
0
0
14
0
0
0
5
0
16
0
27
14
0
0
20
24
0
0
11
13
5
24
0
0
18
13
11
4
0
0
0
18
0
22
22
19
0
0
2
26
0
0
33
0
2
0
23
15
0
0
0
12
22
0
0
0
31
0
0
4
0
13
0
0
10
14
0
0
0
46
0
3
0
5
8
10
0
0
12
4
0
16
6
0
0
13
0
4
1
23
5
0
0
0
0
12
0
12
10
2
36
0
0
0
7
10
20
11
0
10
2
0
0
0
2
38
0
0
39
14
0
16
24
0
0
0
17
8
0
0
0
6
0
22
13
0
3
1
0
0
38
0
21
0
0
23
0
1
0
11
0
14
34
25
0
0
0
0
34
25
0
0
18
5
0
0
15
13
0
7
0
4
0
4
17
11
0
2
0
22
0
0
1
0
5
0
0
4
4
0
2
9
0
9
0
5
0
0
3
0
0
10
0
9
0
4
0
1
3
0
8
0
9
0
8
2
7
1
0
6
0
57
0
0
0
0
0
0
26
37
0
0
0
0
19
18
8
20
33
0
0
0
4
13
11
74
48
0
0
2
10
26
0
22
0
12
0
0
0
26
13
0
0
21
67
0
0
0
0
0
10
0
0
21
16
0
0
0
7
0
0
0
15
0
20
0
10
0
16
0
4
0
10
0
6
0
0
1
2
0
0
0
8
1
0
0
3
3
0
15
0
0
20
0
8
0
5
0
0
2
3
5
0
16
9
0
3
3
0
4
0
1
7
2
3
0
7
0
13
0
0
2
8
0
4
6
1
0
171
95
1
0
23
24
0
0
0
0
5
0
14
16
0
15
0
17
0
15
0
0
5
7
0
6
8
0
7
0
0
0
0
0
0
9
0
0
8
0
16
0
0
4
0
4
0
8
6
0
2
2
0
1
16
0
18
0
14
7
16
7
0
0
11
0
0
8
0
0
19
0
0
6
6
0
20
0
17
9
0
4
0
8
0
19
0
7
2
18
0
0
6
18
2
0
29
0
0
9
2
0
0
3
0
5
0
0
11
0
5
1
22
0
0
2
0
0
0
0
88
4
0
36
31
0
0
32
48
0
0
47
0
0
0
45
49
0
0
2
32
0
0
78
0
0
0
32
15
10
0
0
21
18
2
0
0
12
14
0
0
13
20
6
0
7
0
13
0
10
0
25
0
31
0
0
0
15
0
0
0
9
38
15
0
5
0
0
8
6
14
0
0
0
0
0
33
44
0
20
0
0
1
2
10
14
0
6
0
17
4
4
0
2
8
0
0
0
20
0
0
28
10
0
0
3
0
0
21
12
0
0
0
0
17
23
0
0
0
0
0
23
24
3
9
4
0
24
8
0
13
18
40
0
0
0
8
3
6
9
16
0
0
0
34
21
0
0
0
6
0
10
0
7
8
0
0
0
0
0
43
0
0
30
0
0
14
20
0
0
6
35
5
0
0
7
0
0
12
9
0
0
0
15
0
10
0
0
0
0
0
10
7
17
22
43
20
0
0
0
38
11
0
0
11
13
17
0
0
15
0
6
0
6
0
12
6
0
0
0
0
0
17
0
1
2
0
6
0
5
1
6
0
0
0
0
6
0
7
1
0
7
0
0
9
0
6
0
7
0
0
6
0
6
0
1
0
5
0
0
0
0
1
0
36
3
0
0
0
0
0
26
57
0
0
4
0
16
12
28
28
6
0
0
0
0
17
12
34
96
0
0
10
1
0
0
11
34
0
14
1
0
0
19
0
0
0
0
0
15
13
0
5
0
20
15
0
0
4
0
0
45
0
0
0
6
1
8
12
9
0
17
0
4
0
4
0
1
3
16
15
0
0
16
0
11
0
0
0
15
0
8
5
0
0
1
0
0
2
0
17
0
6
0
0
5
0
0
0
4
1
2
14
0
18
0
4
0
1
5
0
3
5
0
8
0
2
13
0
0
11
10
146
106
8
6
0
1
10
0
16
0
0
4
0
0
0
5
4
0
0
0
7
0
0
24
0
6
0
2
12
0
21
0
0
3
1
7
0
0
0
0
0
0
14
0
4
11
0
0
0
3
10
0
0
0
7
0
12
0
0
5
0
0
0
0
0
4
0
13
0
0
0
0
11
3
0
0
0
0
0
9
0
0
24
0
10
0
0
1
0
4
0
11
4
0
4
0
0
0
0
0
4
0
0
2
0
0
19
0
0
0
0
16
0
17
0
16
0
0
0
4
98
0
7
24
0
0
2
34
0
0
1
0
39
0
20
0
4
0
70
19
0
0
20
6
0
0
0
55
0
0
3
0
16
0
0
0
0
34
12
7
0
0
9
1
3
0
0
3
12
0
8
19
44
0
0
0
30
10
0
0
17
0
15
0
0
0
14
2
0
0
10
4
0
0
16
42
4
0
0
0
0
0
0
12
0
0
13
15
21
0
7
0
14
3
31
3
1
0
16
22
0
0
23
8
0
0
3
0
32
19
11
0
0
0
0
8
19
0
11
12
0
0
7
45
6
34
16
0
42
34
4
4
0
0
21
22
0
39
19
0
5
8
0
2
0
15
7
0
14
0
7
0
16
1
0
0
12
6
0
0
25
18
0
0
17
0
0
4
22
17
0
0
17
9
1
11
0
3
0
18
0
10
0
0
3
11
0
3
0
0
22
0
15
37
18
0
0
0
16
11
0
0
9
16
6
0
2
15
0
12
0
0
3
1
2
0
0
0
0
0
1
6
0
3
0
5
0
9
14
0
10
1
1
0
6
0
0
12
0
5
3
0
6
0
0
0
2
2
0
4
0
1
0
0
11
0
5
0
1
10
0
6
0
4
42
0
0
0
0
0
38
50
0
0
0
0
26
26
35
21
0
0
0
0
0
4
7
8
63
93
0
0
0
0
12
0
0
1
0
0
0
16
0
0
4
44
9
0
0
0
54
0
0
19
0
0
12
0
0
0
46
2
0
0
6
9
22
11
0
2
0
0
7
4
0
0
0
13
0
0
2
6
0
0
7
2
2
5
4
4
0
0
4
0
14
0
0
11
4
0
0
3
0
27
0
0
0
5
0
0
0
7
0
14
0
9
0
4
0
0
4
1
0
5
0
12
0
0
0
7
0
4
159
92
0
6
0
20
0
3
12
0
7
3
0
37
0
0
0
15
0
23
0
11
9
0
0
0
10
0
0
12
0
8
1
0
0
3
0
14
0
19
0
15
0
4
0
1
11
0
0
0
0
1
5
2
0
4
4
10
0
9
4
10
3
6
18
15
0
0
9
0
32
0
0
5
13
2
0
5
0
6
4
0
0
18
0
0
8
0
0
1
32
0
0
17
0
8
0
4
0
3
0
18
0
3
16
4
1
5
0
29
2
10
0
5
0
9
0
0
0
25
87
6
2
0
0
37
27
0
0
49
0
37
0
0
26
38
0
0
35
30
0
22
22
19
0
6
0
0
0
0
13
11
0
0
0
24
6
10
0
22
8
0
0
16
15
0
8
0
10
0
19
39
0
0
0
12
0
0
0
27
20
0
3
0
16
4
0
23
25
0
0
0
0
9
37
0
0
0
0
7
0
22
0
0
40
0
0
49
18
0
0
27
9
14
0
0
18
0
0
0
3
17
0
14
11
4
0
0
0
19
25
23
0
17
2
39
19
0
21
0
0
0
0
0
0
7
57
0
28
48
0
0
15
0
2
6
18
0
0
30
0
16
4
9
8
0
0
3
19
13
0
10
0
29
0
8
15
11
0
0
8
20
8
0
23
29
11
0
8
32
0
0
0
13
26
0
7
0
0
13
10
0
0
0
0
0
0
0
17
23
0
40
37
1
0
0
0
26
17
0
20
18
0
8
2
14
2
1
15
0
12
6
0
0
2
0
0
2
0
0
0
0
6
3
9
0
1
7
0
0
5
2
0
12
0
1
7
0
6
0
0
4
9
0
12
0
0
0
4
0
0
10
0
4
0
0
2
10
0
2
0
24
0
43
0
0
8
0
9
44
31
0
0
0
15
38
26
66
0
0
0
0
0
2
0
0
14
18
88
0
0
0
6
1
11
0
10
0
16
7
0
0
2
8
0
9
13
0
17
0
37
24
2
0
0
42
0
26
18
0
0
0
3
0
9
1
9
1
16
0
34
0
9
6
0
0
0
3
0
20
0
0
13
0
5
0
0
4
0
0
8
0
0
18
0
13
4
0
0
5
0
4
0
0
0
9
1
0
0
6
1
0
0
0
4
1
0
7
4
0
0
19
1
0
10
0
0
0
2
5
3
0
147
92
0
0
0
4
0
7
0
18
10
0
0
0
0
14
0
3
5
0
0
6
0
7
0
0
0
2
0
0
7
0
11
2
3
5
3
0
10
0
0
3
0
7
0
5
0
0
19
0
4
12
0
10
0
0
9
0
11
13
7
0
2
10
0
21
1
0
0
2
15
0
11
0
0
0
0
8
0
0
0
0
0
19
0
0
0
3
8
0
0
0
0
0
0
0
18
1
9
3
6
0
3
4
0
0
1
0
23
0
7
0
0
0
9
0
0
0
0
9
64
5
0
0
32
29
0
0
15
60
8
0
37
40
17
0
50
17
0
0
0
8
28
1
0
50
0
0
0
0
13
2
0
0
0
63
1
24
2
0
12
0
0
7
3
26
0
0
0
15
25
2
0
0
23
16
0
0
22
11
11
18
0
0
0
7
0
24
0
0
0
21
30
11
0
0
0
0
29
9
0
17
6
0
8
9
0
0
31
0
8
6
0
5
22
0
0
5
0
0
0
7
23
0
0
41
12
0
0
19
0
2
18
18
18
0
0
0
0
12
18
0
0
0
6
0
0
0
0
0
0
32
37
31
0
0
17
23
0
0
17
0
0
1
6
16
0
12
3
0
20
0
0
0
6
0
18
0
4
0
0
2
30
0
0
0
8
0
0
0
20
13
0
0
9
27
0
6
0
9
19
0
9
6
0
0
0
28
22
0
39
13
0
0
0
36
0
0
2
24
2
0
26
1
11
0
0
7
0
0
0
1
3
0
4
0
11
0
5
14
0
0
5
0
7
0
3
10
0
2
0
4
0
1
2
0
0
5
2
0
6
0
0
11
5
0
12
2
0
4
2
0
14
0
1
0
7
0
0
4
6
0
24
52
0
0
0
7
44
28
0
0
20
45
68
38
10
0
0
0
0
0
20
0
15
13
10
36
93
0
0
0
0
9
1
0
18
0
0
15
0
4
0
0
45
0
34
0
14
17
0
7
20
0
20
0
0
0
3
15
0
6
0
11
0
3
17
0
0
1
0
2
0
0
0
4
0
6
6
0
0
8
0
8
0
12
2
5
0
15
0
9
0
0
1
0
0
7
7
0
2
0
5
0
11
2
0
5
3
6
0
0
3
0
8
0
11
0
2
8
10
0
7
0
0
1
14
8
0
8
0
6
158
93
0
3
1
5
0
5
0
0
0
17
0
9
0
0
0
4
0
0
0
13
2
10
12
13
0
27
0
0
0
6
0
6
1
9
0
1
6
7
2
0
16
6
2
0
0
10
0
1
6
0
0
0
5
0
11
3
0
11
0
11
27
0
0
0
0
0
0
10
0
11
0
0
0
12
0
21
0
13
0
17
0
0
7
0
0
0
11
0
20
0
0
20
0
12
0
0
10
0
0
27
0
5
4
0
0
0
0
20
0
0
0
9
21
0
0
0
0
0
74
0
0
19
33
0
0
14
59
21
0
5
37
29
0
0
54
25
0
0
31
0
0
0
0
15
0
0
49
0
0
0
0
0
10
30
0
12
7
4
0
31
0
0
0
0
16
0
20
42
0
0
0
25
10
0
0
0
17
19
0
4
4
0
0
5
14
0
1
2
2
12
57
0
0
1
18
0
12
3
12
0
36
0
0
34
14
0
0
0
9
16
0
0
9
23
20
0
14
20
0
9
58
28
6
17
60
54
26
0
7
13
9
0
25
0
0
6
22
0
0
0
1
28
13
48
0
3
11
0
0
56
32
1
7
0
0
0
17
0
0
0
0
0
7
1
22
0
13
6
0
15
0
0
0
13
0
11
0
18
0
0
11
1
9
0
0
30
22
0
0
8
8
0
0
18
19
4
0
0
23
9
7
0
0
8
25
2
39
17
0
0
0
9
5
0
0
30
9
7
0
1
9
9
0
10
4
0
1
0
0
0
0
12
0
11
0
3
0
0
13
12
0
2
0
0
0
3
0
5
4
7
0
0
0
0
13
2
0
6
0
1
0
0
0
1
0
3
3
0
0
3
0
0
0
4
2
0
0
4
0
10
44
0
0
0
9
41
0
0
0
48
54
28
0
0
0
0
0
0
0
0
0
0
0
6
17
50
91
0
0
13
20
0
0
7
0
0
17
0
25
34
0
0
0
29
0
14
0
0
0
40
10
0
16
0
0
0
0
0
23
0
14
0
9
15
0
15
4
0
0
2
0
7
0
0
7
0
10
0
9
1
10
0
0
2
0
9
3
0
0
0
6
0
1
0
22
0
13
0
0
0
3
7
0
3
1
0
0
2
0
7
8
0
4
0
0
12
0
0
0
0
0
15
0
15
0
0
8
0
5
0
149
97
1
0
6
1
0
10
9
12
0
3
0
0
0
0
0
0
4
17
0
0
0
6
0
0
18
0
1
13
0
0
2
0
0
4
8
0
0
3
1
1
3
0
0
2
15
0
0
0
0
4
0
5
0
2
0
1
0
8
4
21
0
7
0
11
0
13
1
0
0
0
36
0
11
1
0
0
11
3
17
0
8
0
14
12
3
0
0
5
0
8
0
12
0
6
0
0
0
0
2
0
15
0
12
0
2
0
6
0
4
0
12
0
0
5
0
0
0
36
83
0
15
28
0
0
22
40
40
0
18
13
25
0
15
9
12
0
0
54
3
0
0
71
0
17
0
15
36
8
0
0
0
18
24
1
0
4
14
4
0
26
0
0
0
0
29
0
34
33
0
0
40
0
17
0
0
35
1
0
0
0
0
4
7
0
15
0
0
3
23
0
0
0
3
0
15
20
0
0
4
0
23
27
0
0
21
0
0
27
0
0
5
14
0
15
0
33
24
24
27
59
0
0
0
0
0
0
0
9
0
26
4
0
14
39
26
8
18
5
0
37
31
8
0
47
9
0
0
7
0
26
33
0
8
4
6
0
0
6
6
0
0
7
0
0
18
29
14
39
0
6
35
0
8
0
0
0
21
0
0
0
11
0
26
44
5
0
51
23
0
0
32
5
0
0
40
0
10
0
0
19
0
0
25
14
3
39
31
0
0
0
0
0
0
30
29
0
4
15
0
5
0
2
3
0
1
0
15
5
5
0
3
0
8
1
0
5
4
7
0
0
0
8
2
3
0
4
0
10
0
0
0
9
8
5
0
6
0
0
8
8
0
7
0
2
2
8
0
0
6
2
4
0
9
0
13
0
1
0
5
25
39
0
0
12
46
0
0
20
70
37
2
0
0
24
7
8
0
0
0
0
6
0
33
9
13
91
0
0
28
0
0
6
0
10
0
29
0
19
0
0
0
21
0
0
4
0
0
0
18
0
3
0
0
0
34
64
0
1
0
0
0
29
0
24
0
6
0
1
0
13
0
9
0
10
4
0
0
0
1
0
0
13
0
6
8
0
0
22
0
7
0
0
9
0
0
5
0
7
0
0
12
0
12
0
0
21
0
4
0
0
0
7
0
1
0
5
0
0
6
0
0
0
11
0
14
2
10
0
10
3
153
109
14
0
6
0
4
0
0
0
0
12
0
8
11
0
0
12
0
0
1
0
14
4
0
10
0
0
0
1
11
0
2
3
0
7
0
3
3
0
0
0
3
7
8
0
0
0
0
0
0
10
1
0
12
0
4
2
15
0
0
0
2
6
5
0
5
2
0
2
0
26
0
0
2
0
0
34
0
20
3
0
2
0
0
0
7
7
3
0
0
0
0
3
2
6
0
17
0
0
8
0
1
4
0
15
16
0
0
29
0
1
2
1
0
0
16
0
0
13
73
8
27
0
0
23
22
10
0
0
55
38
0
0
85
25
0
0
44
31
18
0
0
38
0
0
13
0
20
0
0
2
0
8
5
12
2
0
0
0
0
0
22
0
0
1
0
22
1
0
0
5
18
13
0
1
13
20
5
0
21
0
0
17
0
0
3
0
0
33
16
0
0
11
27
11
0
9
0
0
0
2
0
40
10
0
0
16
20
9
0
0
0
6
19
0
2
19
21
0
0
0
0
0
0
1
0
1
0
0
0
0
0
4
0
0
40
36
1
0
0
15
61
0
0
0
9
19
0
5
0
0
95
31
27
35
22
10
0
0
25
15
2
0
14
0
0
0
0
0
32
11
12
16
4
7
0
17
2
5
0
0
0
16
31
47
60
0
0
102
36
4
0
42
0
0
8
16
0
10
0
0
0
7
22
22
21
0
0
5
0
9
0
2
25
7
0
0
4
11
4
0
0
4
4
0
0
0
0
0
4
0
4
2
0
0
1
1
5
0
2
3
0
7
0
7
1
4
0
5
0
0
7
0
0
14
0
0
7
6
0
3
0
8
1
0
0
0
0
0
0
2
0
1
0
0
3
0
2
5
6
48
0
0
15
35
0
0
41
75
0
0
0
0
0
0
0
0
0
14
8
0
0
19
13
2
42
96
0
0
0
1
0
0
0
3
0
0
0
0
0
29
0
0
34
0
6
0
0
10
0
9
0
0
2
15
0
0
0
2
22
0
6
20
0
16
0
12
0
0
1
10
0
0
9
0
10
0
3
11
0
2
0
0
10
0
0
0
7
0
1
0
13
0
0
0
6
5
0
11
0
0
0
0
4
0
0
0
0
12
0
0
11
2
0
6
5
0
4
9
5
0
2
0
0
13
0
0
1
0
0
0
146
98
5
0
0
12
5
0
8
0
0
1
5
5
4
12
0
0
14
0
0
18
1
0
0
0
0
2
10
0
7
0
4
0
3
2
3
0
8
15
11
2
1
0
0
9
12
1
2
0
8
0
11
2
0
14
0
0
0
0
24
0
1
0
0
11
0
0
0
6
1
11
7
3
0
13
0
0
0
9
0
13
6
0
0
6
0
0
0
1
0
2
10
17
0
0
7
0
17
12
3
3
5
0
1
0
0
0
3
0
0
0
12
0
3
0
0
0
0
0
68
26
0
0
36
40
17
0
5
44
39
0
0
0
51
0
0
31
33
29
0
40
13
25
0
56
15
15
0
0
41
0
0
3
15
2
0
8
0
0
36
0
5
2
0
19
25
71
0
0
25
18
0
0
0
11
19
0
7
0
0
14
0
2
17
0
0
12
55
6
0
14
2
0
18
0
0
10
34
0
14
0
0
0
19
0
0
27
15
0
0
0
0
0
0
26
11
10
0
0
0
17
0
8
33
0
1
0
5
27
0
0
0
0
0
0
21
19
42
0
0
0
0
0
19
11
23
4
2
14
0
0
0
37
0
0
21
47
49
28
0
5
37
23
10
0
0
0
0
0
0
0
0
0
22
44
0
4
0
36
24
0
15
0
0
0
0
0
0
57
56
30
0
0
28
0
0
40
0
0
0
12
10
12
48
31
0
0
0
5
0
18
15
10
0
0
3
7
5
0
4
0
8
6
0
0
0
0
0
4
0
11
0
7
0
20
0
9
0
4
4
0
0
0
3
0
0
8
0
17
2
0
0
4
6
0
9
0
2
1
3
2
10
0
2
0
5
1
0
0
6
7
0
1
0
4
2
0
9
1
43
0
0
27
24
0
0
63
53
0
0
0
1
0
0
34
0
0
0
0
0
0
26
11
12
9
73
73
0
0
0
0
0
5
0
14
0
0
6
9
19
6
0
0
0
14
1
0
17
0
10
7
0
2
0
0
28
0
23
0
0
0
15
0
13
12
0
17
0
0
1
0
0
3
8
0
3
12
8
0
14
1
3
8
0
0
3
4
5
5
0
0
0
1
0
5
0
0
11
0
0
12
0
0
6
9
0
17
0
0
0
4
0
0
0
0
8
0
0
0
11
0
13
7
0
0
2
11
0
0
0
15
153
92
0
11
16
0
0
8
14
0
11
6
0
2
0
6
2
0
0
11
0
0
0
3
8
0
3
8
0
0
0
0
9
0
0
4
0
9
2
0
0
0
4
2
0
0
0
0
9
0
5
5
3
0
0
15
3
0
10
13
0
8
12
0
8
0
14
15
0
0
3
0
0
9
9
0
17
0
16
0
27
0
11
0
3
0
14
0
0
0
14
0
8
0
0
22
0
0
0
0
0
2
0
6
0
10
0
13
0
7
0
16
0
5
11
9
1
5
0
0
82
0
0
16
32
0
0
15
55
20
0
0
50
18
0
0
13
11
15
0
0
55
21
0
0
40
33
0
0
29
0
41
0
0
15
12
0
0
18
0
1
0
13
1
10
2
12
17
0
0
34
0
0
0
17
23
0
0
0
3
21
0
0
7
0
17
0
16
0
0
0
0
45
0
6
2
4
0
0
22
0
4
0
0
0
0
0
14
8
12
20
0
11
6
0
20
13
0
0
0
1
68
16
0
7
36
0
0
4
6
30
20
0
18
0
0
2
38
0
0
44
0
0
36
0
16
0
14
14
5
4
5
0
0
0
0
0
0
0
25
33
10
15
23
39
0
8
19
1
0
26
12
0
0
0
74
48
0
0
43
15
24
19
0
49
13
48
8
0
0
0
39
53
0
25
7
0
0
2
0
7
10
30
51
0
0
0
38
0
0
24
22
0
5
20
2
0
14
7
0
0
0
0
9
3
0
0
8
5
0
7
0
6
9
1
0
7
4
1
4
0
9
0
16
6
0
0
0
4
0
1
3
0
0
2
0
2
0
13
0
0
0
0
0
6
5
0
4
0
0
0
8
0
0
3
0
0
1
8
50
0
0
34
0
0
50
43
14
0
0
0
19
0
25
0
0
7
0
0
14
13
7
10
6
0
36
109
0
0
16
0
15
0
0
6
4
0
13
17
0
0
0
23
0
0
0
0
6
24
0
5
0
0
0
11
0
0
3
1
0
0
0
6
17
0
16
4
6
4
0
10
0
0
0
2
10
5
0
0
12
0
0
2
4
20
0
0
6
0
3
0
6
0
8
3
13
4
2
2
0
12
0
0
9
0
12
0
1
3
14
0
15
5
0
8
0
15
0
10
0
0
6
0
0
2
5
0
0
7
13
7
2
145
104
3
8
0
8
0
0
0
0
0
0
12
3
10
0
0
16
0
0
17
0
13
8
0
0
4
0
0
22
12
0
14
0
7
5
0
1
5
0
7
1
0
6
4
0
0
5
0
15
0
0
0
12
1
0
1
0
30
0
5
3
0
11
0
1
0
11
0
0
0
12
0
19
7
0
3
0
9
9
0
20
0
0
13
0
18
0
21
0
28
0
16
0
9
2
8
12
7
0
9
0
0
0
19
0
12
3
4
0
0
0
3
10
7
0
0
0
0
5
93
0
17
30
0
0
0
49
32
0
0
17
19
0
0
38
42
37
0
18
14
23
0
0
65
0
0
0
31
0
0
11
19
0
0
20
1
0
21
4
6
0
0
6
32
20
0
0
0
18
12
0
0
0
9
11
0
3
0
16
0
27
0
0
0
27
61
0
0
0
7
28
0
12
0
4
7
0
0
59
1
0
0
0
0
21
16
0
0
0
2
5
9
6
10
8
0
0
0
39
0
28
18
6
15
0
34
9
0
1
21
22
21
19
47
0
0
0
9
0
25
30
4
11
6
0
0
0
20
17
28
4
27
31
5
13
23
0
0
0
0
0
0
8
83
67
32
9
31
32
35
36
0
35
0
0
17
60
1
0
87
92
104
0
11
93
35
28
0
0
0
0
61
4
2
28
0
0
0
22
30
51
1
1
5
0
4
0
0
1
28
8
0
14
20
8
2
0
0
6
0
0
0
0
1
0
7
0
7
0
5
5
0
0
0
3
0
4
1
0
2
0
6
4
0
0
4
4
4
0
1
0
13
0
8
7
0
2
0
6
0
0
8
8
0
0
6
0
13
0
0
0
6
4
0
7
0
16
41
0
0
17
17
22
57
5
0
0
0
0
16
0
25
0
4
0
3
0
0
2
7
25
0
16
3
90
52
0
0
0
12
0
0
0
0
17
0
31
0
0
25
1
0
0
32
0
7
0
0
0
0
22
16
33
0
20
9
0
0
0
0
1
26
0
32
0
4
0
19
0
0
0
3
8
0
10
0
12
7
0
0
12
0
0
0
8
0
0
21
0
10
0
8
0
11
0
0
0
2
9
0
7
0
11
0
5
0
0
0
0
0
0
4
0
8
12
0
0
12
0
9
0
9
0
9
0
6
0
0
0
2
0
152
98
0
0
3
0
0
0
17
0
9
0
0
0
0
14
0
12
0
0
0
2
0
0
6
0
0
0
3
0
0
0
11
2
0
5
2
0
2
13
2
0
0
9
0
1
11
0
0
1
0
0
15
0
0
3
9
0
3
0
8
0
9
0
4
2
0
0
0
20
10
0
20
0
0
0
0
0
0
0
13
0
0
29
0
7
0
0
2
13
0
18
0
17
0
10
0
6
0
10
8
0
17
0
0
1
0
4
0
12
3
17
0
0
2
1
0
1
0
0
74
12
30
0
0
25
44
24
0
0
38
26
14
0
18
26
13
0
0
88
10
0
0
53
31
0
0
0
24
0
6
0
0
32
0
0
22
0
0
15
0
0
22
1
40
0
0
34
5
0
0
0
22
25
0
0
12
0
3
0
0
0
12
0
16
0
13
0
0
25
0
12
0
6
9
0
0
11
0
0
35
0
0
0
0
21
17
8
0
0
0
12
13
9
0
0
0
9
21
15
0
0
26
22
0
33
0
16
12
30
0
13
0
35
10
12
0
17
0
3
22
11
45
10
0
9
6
17
7
22
0
0
11
9
0
0
0
17
0
43
22
3
11
0
0
12
10
36
24
44
0
110
68
59
58
9
0
0
0
0
0
2
0
0
0
62
62
28
78
0
0
0
44
80
0
0
0
0
0
39
46
13
0
0
16
3
0
0
10
12
0
0
0
0
1
0
0
12
8
0
6
0
0
4
0
2
0
0
0
14
0
14
3
0
0
9
2
0
7
0
6
0
7
0
0
3
9
0
0
4
0
8
0
0
15
0
0
3
1
2
0
4
0
0
1
0
0
3
0
5
0
0
0
0
12
3
23
30
8
0
0
0
24
72
0
0
0
9
19
0
13
0
44
0
0
0
0
0
0
10
10
10
7
0
69
96
0
0
0
18
0
13
68
0
6
0
7
0
0
0
0
8
0
0
0
0
1
16
8
0
30
0
7
0
0
0
4
0
19
0
0
0
1
6
0
4
0
0
4
0
9
10
0
0
0
0
0
10
0
29
0
5
0
7
0
10
1
15
0
14
4
0
5
0
0
0
0
9
9
0
10
0
12
0
7
0
1
0
3
0
11
1
0
0
0
0
1
0
4
0
0
2
3
0
6
0
4
0
0
0
2
0
137
99
0
6
0
0
0
4
0
0
15
3
0
0
7
0
0
6
0
0
0
0
16
0
0
26
0
1
0
0
0
2
0
0
11
0
14
0
7
0
2
0
3
0
0
12
0
2
4
0
0
10
5
0
15
5
0
3
5
23
0
6
0
12
0
7
0
9
0
0
19
0
8
0
0
0
17
0
15
15
0
0
34
0
0
0
14
0
4
0
11
3
0
4
9
0
5
0
0
16
0
12
0
0
16
3
2
0
0
9
0
4
0
9
0
10
0
4
0
0
71
30
0
0
12
34
3
0
0
42
28
1
0
24
48
13
0
19
34
26
0
0
70
10
0
0
24
6
13
0
20
0
1
31
0
0
0
0
0
4
0
0
17
34
0
0
0
16
0
0
3
7
13
0
8
0
12
0
2
3
0
19
0
44
0
0
0
16
0
33
0
5
0
0
0
3
8
11
6
0
0
0
0
16
25
0
0
8
0
1
1
0
20
27
0
0
1
27
29
0
4
18
0
0
0
0
0
0
0
0
0
11
1
0
16
21
70
0
0
0
41
0
3
16
29
0
0
0
23
13
0
11
0
43
6
19
56
17
12
48
15
19
0
0
0
0
0
0
18
0
0
1
0
0
0
19
21
0
42
0
0
0
0
49
0
0
18
45
0
0
0
0
0
57
0
0
16
17
61
32
0
0
0
20
0
0
24
0
0
19
0
2
0
9
0
0
5
2
0
0
7
0
0
5
2
0
5
2
6
0
2
6
0
2
3
0
2
0
0
4
0
0
4
4
0
9
0
11
0
0
9
0
1
0
0
1
0
4
4
5
2
0
0
6
0
9
4
0
7
0
0
0
0
11
19
30
12
0
0
28
27
24
0
0
0
0
0
0
4
39
0
0
0
0
0
10
0
8
22
8
0
7
4
27
116
0
0
19
26
0
0
2
0
6
0
1
13
0
1
0
21
0
0
0
3
0
0
16
0
5
0
0
11
0
8
2
0
0
0
20
12
2
28
3
1
21
1
13
0
0
0
0
0
30
0
15
0
0
17
0
3
0
0
0
5
0
7
0
0
5
0
6
4
9
0
0
0
9
0
2
0
3
6
0
0
5
0
3
0
8
0
10
0
8
0
12
0
6
0
7
0
6
0
3
3
0
3
0
2
5
11
6
152
100
0
0
0
21
0
0
0
3
0
1
35
0
7
0
23
17
1
0
13
0
0
0
0
3
0
11
0
15
5
0
0
9
0
0
0
8
0
13
0
19
1
0
14
0
4
11
0
9
0
0
0
7
0
0
18
8
0
0
0
7
0
2
0
0
10
0
0
11
0
17
0
5
6
1
3
22
0
0
0
3
0
5
8
12
0
30
0
1
17
1
0
0
6
12
25
0
1
9
0
0
2
0
0
11
0
1
0
17
5
10
8
0
0
1
3
0
0
0
112
5
0
15
40
15
0
0
29
35
0
0
16
6
36
0
14
54
13
0
0
64
50
0
0
21
79
15
3
0
0
19
0
0
39
6
0
1
0
0
18
18
26
11
0
0
8
28
1
1
4
23
0
0
26
0
0
13
0
4
0
13
8
38
0
0
0
21
8
1
0
0
1
18
0
2
8
0
13
1
0
0
11
3
2
0
0
4
0
22
9
0
22
0
0
46
12
5
15
9
9
18
18
13
0
0
0
0
11
11
0
0
0
0
0
0
5
11
0
0
25
39
0
0
10
14
33
20
12
0
0
31
20
0
41
55
13
22
6
10
2
31
19
13
0
0
94
9
0
0
0
0
0
4
50
0
4
0
36
9
0
0
0
0
23
0
0
26
0
0
0
0
0
0
13
5
41
46
7
0
0
0
2
0
0
33
27
0
20
6
0
11
4
0
0
6
9
0
0
0
0
13
0
15
4
0
13
0
0
4
4
0
6
10
0
0
0
8
2
0
0
3
0
5
0
0
0
3
7
0
0
10
0
0
12
0
9
1
0
5
1
0
1
5
0
0
0
3
0
4
0
4
15
40
34
0
6
15
17
5
0
0
0
0
9
0
6
5
0
0
0
5
1
0
0
0
5
19
0
9
20
0
12
57
68
0
0
0
0
0
0
0
17
9
0
0
6
25
0
0
22
0
0
0
0
0
4
0
12
0
10
17
0
10
0
0
0
42
0
0
4
11
0
0
17
0
0
0
4
0
0
0
0
0
5
5
2
4
2
0
5
12
22
0
0
9
1
0
1
0
8
3
0
0
0
3
3
0
6
2
0
1
0
4
11
0
13
0
0
1
0
0
0
0
8
1
0
3
0
0
0
5
0
6
0
11
0
4
0
0
3
0
155
93
0
11
0
0
0
16
0
0
0
5
10
2
0
0
0
4
0
12
0
0
3
7
19
0
0
9
0
0
2
0
18
0
2
7
5
5
0
8
0
5
0
0
0
0
4
0
5
4
1
14
7
0
14
0
0
9
0
0
9
6
10
0
4
23
0
0
24
0
0
0
0
11
0
0
0
2
0
41
0
0
0
0
20
0
0
11
0
8
0
4
0
0
3
0
5
0
4
0
9
0
18
0
11
0
0
15
3
0
5
0
0
0
25
0
0
0
0
0
110
0
0
34
12
0
0
22
46
0
0
0
44
14
0
55
31
0
0
0
25
0
19
0
19
29
62
0
0
25
0
1
23
0
0
27
5
0
0
4
23
21
1
0
16
0
15
0
0
4
6
0
6
16
0
2
20
0
5
5
8
15
0
0
0
0
4
0
20
0
0
19
0
0
7
0
0
0
16
0
0
15
13
35
8
0
0
5
6
6
24
16
0
0
4
20
16
17
0
9
0
13
0
0
0
10
19
0
44
0
0
0
3
0
0
0
0
0
13
0
21
42
0
19
0
5
3
0
0
18
5
33
3
25
2
0
0
14
34
0
0
0
15
0
0
46
26
4
0
0
11
0
0
0
0
44
0
0
30
0
0
0
15
0
0
13
1
0
0
2
12
0
0
13
38
46
50
6
0
0
0
0
0
0
22
0
0
11
2
16
2
0
0
4
7
0
0
11
0
4
0
0
0
0
0
0
16
0
0
0
1
9
0
0
0
0
10
0
3
0
2
3
6
0
4
3
11
0
0
3
8
0
0
5
0
3
3
0
0
0
0
0
3
0
0
10
1
1
0
0
24
31
50
9
0
0
30
12
0
0
0
0
0
0
8
0
6
0
2
16
0
0
10
0
0
0
18
26
3
0
0
0
37
107
0
0
0
11
0
23
0
21
0
3
22
0
8
0
0
7
23
0
1
3
3
0
0
33
0
38
0
6
0
0
0
14
0
1
5
8
1
28
0
17
0
4
11
6
0
0
0
4
6
0
4
0
6
0
0
10
0
0
0
1
0
0
0
9
0
21
1
0
0
0
6
0
0
8
0
2
1
4
2
0
2
0
0
1
0
0
0
9
0
4
0
0
8
4
0
0
0
5
4
0
6
6
0
5
0
9
0
4
153
109
6
13
0
0
0
1
0
16
0
12
0
0
23
0
10
0
0
15
0
16
0
0
0
0
26
0
0
2
12
0
0
10
0
1
0
0
10
3
0
0
7
1
11
0
24
0
1
0
0
0
17
0
0
9
0
2
0
5
0
1
10
0
1
0
0
0
0
0
7
9
0
13
0
0
10
12
2
0
0
20
8
0
0
3
2
0
0
0
0
18
0
0
9
11
0
0
0
13
0
14
0
4
1
0
20
0
0
6
0
0
13
2
0
11
5
8
0
0
58
27
22
15
0
0
26
39
0
0
32
29
19
0
0
17
30
0
0
43
6
3
0
28
71
7
0
0
0
8
0
0
0
17
0
13
20
0
9
23
0
13
0
0
20
20
0
0
6
19
13
0
0
4
0
0
7
1
0
20
37
0
0
23
1
21
0
24
0
4
7
1
7
0
28
7
0
16
0
0
7
5
0
2
12
1
0
0
0
19
29
3
0
26
0
0
15
29
0
0
0
1
0
0
0
0
7
0
5
0
0
0
13
31
14
0
0
22
10
0
21
0
0
54
48
5
0
0
8
4
34
32
29
0
0
0
23
0
0
0
0
0
0
0
42
70
42
0
0
0
59
0
13
0
0
0
0
13
7
0
0
11
2
0
0
15
0
0
0
0
0
0
0
45
56
45
0
0
0
0
0
0
28
17
2
0
7
0
0
7
0
0
0
14
0
2
0
0
5
0
4
3
3
0
7
3
0
0
0
10
0
6
0
5
7
3
0
0
0
6
0
2
0
1
3
6
0
13
0
0
0
3
11
0
0
7
0
19
0
11
0
4
13
0
11
0
0
19
5
33
59
15
0
0
9
0
0
0
0
0
0
0
0
5
2
6
0
14
0
0
0
0
0
6
16
13
27
0
0
4
13
22
102
18
0
0
0
10
0
0
11
11
0
0
0
0
0
2
0
0
17
0
0
22
30
15
0
0
0
17
0
0
1
7
0
4
0
0
19
1
12
0
5
0
2
0
0
2
0
7
0
6
17
4
0
0
0
5
3
1
4
0
2
0
3
0
9
0
11
0
0
0
2
18
0
0
12
2
0
2
0
0
7
0
0
8
0
1
9
0
11
1
1
4
7
3
0
3
0
5
0
1
0
0
3
4
10
0
3
2
0
9
147
96
1
0
0
0
25
1
3
0
4
0
0
5
0
0
0
19
0
0
4
0
6
0
19
0
4
0
2
0
6
8
0
6
0
0
0
1
3
0
10
0
0
1
0
1
0
0
1
2
11
0
0
0
11
0
19
0
0
14
7
8
0
10
6
0
3
13
23
0
9
0
6
4
0
0
13
10
0
0
10
0
0
13
0
11
0
0
37
12
0
2
0
0
14
0
27
0
0
0
10
0
6
0
0
6
1
0
8
0
0
18
3
0
9
0
0
0
0
0
26
59
18
0
0
42
19
0
0
26
60
11
0
27
4
8
0
33
26
23
5
0
3
48
0
0
0
5
0
0
9
14
0
1
12
0
1
9
0
40
0
0
0
2
19
1
0
0
42
0
13
2
0
7
0
0
3
6
0
30
0
0
22
0
24
0
2
3
0
0
19
1
12
0
3
4
3
0
0
20
34
0
8
10
0
11
5
12
3
0
0
0
31
14
11
0
0
0
22
13
20
0
0
16
3
2
34
0
0
0
23
0
4
27
0
14
25
64
8
3
77
36
0
0
0
0
0
13
40
31
0
0
0
0
13
33
0
0
0
0
0
0
9
86
79
37
0
0
2
0
64
2
0
6
0
0
0
0
11
0
0
0
0
2
0
0
0
0
0
0
0
21
32
79
14
0
7
0
0
0
8
31
1
7
1
9
2
4
0
0
0
2
3
9
0
8
0
0
7
0
9
0
5
7
0
0
0
7
4
2
0
8
7
0
13
0
5
0
10
0
9
0
9
2
0
0
6
0
16
0
0
17
0
0
0
10
9
0
0
2
0
2
0
4
0
10
31
46
55
45
5
0
0
0
0
0
5
0
7
17
0
16
0
14
0
0
0
2
0
4
0
0
0
5
0
11
0
0
4
0
10
69
86
0
0
239
0
16
0
20
0
0
36
0
18
3
14
0
4
14
0
46
0
0
0
0
14
8
11
0
8
2
7
0
0
0
0
15
20
6
5
28
0
9
0
0
3
0
0
4
0
0
0
0
5
21
0
3
7
0
20
0
3
0
3
1
0
4
0
0
7
7
4
0
5
1
10
0
5
0
0
2
0
0
3
0
0
13
0
4
0
1
0
0
0
0
12
4
0
0
0
0
0
3
4
0
0
17
0
3
16
0
152
103
4
0
16
0
10
0
9
0
12
0
6
0
9
37
0
0
24
0
0
8
8
0
10
0
0
3
1
0
29
0
0
0
0
6
13
0
6
4
0
0
12
2
2
6
0
9
0
1
0
0
20
1
0
8
0
0
0
15
0
0
0
4
0
5
0
0
0
0
0
7
1
3
0
6
0
0
9
35
0
0
6
16
5
6
12
1
0
4
0
15
20
0
0
0
0
5
0
16
0
16
5
12
0
2
0
0
2
31
0
0
0
12
0
0
11
7
0
0
17
98
0
0
34
17
0
0
24
36
19
0
0
52
9
0
0
41
0
18
0
48
47
19
0
14
0
6
9
15
0
2
0
0
0
0
0
23
16
0
0
5
9
0
0
0
0
4
8
0
0
33
0
6
0
22
0
3
17
45
0
0
8
11
7
0
12
0
30
0
0
1
0
24
0
0
16
0
0
12
0
7
0
5
0
0
7
24
41
3
0
0
5
22
17
6
29
0
0
0
0
0
1
8
39
51
7
23
0
13
12
57
7
0
35
42
0
0
0
0
0
8
0
0
0
0
43
54
5
0
0
0
0
95
5
0
30
0
0
0
41
49
139
8
0
0
0
0
0
6
41
18
29
0
0
20
0
0
0
0
0
0
85
89
0
0
0
75
0
0
13
73
63
16
0
0
0
0
0
11
26
0
7
0
2
5
2
1
0
2
3
0
0
0
11
0
0
5
2
0
0
1
0
0
2
0
12
7
0
0
0
7
2
1
0
0
4
0
0
2
0
6
5
0
0
9
5
0
0
3
11
0
0
2
0
18
0
0
0
0
0
5
3
12
25
55
66
0
0
0
0
0
0
0
0
0
4
17
0
0
0
18
0
0
9
0
13
0
6
0
0
13
8
34
3
0
0
0
5
26
85
118
0
0
0
0
9
25
0
0
0
6
0
13
11
0
28
0
12
0
0
0
0
0
0
0
15
0
0
0
0
0
55
0
2
0
7
0
9
10
3
0
7
0
6
7
0
0
10
0
7
14
0
26
0
0
0
0
0
4
17
0
12
0
0
0
0
13
0
4
0
7
0
0
0
0
0
9
5
0
9
12
0
2
0
0
0
2
0
0
0
0
7
0
5
0
0
5
2
5
0
10
0
11
0
9
0
14
7
0
1
1
158
87
0
15
0
0
0
8
0
19
0
0
2
0
3
0
9
7
10
0
0
0
2
14
0
0
7
0
1
0
0
0
3
2
5
0
0
21
0
0
0
16
1
0
0
2
0
1
17
0
8
3
4
0
0
0
7
5
9
0
10
0
5
18
3
0
4
0
0
8
0
2
0
0
16
0
14
3
0
0
28
0
0
0
0
1
0
0
5
0
8
0
0
0
12
0
30
0
7
11
0
0
0
9
0
14
8
15
1
0
7
1
10
0
23
0
4
0
0
0
0
55
0
20
18
0
0
10
47
11
0
19
44
19
0
18
24
0
0
0
0
4
10
0
0
32
0
0
6
15
0
0
18
0
11
0
0
22
32
0
0
19
26
0
0
0
13
4
3
8
0
0
14
6
0
3
0
29
0
0
0
6
13
0
5
0
0
0
12
0
1
0
0
0
24
0
0
0
25
12
0
24
1
0
13
0
0
8
0
0
29
1
0
0
9
13
0
0
18
0
0
6
23
40
26
0
0
0
0
14
32
45
0
22
50
0
0
34
13
0
54
18
0
0
0
14
22
0
0
0
0
0
21
34
0
0
12
0
0
45
125
55
0
0
0
4
22
13
60
0
0
28
0
17
0
0
0
38
0
0
0
4
0
0
0
0
0
65
0
13
54
57
0
11
0
0
18
0
21
40
7
5
14
7
10
0
0
2
0
1
4
3
0
2
0
7
0
4
0
10
0
0
6
0
8
3
2
9
0
9
6
0
3
0
9
11
3
4
0
1
5
0
0
0
11
0
0
0
0
0
10
0
11
0
13
0
7
0
0
2
5
6
48
69
56
9
0
0
0
0
0
11
0
0
10
1
0
0
40
0
4
0
14
3
0
18
0
0
0
0
0
6
0
21
0
3
14
9
51
123
73
0
0
0
11
0
0
0
0
21
0
13
0
16
0
0
0
0
0
16
36
8
0
0
11
0
18
0
17
0
12
4
0
0
0
0
0
0
26
0
12
0
0
0
0
0
7
0
0
0
3
6
1
2
0
3
0
0
2
4
0
0
2
8
0
14
0
3
0
11
2
0
3
0
19
0
0
2
0
0
3
0
0
4
0
9
0
1
1
0
15
0
0
12
1
0
10
0
0
1
1
7
0
0
18
0
2
0
0
0
1
0
159
101
2
0
0
3
0
4
23
11
3
0
0
0
2
2
0
0
0
20
3
0
0
0
15
0
0
11
0
0
1
1
5
0
0
7
5
0
14
3
5
0
0
7
1
14
0
0
5
6
0
2
0
2
17
0
0
0
14
0
0
18
1
7
0
25
0
27
3
0
0
16
5
2
0
23
0
0
7
24
0
10
5
0
4
0
1
0
18
0
8
0
13
17
0
0
0
0
0
0
7
0
5
0
0
17
0
0
0
11
0
0
0
28
0
5
0
0
12
0
0
49
43
9
0
0
10
38
5
0
0
30
35
0
0
26
50
0
0
29
0
0
0
0
10
0
29
0
0
0
17
0
16
0
0
31
2
8
3
0
0
0
14
0
0
27
20
0
0
0
6
4
0
0
16
0
33
45
0
0
17
0
0
0
0
10
0
0
17
5
7
0
0
0
4
0
0
14
0
6
0
0
0
0
0
16
27
0
0
0
24
9
0
0
15
0
0
36
0
0
0
8
38
1
0
0
0
0
0
39
69
31
0
25
0
0
14
8
72
2
0
7
0
0
54
5
10
0
0
22
52
0
0
0
0
15
7
0
44
115
0
0
0
0
70
70
15
26
0
11
0
74
0
0
93
0
0
0
0
12
9
0
0
0
0
0
0
28
33
77
38
0
0
12
0
0
0
35
20
0
15
0
7
7
0
0
0
0
6
3
0
0
4
0
5
0
0
6
6
0
0
0
6
18
5
0
0
0
7
4
3
7
0
13
11
0
0
0
7
6
5
0
1
0
0
6
0
0
0
12
0
7
0
0
11
10
0
0
16
0
30
80
48
0
0
0
0
0
5
0
0
9
5
2
5
0
24
15
0
0
5
0
0
0
0
0
0
0
0
9
0
15
0
29
4
0
35
96
47
0
0
0
0
7
0
0
0
0
13
0
1
21
0
7
0
0
20
0
38
0
3
0
10
1
23
0
17
9
0
0
0
0
0
4
0
0
15
0
9
29
2
13
0
7
5
5
0
22
0
15
3
0
3
2
0
0
7
17
0
8
0
2
0
0
8
7
0
2
0
9
2
7
5
0
4
0
0
11
0
6
0
0
8
0
11
0
14
0
5
0
0
2
5
0
2
5
1
4
0
9
2
0
0
14
0
11
3
9
0
0
0
10
152
106
4
5
7
0
0
0
0
7
0
10
0
17
0
6
0
1
0
13
0
23
0
17
0
24
0
0
6
9
0
0
5
0
4
4
0
8
0
0
3
0
3
0
0
0
8
6
0
7
0
1
0
9
0
7
9
11
0
7
0
2
2
0
0
0
0
1
0
0
0
14
0
9
3
6
0
8
0
0
21
0
0
0
3
9
1
28
0
0
19
0
0
0
5
11
0
25
0
0
0
4
0
0
4
5
0
0
0
0
19
0
9
0
0
3
0
0
0
0
0
99
53
0
0
3
31
6
0
0
32
23
0
12
33
31
0
0
0
6
6
0
0
80
1
0
4
47
0
0
15
0
48
0
4
8
18
1
0
0
16
13
0
11
13
0
7
5
3
0
15
1
9
0
18
23
0
0
33
0
6
1
0
16
22
0
15
0
0
6
5
22
9
0
0
0
12
0
17
0
22
0
13
0
10
18
52
0
0
34
0
15
10
6
0
22
0
0
0
7
8
14
0
0
31
38
40
30
7
32
0
0
0
23
0
0
0
0
0
3
0
0
0
0
0
34
6
0
24
94
0
17
0
12
20
0
0
99
75
0
0
0
7
104
27
0
0
0
0
47
19
44
0
0
0
32
18
0
14
0
2
0
0
0
0
9
0
46
71
35
0
0
4
0
0
17
38
6
0
23
0
0
18
0
0
0
0
7
0
5
0
9
9
0
0
15
6
6
2
0
10
4
6
4
0
0
5
2
8
0
0
0
0
0
0
0
0
16
0
0
7
0
2
0
5
0
7
6
4
4
5
0
5
13
0
3
15
0
12
44
76
0
0
0
0
0
13
0
6
2
2
0
5
0
0
0
0
0
7
0
0
0
16
0
2
0
0
12
13
0
4
0
7
12
0
23
109
7
0
0
0
3
2
0
0
28
0
3
11
0
0
1
4
0
14
0
0
9
0
12
0
23
0
3
0
32
0
15
0
19
0
3
0
0
0
21
24
33
0
0
7
0
0
0
0
2
0
8
9
2
0
2
0
17
5
0
5
0
0
2
0
0
19
6
4
0
0
20
0
0
0
4
0
12
0
2
1
0
0
0
6
5
0
11
0
8
0
8
0
11
9
2
0
0
0
0
4
1
12
0
12
10
0
4
0
8
0
12
0
0
6
0
155
90
0
0
0
34
0
0
4
3
4
10
0
9
0
21
0
0
2
0
29
0
14
0
8
0
0
4
0
3
3
0
19
0
3
0
0
0
2
11
3
7
0
2
1
10
0
0
5
4
0
11
0
2
4
0
11
0
1
8
0
0
1
7
12
0
0
6
0
0
13
0
6
4
0
1
29
0
0
0
0
0
0
6
0
0
0
0
23
0
19
0
0
0
10
0
4
21
0
4
3
23
13
0
15
0
25
0
24
0
0
0
15
12
0
9
9
0
14
0
0
69
37
0
19
35
2
0
0
36
32
0
13
22
1
0
8
38
7
0
0
0
0
51
14
0
0
31
48
0
0
11
4
30
0
0
0
0
0
0
17
0
0
3
5
0
2
30
0
15
0
10
0
0
36
0
0
0
2
9
4
4
0
0
0
0
3
7
3
0
21
0
17
3
0
0
0
10
0
13
0
15
5
4
28
6
0
0
27
20
0
5
0
11
13
0
6
0
0
19
42
31
11
13
13
33
0
0
15
0
19
0
10
0
10
0
0
8
0
0
12
0
0
10
26
0
0
32
117
0
0
60
43
31
0
38
137
20
0
1
24
110
99
0
0
0
23
0
0
0
29
92
0
7
0
13
0
65
9
0
0
0
0
0
5
20
49
74
35
0
0
0
0
0
45
27
15
0
0
10
0
5
0
0
4
3
0
8
2
1
3
0
0
6
2
0
0
0
0
16
6
0
0
0
7
5
8
7
4
1
4
14
0
0
0
0
8
0
0
11
0
0
7
0
15
5
2
6
0
4
2
0
0
9
0
14
0
13
57
43
0
0
0
0
0
0
23
0
0
16
0
7
0
10
0
0
36
0
6
0
36
0
0
0
0
15
0
16
6
0
9
12
27
0
10
98
16
0
0
1
0
0
0
0
0
3
22
0
4
16
3
0
0
12
0
0
0
0
35
0
0
24
25
0
10
0
19
0
19
0
0
0
6
0
0
0
0
0
0
5
14
0
0
0
0
0
2
0
0
0
4
0
4
0
0
8
0
4
2
0
4
2
0
0
4
20
0
0
16
6
0
18
0
0
12
0
10
0
0
12
5
0
2
6
0
3
9
0
3
0
0
0
4
2
7
6
3
0
2
2
0
0
10
0
7
2
0
0
18
2
0
1
161
106
5
0
15
0
4
9
1
0
5
0
14
0
0
0
0
0
12
0
7
0
0
0
0
21
0
0
18
1
0
6
0
0
13
0
8
3
3
0
1
1
15
0
5
0
12
14
1
0
6
0
14
0
0
13
0
6
9
0
0
3
10
0
0
18
0
0
4
2
0
18
6
0
3
0
6
0
25
0
12
0
12
1
13
8
17
0
0
14
0
0
0
24
0
10
5
0
16
0
0
0
8
0
0
0
0
11
0
17
1
0
0
0
0
8
0
1
0
0
0
14
48
25
15
0
0
13
36
15
0
0
70
22
0
27
0
31
0
0
0
0
12
34
39
19
0
0
79
0
0
7
5
9
0
22
18
0
19
38
0
17
0
15
11
16
0
0
9
0
0
0
19
38
0
0
16
10
10
0
13
0
10
0
16
3
0
8
0
0
0
0
0
0
6
22
8
4
23
0
0
23
4
0
1
7
0
0
24
0
5
0
0
6
13
0
0
0
21
39
0
9
22
0
23
10
0
0
0
0
5
0
0
26
0
0
10
0
1
0
0
0
6
38
11
0
20
118
0
0
46
47
0
0
0
54
0
0
0
24
45
68
0
0
0
58
0
4
34
22
0
108
0
0
0
0
0
0
16
0
0
0
0
29
33
73
46
10
0
0
0
0
2
43
24
5
0
19
2
0
0
0
0
0
11
0
6
0
0
10
0
10
7
0
14
0
0
5
11
9
0
3
0
0
18
0
0
1
0
12
0
0
0
0
4
1
3
0
1
0
3
5
0
4
1
0
0
6
9
0
0
1
0
12
0
14
45
63
0
0
0
0
0
0
12
0
13
0
6
0
5
4
0
0
23
0
0
0
0
0
0
6
8
12
9
12
18
6
0
20
16
9
0
3
89
91
0
0
5
3
0
0
9
28
0
0
0
0
5
0
15
0
11
0
1
3
4
3
11
0
0
0
0
9
0
0
11
0
1
0
0
0
0
0
0
13
17
12
21
8
0
0
17
0
0
0
10
0
3
9
0
9
0
0
9
0
7
0
4
3
1
0
0
6
0
0
14
5
0
4
0
0
11
0
7
18
0
3
0
0
7
0
0
5
4
0
0
3
0
0
0
17
0
14
0
1
0
3
0
0
6
1
0
0
5
0
0
5
0
0
0
0
166
104
0
5
9
15
0
14
0
9
0
5
0
0
8
11
2
0
3
0
20
0
0
3
0
0
9
0
3
9
0
0
6
0
0
0
12
2
0
2
0
11
0
6
0
0
0
0
13
0
8
0
0
17
9
0
16
0
7
9
1
5
11
0
0
0
7
4
0
1
19
0
0
14
0
0
7
1
4
0
3
0
0
16
0
7
2
0
4
3
0
11
3
0
0
0
33
0
0
11
0
3
12
1
0
0
0
4
0
0
0
5
0
11
13
6
10
0
2
7
0
0
89
42
0
0
7
28
22
0
0
40
33
0
0
5
34
0
0
30
0
70
21
0
0
41
0
0
0
55
0
0
16
0
3
0
0
0
0
23
0
7
11
0
0
30
0
0
26
0
26
6
0
0
0
0
3
2
7
0
0
0
27
0
0
0
7
0
0
23
0
0
0
0
18
9
0
0
3
2
0
0
13
21
0
0
44
3
14
0
14
32
0
0
0
34
0
0
16
32
0
23
0
0
0
0
0
0
31
26
7
19
0
0
0
18
8
35
0
4
0
0
19
24
0
30
118
0
0
53
42
0
0
2
61
0
11
0
48
100
13
40
0
7
0
0
56
0
0
0
53
62
0
0
0
11
2
0
0
0
21
0
0
48
87
48
10
0
0
0
0
12
30
11
0
8
4
7
0
24
5
3
18
0
0
0
6
1
0
0
9
0
1
0
0
7
16
5
0
0
0
0
20
1
11
0
0
12
11
0
0
3
3
3
4
0
0
1
16
0
0
2
0
12
0
0
1
9
0
0
0
2
10
16
58
75
0
0
0
0
10
0
3
0
0
0
0
6
0
0
11
0
0
10
0
0
0
10
0
3
0
22
16
7
0
0
11
0
16
3
0
0
15
66
116
0
0
0
0
0
22
5
0
0
0
0
0
15
11
0
8
13
20
0
0
8
11
10
0
11
5
0
0
0
9
27
0
0
16
15
12
1
18
0
8
5
2
12
11
0
18
4
0
0
5
0
13
0
18
0
13
0
9
5
0
0
0
1
10
9
2
0
4
7
0
12
0
1
2
18
0
0
12
2
0
0
1
0
0
13
0
9
0
6
0
0
0
4
3
4
12
0
16
0
11
0
0
2
11
2
3
5
0
11
1
0
0
0
6
0
7
0
148
112
6
3
0
0
0
0
0
0
5
0
10
0
0
0
8
4
0
0
7
0
13
12
0
0
0
0
0
5
0
20
0
7
0
8
0
0
5
0
8
0
0
1
5
0
0
12
0
7
0
0
11
2
0
17
0
9
6
0
4
1
12
11
0
20
0
13
28
0
0
29
0
14
0
12
0
6
3
0
5
0
35
0
0
0
0
0
5
0
8
2
0
0
0
0
0
7
11
0
6
6
0
0
20
0
27
0
21
9
0
14
0
5
0
0
0
52
0
9
0
0
97
37
0
0
32
15
0
0
26
24
0
7
27
14
0
0
0
0
4
30
0
1
0
29
43
0
0
25
34
0
10
0
0
0
30
0
18
0
4
0
9
6
0
17
19
0
0
0
0
28
7
0
0
21
12
0
23
0
2
0
10
8
6
0
19
6
11
0
3
0
0
11
11
9
0
0
0
27
9
7
9
0
0
45
4
4
0
0
0
17
19
20
57
5
2
36
0
29
0
0
0
0
0
45
0
0
0
25
2
1
23
2
12
6
8
0
0
0
0
0
86
0
0
59
10
0
31
47
0
0
0
0
25
21
0
0
132
0
0
0
0
25
53
66
31
0
0
0
88
105
0
2
0
2
0
0
0
0
0
6
48
84
12
0
0
0
0
0
7
48
6
3
13
10
0
3
0
0
0
0
0
0
10
11
0
4
0
0
2
0
0
5
3
13
0
0
0
8
0
4
2
0
0
9
0
8
0
0
8
15
1
3
0
11
7
4
0
6
5
3
0
5
0
13
0
0
0
0
12
17
36
82
0
0
0
0
0
9
37
0
0
5
0
25
7
0
0
0
0
0
0
0
0
0
0
6
13
7
3
1
13
0
6
8
0
0
4
0
0
0
68
130
0
0
0
21
15
12
0
10
0
28
3
0
6
3
0
9
0
2
0
0
7
2
0
0
0
2
4
25
21
31
10
17
11
75
0
0
0
0
0
0
14
0
6
0
1
11
0
0
17
0
0
5
1
26
0
7
3
0
7
0
17
9
1
2
0
0
4
0
21
4
11
0
14
0
0
6
0
0
5
0
4
17
0
0
0
0
3
0
0
1
0
4
0
0
13
0
0
3
4
9
0
7
10
0
0
0
0
8
5
0
5
0
19
1
0
18
10
0
150
110
5
0
8
4
24
0
0
1
3
0
0
18
0
14
0
3
3
5
4
0
13
0
6
2
0
19
3
0
0
16
0
0
0
0
12
5
0
9
0
21
0
0
13
0
0
0
4
0
18
0
0
8
9
0
5
0
0
4
0
0
0
0
8
0
25
0
0
5
0
0
25
0
0
48
0
0
0
13
3
5
0
0
11
7
0
9
3
0
0
13
0
8
18
3
3
0
1
5
0
0
20
1
15
3
0
0
0
0
13
9
0
14
0
4
7
5
0
0
0
0
66
27
7
33
1
0
0
34
38
0
0
47
37
0
0
34
14
13
0
4
0
31
6
0
50
0
0
0
39
10
11
0
0
0
7
17
0
0
3
48
0
0
12
0
4
28
0
23
0
29
0
0
12
5
0
8
0
3
0
0
0
0
32
0
0
0
8
11
0
19
16
11
0
0
0
15
0
0
8
0
14
14
0
59
42
0
6
20
0
0
25
32
0
10
0
0
60
0
0
0
1
0
53
21
0
21
75
0
0
7
0
0
0
17
0
0
0
0
0
95
11
0
24
50
0
78
11
0
0
0
37
0
0
0
16
91
0
0
0
0
14
72
0
0
0
0
28
0
64
78
0
0
9
0
0
0
0
0
20
29
97
14
9
2
0
0
0
13
44
0
8
0
7
0
3
3
0
0
0
4
0
8
0
3
0
0
3
1
0
5
1
0
2
0
5
0
0
0
14
6
0
0
11
0
3
0
0
6
7
0
0
0
5
0
0
0
4
0
0
0
5
0
9
0
0
6
8
22
23
82
32
0
0
0
13
28
2
0
7
16
0
0
6
4
0
0
8
0
0
0
0
0
0
2
17
5
19
0
9
8
13
0
0
6
13
0
0
2
1
79
90
0
0
0
0
0
0
0
20
0
0
0
0
12
0
0
7
0
30
0
6
15
0
0
24
0
1
0
0
0
0
0
0
0
0
0
40
102
0
0
3
0
13
4
21
17
0
4
16
0
4
1
0
15
0
6
0
2
0
0
3
17
0
0
0
0
16
0
3
0
0
0
7
0
0
0
0
0
4
0
2
6
0
3
0
2
21
0
0
4
7
1
6
0
4
0
10
0
9
0
0
10
0
0
0
0
3
0
5
3
1
0
0
11
0
4
0
0
0
0
162
96
0
0
5
0
18
0
9
0
21
0
0
0
1
0
11
4
5
0
10
0
0
14
0
0
0
4
3
7
0
0
9
12
0
9
0
8
0
13
0
9
7
0
0
6
0
7
0
3
0
10
0
0
3
11
1
16
5
2
9
0
3
6
0
12
0
27
0
0
24
0
0
35
0
2
4
3
10
3
0
17
0
3
12
0
0
3
3
0
21
0
4
3
1
2
0
12
0
20
8
0
0
0
13
0
9
2
9
0
0
0
6
0
10
0
0
0
7
0
0
0
0
85
34
1
0
0
44
27
0
0
56
28
0
19
0
38
6
0
0
14
0
0
48
0
41
39
45
0
0
31
15
0
20
30
0
3
0
0
10
0
8
0
25
0
0
9
26
0
26
3
0
0
13
0
11
0
0
24
0
6
20
0
11
0
0
2
0
0
0
5
20
13
9
0
0
0
21
0
0
12
26
0
0
14
5
18
1
7
40
9
0
0
24
8
32
0
0
0
0
0
15
59
52
33
0
0
0
8
0
0
9
4
1
2
0
6
0
0
36
55
0
0
76
0
38
12
0
0
0
11
0
0
8
24
105
0
0
10
0
40
15
29
0
0
49
0
1
0
146
0
0
4
0
0
0
0
0
22
61
78
0
0
0
0
0
0
32
46
7
0
10
0
17
0
0
0
0
18
0
0
13
12
0
5
8
0
4
0
0
0
7
0
14
0
0
13
2
12
0
0
0
0
0
0
0
0
23
7
0
0
18
0
0
0
2
3
0
3
1
0
0
0
0
5
15
11
22
66
57
0
0
0
0
0
0
10
24
0
0
16
0
0
0
0
0
0
0
0
0
17
15
6
0
18
26
5
6
0
3
14
0
3
9
0
0
0
7
4
76
119
0
0
11
0
0
0
21
0
12
0
41
0
10
8
28
19
0
0
5
33
0
0
11
0
4
17
1
0
0
8
16
26
43
0
0
16
1
0
32
0
8
8
31
0
11
0
10
0
0
29
0
12
0
0
6
0
7
3
12
0
0
3
0
9
0
12
0
4
0
8
2
0
0
11
4
1
0
5
0
3
0
0
0
0
2
0
0
8
0
1
0
0
4
0
0
9
0
0
7
0
6
0
1
0
12
3
0
0
0
5
0
2
6
0
6
0
9
0
22
0
152
105
0
8
0
7
0
4
0
10
0
9
0
16
0
16
0
20
0
8
0
6
0
9
0
5
2
0
0
0
30
0
0
0
0
1
0
3
0
0
5
0
2
0
0
0
0
9
0
0
0
0
0
18
0
0
2
0
0
11
0
5
7
0
22
0
4
0
12
7
0
5
23
0
0
0
15
0
8
0
9
8
0
0
2
2
12
0
12
29
0
0
16
0
1
10
0
31
0
0
0
25
0
6
0
32
0
0
0
0
0
5
0
3
0
2
7
0
9
0
0
0
0
84
50
0
1
27
27
0
0
38
57
0
0
53
37
0
0
20
0
0
14
22
27
0
0
17
65
3
0
0
0
0
17
6
14
0
0
24
0
0
17
0
0
12
0
0
27
0
0
0
6
0
14
0
13
0
22
0
11
0
5
0
0
28
2
0
0
0
12
6
2
0
16
1
0
0
9
0
2
2
18
0
0
70
0
0
25
17
0
0
0
2
37
0
0
0
0
0
10
52
74
32
0
0
29
0
7
0
24
0
0
15
14
2
0
0
27
45
71
0
0
86
13
28
19
0
0
0
5
16
0
0
51
114
0
0
0
0
25
86
18
0
0
0
5
0
0
0
114
0
82
0
0
0
0
19
23
55
88
0
0
0
0
0
0
10
42
14
0
0
9
1
6
1
0
0
4
0
0
17
2
0
4
0
11
9
0
0
8
0
12
0
13
0
9
9
5
0
0
0
11
0
0
3
10
0
0
0
0
0
1
5
0
2
10
0
0
11
7
1
6
0
5
0
31
44
59
0
0
0
2
11
27
0
21
0
6
24
0
0
20
0
0
0
9
0
0
12
15
14
22
4
21
16
2
0
0
6
0
0
0
0
0
2
0
0
21
77
92
0
0
5
0
0
13
8
0
10
0
0
0
15
0
13
0
0
0
10
0
21
0
9
10
9
0
0
0
5
7
0
0
0
8
64
0
7
0
15
0
0
0
1
7
3
12
4
0
0
14
0
14
0
8
10
0
14
0
8
0
0
14
0
0
0
9
0
2
0
0
7
0
9
1
0
1
5
8
0
8
0
0
0
19
0
13
0
0
0
11
0
11
0
0
11
0
0
9
2
1
16
0
0
4
14
0
0
2
0
12
0
3
0
10
0
16
0
20
2
0
9
141
114
9
0
0
9
7
3
10
0
4
0
9
5
11
14
0
7
0
19
0
0
9
0
0
6
0
3
0
0
0
29
0
2
4
0
5
4
0
2
9
0
0
0
15
0
2
8
0
22
2
4
1
0
6
6
0
0
1
0
0
8
3
13
3
0
7
0
0
9
0
0
0
0
9
0
9
0
19
0
0
0
2
0
7
0
7
18
0
0
13
0
27
0
15
0
1
0
11
15
0
0
8
0
14
4
5
11
0
21
5
7
0
15
0
8
0
2
2
10
0
0
0
27
53
0
24
6
0
0
24
34
0
0
46
34
0
0
64
57
0
0
0
44
9
37
0
0
0
67
0
0
10
0
0
16
0
7
8
25
12
0
0
22
0
0
28
0
10
17
10
0
22
9
0
0
12
0
0
3
0
0
12
7
22
0
0
10
0
0
19
4
0
0
0
0
19
0
3
0
12
3
14
13
0
24
38
0
17
0
4
24
9
0
0
3
0
0
0
73
73
33
0
0
0
0
0
17
0
0
12
4
0
6
22
0
0
0
53
0
15
0
47
0
0
37
0
0
39
0
0
0
0
44
137
0
0
0
43
20
20
0
26
0
18
0
0
0
0
36
70
20
86
0
0
0
26
15
52
55
0
0
0
0
0
13
7
18
28
0
0
1
12
0
0
0
11
5
0
4
0
13
0
0
8
0
6
0
19
0
12
0
0
1
3
2
0
0
8
0
0
0
0
2
4
0
10
0
2
3
9
0
0
1
2
0
0
0
0
0
0
4
0
8
12
52
110
21
0
0
0
0
30
9
4
0
6
15
11
12
2
0
8
27
0
6
15
5
16
16
11
3
19
0
0
6
0
8
24
1
0
0
0
0
10
0
0
5
56
105
0
0
5
0
6
30
0
0
26
0
6
0
0
43
0
0
9
5
0
8
10
0
0
0
20
0
15
0
0
0
0
0
29
6
0
0
3
0
20
0
0
0
21
25
0
11
0
4
0
0
15
0
0
0
6
0
0
0
4
7
0
3
0
5
0
10
0
11
0
0
13
0
17
0
14
3
5
2
0
1
3
14
0
2
0
4
0
6
0
34
0
0
8
0
10
0
0
7
0
0
12
0
0
13
0
5
0
0
0
3
0
4
10
0
12
0
0
0
0
9
1
0
160
111
5
0
0
0
0
0
0
18
5
10
0
5
0
1
0
4
8
4
0
5
18
0
0
1
0
4
15
0
28
0
0
0
4
0
0
10
0
6
0
3
0
0
11
0
0
4
4
0
0
0
3
6
0
0
23
0
12
0
25
0
0
0
0
4
0
1
0
4
0
0
0
7
2
0
0
0
2
0
6
12
14
1
4
0
0
24
0
0
22
15
0
5
0
0
0
0
0
12
0
4
0
0
0
0
0
0
9
0
0
0
0
0
9
2
7
0
8
0
15
0
0
0
66
34
6
0
0
29
43
0
0
44
36
0
0
46
0
0
50
0
0
0
0
54
0
0
2
47
16
0
13
0
15
0
2
10
11
0
9
0
0
13
0
7
2
32
1
0
0
17
0
20
0
13
19
0
0
18
20
0
0
4
28
9
0
10
23
48
12
5
26
3
0
3
0
0
0
7
5
36
0
18
0
15
29
25
14
0
18
0
0
0
0
0
0
58
70
88
0
0
0
0
0
0
0
0
7
29
16
0
9
0
14
0
0
29
16
36
0
63
0
0
30
0
0
0
18
0
0
0
30
93
0
0
0
5
0
0
31
36
0
0
0
27
23
0
0
65
47
0
135
0
0
30
42
47
68
0
0
0
0
0
0
20
16
20
1
0
1
15
0
0
10
0
14
0
0
0
2
0
0
0
0
0
0
0
13
5
0
10
1
9
2
0
0
8
0
12
11
0
0
9
0
7
0
14
0
9
0
0
9
5
0
4
1
0
7
1
0
9
12
46
79
61
0
0
62
8
0
0
0
39
0
12
0
0
13
8
0
0
8
24
14
20
15
1
22
9
13
0
3
3
12
0
0
19
6
0
1
0
0
8
0
3
14
67
95
0
0
0
0
3
11
0
8
2
10
0
0
26
0
0
41
0
0
28
6
0
0
1
0
12
1
1
0
30
0
12
8
4
14
0
0
4
0
0
5
11
0
32
1
0
5
20
0
11
0
13
3
0
0
0
0
22
0
0
0
5
0
3
1
4
15
0
0
8
0
16
0
5
0
0
1
0
0
5
0
8
0
0
13
0
15
0
32
0
0
9
0
8
0
2
6
0
0
9
0
13
0
0
0
0
6
0
8
0
7
0
5
0
3
0
0
0
13
0
0
0
6
0
140
106
0
8
0
0
34
0
0
12
0
0
5
0
0
16
0
0
2
0
5
0
0
1
0
11
2
0
0
6
0
20
2
4
12
0
9
0
18
0
11
5
1
8
3
0
11
0
10
2
0
0
0
5
9
0
0
6
0
6
0
3
19
2
13
0
13
1
0
0
6
0
14
0
1
6
10
6
11
0
2
0
0
0
6
5
0
4
0
37
0
0
19
0
0
10
0
16
5
0
10
8
3
0
18
0
0
0
2
0
12
0
4
0
12
0
0
10
0
0
0
0
0
0
85
49
0
0
38
15
0
0
41
31
0
0
23
43
0
0
31
56
0
0
0
46
18
0
15
3
0
0
9
14
0
0
0
12
6
0
0
5
12
0
8
20
0
0
0
28
0
38
0
14
3
0
11
9
0
0
0
12
1
0
3
3
23
0
0
12
25
10
33
31
42
0
10
0
10
2
0
8
1
24
0
0
74
31
0
0
0
0
6
0
0
0
57
77
0
0
0
0
6
12
0
14
0
0
39
0
0
6
0
0
0
0
0
4
17
70
0
0
18
67
0
15
5
16
0
0
0
7
128
7
0
0
0
0
24
60
12
0
0
0
0
18
11
0
0
136
0
0
0
0
25
18
62
66
0
0
0
0
0
24
32
14
9
0
0
14
0
0
0
13
7
0
0
0
0
0
5
0
22
0
0
6
14
10
0
0
0
16
0
12
0
3
0
9
21
0
0
2
2
4
0
0
2
5
0
5
7
0
3
0
0
2
3
11
0
8
11
51
100
49
0
0
0
0
0
8
9
0
0
0
8
0
0
0
20
0
23
3
1
9
11
0
5
0
0
0
0
1
0
0
0
0
0
0
12
0
0
2
0
0
4
15
51
112
0
0
0
0
6
0
9
17
3
12
0
16
15
0
33
0
0
0
7
0
0
0
14
0
0
0
32
0
6
5
0
15
0
0
13
14
0
0
0
0
4
0
0
18
4
13
11
4
0
0
0
6
0
0
4
0
10
0
3
16
2
0
0
0
3
3
0
12
11
5
0
0
2
0
4
0
0
2
8
0
3
1
5
3
0
0
0
25
0
9
6
0
0
0
0
8
0
23
0
1
0
2
0
9
14
0
0
3
1
5
0
13
0
0
6
15
0
8
0
0
5
0
0
11
150
117
11
0
7
1
0
1
0
4
0
15
10
7
0
0
0
0
20
0
26
6
0
8
0
0
0
3
3
0
4
0
0
6
0
2
15
0
0
14
0
0
0
0
4
0
16
0
0
0
7
0
3
9
0
0
1
0
0
0
0
10
0
0
0
0
0
0
0
0
13
0
18
6
4
0
1
2
2
13
10
10
0
6
0
3
10
0
9
0
10
0
0
0
9
0
0
7
2
0
15
0
2
0
0
0
12
15
0
0
0
0
18
0
13
0
21
4
0
0
0
0
0
0
57
36
0
15
19
0
0
28
45
0
0
13
28
38
0
0
0
46
37
0
7
35
47
0
2
0
0
2
0
9
0
3
0
0
8
0
0
2
30
6
0
11
0
0
0
21
0
6
11
0
10
0
5
0
14
14
3
0
11
7
0
0
0
34
0
1
0
0
0
0
0
40
35
35
0
0
37
0
33
1
0
0
48
14
0
0
0
0
8
0
12
71
53
0
0
0
0
10
0
0
0
1
0
35
0
0
0
0
13
22
0
0
50
0
111
0
0
0
24
0
0
0
0
0
0
0
20
76
34
0
4
0
0
0
81
0
0
0
0
0
80
0
0
28
0
152
0
0
6
12
16
68
40
0
0
0
10
0
0
46
13
0
3
4
9
0
0
4
0
13
0
0
0
0
19
0
3
0
0
0
9
0
0
0
0
3
6
0
3
0
0
18
0
0
0
0
10
0
0
0
1
11
0
0
0
0
5
1
11
0
5
0
4
5
8
21
87
91
0
0
0
0
0
0
51
21
8
28
0
0
55
0
0
0
45
0
0
8
14
0
13
0
8
9
0
1
7
0
8
0
0
17
0
8
0
10
0
18
7
7
12
51
100
0
0
0
0
10
16
0
1
0
0
0
15
0
0
14
0
4
20
2
0
0
6
26
0
0
0
8
0
0
4
20
0
0
0
4
0
0
11
0
0
49
0
0
9
0
12
2
12
8
3
0
0
11
0
0
1
11
0
3
4
0
0
6
8
0
3
3
0
0
0
0
4
3
0
2
3
0
7
5
6
0
15
0
0
18
0
19
0
0
8
0
0
15
0
4
0
0
13
1
0
0
0
17
0
0
0
0
7
0
8
0
12
0
9
3
0
0
0
4
1
14
0
0
2
6
139
104
0
0
16
0
2
0
1
7
0
13
0
0
30
0
9
4
0
0
0
0
0
5
11
0
22
0
14
3
0
6
5
0
7
4
0
12
0
2
18
0
12
4
0
0
2
0
0
0
12
2
0
0
8
14
9
0
0
2
6
7
5
0
24
0
12
24
0
0
3
0
0
9
3
0
0
16
0
0
5
0
6
20
0
0
3
0
7
12
0
0
10
6
10
0
0
8
0
16
0
10
19
0
17
4
0
2
0
19
4
3
0
2
1
1
0
0
0
25
0
3
0
0
53
70
26
12
0
0
24
44
0
0
41
33
34
0
0
18
0
0
61
4
0
0
63
29
0
0
14
0
12
0
27
0
5
20
0
4
0
0
0
23
28
0
0
0
20
1
19
0
1
0
17
33
0
0
0
0
5
7
0
0
10
0
0
20
26
4
0
0
13
0
0
0
0
44
31
25
9
12
0
0
0
0
25
0
0
22
51
0
0
26
65
5
0
0
0
35
36
0
0
4
0
0
9
47
0
9
0
11
8
21
0
0
69
28
49
0
0
39
25
0
6
0
0
0
0
30
125
5
1
0
0
27
0
136
30
0
0
0
0
95
51
0
0
0
0
131
0
0
35
12
97
0
0
0
0
0
0
24
47
0
0
8
4
10
0
5
0
4
13
0
0
0
11
2
0
21
7
3
0
3
0
2
0
14
0
19
0
0
1
4
25
0
0
11
0
0
5
0
0
16
7
0
15
14
0
0
5
1
0
0
14
2
0
0
39
113
4
0
0
0
75
0
0
0
0
84
0
6
0
0
0
38
0
0
16
45
0
0
15
8
8
0
1
0
0
6
0
13
0
0
14
0
0
0
0
8
6
0
0
4
43
91
0
0
0
0
2
0
0
0
2
9
9
11
15
0
6
0
0
11
0
22
7
7
21
0
19
0
0
5
0
7
0
0
0
4
21
3
10
36
10
9
0
16
0
0
3
5
5
21
17
0
0
12
0
12
0
0
0
8
0
6
5
0
19
0
0
3
0
0
0
0
5
1
0
11
2
0
11
0
3
0
0
10
4
3
0
0
5
0
0
5
0
0
0
0
2
4
2
10
0
4
0
8
0
0
0
1
2
5
0
5
2
0
0
8
0
4
3
2
0
3
0
0
2
4
1
0
149
103
0
0
0
18
0
7
0
0
15
7
0
13
0
0
12
0
16
4
11
0
3
0
4
0
0
16
7
3
4
0
4
7
3
0
8
0
10
0
3
9
0
7
0
5
2
0
1
3
0
14
0
5
12
0
0
2
1
0
0
0
0
0
2
0
22
0
0
0
26
0
5
11
0
0
9
0
3
2
9
0
14
0
0
28
0
22
0
0
22
0
0
0
11
0
0
18
0
0
18
0
0
10
6
0
0
12
2
6
0
6
0
0
0
0
24
6
0
0
22
0
0
0
0
55
59
0
0
22
28
0
0
17
38
9
0
0
0
27
32
0
32
51
0
0
26
84
0
0
0
18
17
2
0
7
13
15
0
2
5
0
9
6
11
0
11
20
0
2
0
0
7
12
0
12
0
3
0
11
14
0
7
2
0
0
22
6
17
0
24
44
24
13
0
8
0
0
0
47
10
48
20
35
0
41
0
0
6
0
13
42
24
14
0
0
4
0
33
0
0
31
0
0
0
35
62
0
0
0
0
0
0
0
0
56
17
29
5
0
17
0
0
0
0
9
0
0
23
70
34
0
0
0
57
22
34
11
0
0
0
0
45
91
31
0
0
0
0
101
0
5
62
64
0
0
0
0
0
0
18
19
21
0
11
9
0
11
0
7
0
8
0
0
0
5
0
26
0
7
0
18
17
0
0
9
0
6
3
0
4
8
0
7
0
19
0
13
12
0
0
7
16
0
4
0
0
0
4
8
3
0
2
0
0
0
5
62
106
0
0
0
0
12
21
29
0
0
0
46
31
0
13
0
22
9
24
0
1
19
0
0
26
0
14
0
0
1
8
0
0
3
5
1
0
17
0
14
0
0
5
0
20
38
104
15
0
0
0
0
0
5
0
2
12
0
0
0
0
0
9
20
0
0
12
0
0
0
0
6
0
0
1
0
9
0
0
18
0
0
10
0
0
4
0
15
0
1
0
0
17
0
13
1
6
0
0
0
1
0
0
0
0
9
2
17
0
0
5
0
12
0
1
4
0
0
14
0
0
0
0
0
2
7
0
0
21
0
0
11
12
0
0
4
2
0
0
12
0
2
8
11
0
0
9
0
2
3
0
5
6
0
0
0
0
0
0
5
0
9
0
15
0
0
7
6
14
0
12
1
2
0
159
115
9
0
13
0
0
8
0
0
0
0
6
0
0
0
14
0
22
0
18
9
0
0
0
10
0
0
2
0
8
0
5
0
0
10
5
0
0
10
2
0
0
0
26
0
13
0
9
0
11
0
1
0
0
10
0
6
0
15
6
0
24
8
6
0
9
3
0
4
1
0
0
14
9
0
15
10
0
4
8
0
12
0
28
0
0
3
13
1
0
7
0
6
0
18
0
0
0
0
0
0
20
0
0
13
12
0
0
0
13
0
8
10
11
1
3
0
21
0
0
3
0
0
0
27
65
0
30
11
0
0
0
50
6
0
2
0
0
2
31
0
0
20
33
0
6
20
0
0
0
0
32
0
0
0
0
4
6
14
7
0
11
27
0
0
16
19
13
0
0
21
0
3
29
0
0
5
2
0
15
7
0
0
0
29
11
0
0
1
6
1
0
18
55
51
22
45
0
0
0
0
36
41
0
0
0
13
0
3
0
0
16
0
0
44
0
0
0
14
22
0
9
0
22
31
0
3
0
16
0
0
9
0
52
56
0
56
0
0
0
13
0
63
0
0
0
37
82
9
0
0
5
49
52
35
40
0
0
2
0
3
91
107
0
7
0
0
44
55
0
71
86
0
0
0
0
0
0
0
24
28
3
0
5
0
11
3
3
0
7
4
0
16
9
0
2
0
0
20
0
0
1
0
15
3
15
0
3
4
0
12
9
0
0
0
13
0
5
0
9
10
0
0
6
0
0
0
6
10
0
4
1
8
0
29
85
70
0
0
0
0
28
12
39
33
26
0
0
30
58
27
0
0
0
0
32
0
0
0
0
22
0
5
12
0
12
13
0
7
13
0
0
10
10
0
0
19
0
8
0
9
73
112
22
0
0
0
0
63
0
5
4
19
0
5
11
0
14
6
2
0
30
0
1
4
0
0
5
0
5
20
0
0
0
0
34
0
10
0
3
28
0
0
40
0
32
0
0
13
0
45
0
12
0
9
9
0
3
1
0
5
3
0
15
0
4
3
0
0
3
0
4
0
8
0
4
13
0
0
2
2
0
0
2
0
0
14
0
0
0
15
0
7
3
0
6
4
0
0
1
0
0
0
0
5
0
0
0
15
0
21
0
7
3
3
6
0
11
0
8
0
0
9
0
0
6
4
0
0
0
10
138
95
0
0
0
0
11
0
11
0
6
0
2
11
0
0
0
9
0
7
0
0
0
32
0
0
6
0
0
8
0
14
0
0
7
3
0
6
8
0
0
7
10
0
0
0
0
5
0
0
0
0
9
3
0
14
0
0
16
0
0
13
0
0
0
12
0
0
0
28
0
24
2
0
0
24
0
5
0
9
0
3
0
2
0
6
6
0
0
0
0
0
0
8
13
14
2
0
0
10
1
0
0
17
0
0
1
0
14
14
3
10
6
1
7
2
0
14
0
5
0
20
0
8
0
0
22
61
5
0
0
7
51
13
0
4
0
3
14
0
23
50
0
0
66
0
0
0
0
0
13
0
20
3
0
0
0
0
28
0
15
0
15
0
0
37
0
18
0
5
0
36
14
0
0
12
0
0
13
10
0
0
19
0
9
21
0
24
0
0
0
0
13
0
0
32
0
69
59
0
0
0
0
0
0
0
5
9
1
0
0
0
41
14
30
17
0
3
33
7
0
0
0
27
51
28
0
0
0
0
0
0
12
0
66
0
24
104
0
0
20
24
1
2
29
0
0
144
0
0
0
8
63
55
0
0
0
0
0
0
0
61
70
0
0
0
0
0
59
0
72
61
0
0
0
0
0
0
20
26
20
2
0
1
10
0
5
0
2
13
0
0
6
0
0
8
1
0
13
0
0
0
18
0
0
0
0
0
11
0
13
0
0
0
6
0
13
0
9
22
0
0
9
12
8
4
0
24
0
0
3
14
4
16
33
57
0
0
0
0
0
0
0
48
3
26
17
0
0
1
41
37
18
0
0
19
29
0
0
29
13
1
10
0
0
0
20
0
18
0
0
10
0
0
1
11
0
0
1
6
50
81
60
0
0
0
0
3
0
0
0
0
9
0
7
0
1
5
0
0
0
5
0
7
0
0
20
0
31
8
0
0
0
3
3
0
21
0
18
4
2
0
9
4
0
0
6
0
0
16
0
8
0
14
1
1
0
0
0
4
0
6
6
0
11
0
9
0
5
4
0
16
0
9
0
0
0
0
12
0
10
0
10
8
0
0
8
0
4
0
0
0
2
5
0
7
0
0
4
0
11
7
6
1
3
0
9
0
12
0
7
0
9
0
4
0
0
0
0
0
12
0
11
0
16
0
22
0
8
10
9
0
162
108
1
1
1
6
0
0
0
15
0
1
0
0
0
2
0
17
0
1
0
0
31
0
24
7
0
0
11
4
0
0
16
0
0
10
0
6
0
2
0
4
0
6
0
9
18
0
5
1
8
3
0
6
6
6
5
0
7
0
14
11
0
0
20
0
9
10
9
0
5
0
0
0
0
0
19
0
0
9
0
0
8
17
2
0
0
16
7
6
22
0
8
0
3
0
0
20
0
0
0
11
5
12
0
9
0
6
0
0
0
0
0
20
0
0
18
0
3
0
15
0
0
11
0
0
36
71
25
0
12
39
2
0
13
22
0
0
0
13
2
9
34
0
48
45
0
0
0
0
13
37
0
6
8
21
0
0
0
28
0
0
0
0
0
14
28
0
20
7
0
0
18
0
0
6
10
0
1
0
23
0
0
3
19
0
0
0
2
30
0
28
49
12
0
0
0
0
33
50
0
0
0
0
36
35
37
0
0
0
39
65
0
0
0
8
0
35
0
0
12
0
20
90
63
0
4
0
0
0
0
0
28
0
92
0
52
29
0
9
0
0
0
0
0
0
0
16
0
3
0
39
0
0
0
30
9
0
0
0
59
51
73
0
0
0
0
20
71
7
43
0
0
0
0
0
0
19
35
1
0
4
5
6
0
0
0
4
0
0
0
5
0
14
0
1
0
0
10
0
4
11
0
3
12
0
0
1
0
1
3
0
9
15
4
0
0
3
0
0
0
0
3
3
0
3
1
0
2
0
16
17
0
28
3
0
0
0
10
24
0
0
0
0
53
0
26
44
0
0
0
48
37
14
0
0
56
0
0
0
0
12
18
0
12
0
22
5
0
8
0
10
0
5
13
0
0
0
12
47
102
18
0
0
0
0
61
0
0
0
0
0
0
0
0
8
4
11
4
0
0
0
0
15
0
0
21
0
0
0
0
13
14
3
0
0
0
10
0
3
0
17
0
0
3
24
0
0
21
0
11
2
18
0
0
0
24
14
0
7
0
0
0
0
15
0
0
9
1
0
0
2
11
0
0
2
0
4
0
18
0
0
13
0
10
0
0
7
6
10
0
4
2
0
18
0
4
0
17
7
0
0
0
0
8
0
0
0
5
0
0
1
2
0
0
10
3
0
7
2
0
0
0
11
0
12
0
12
0
0
1
5
143
98
0
13
0
0
0
21
5
8
0
3
0
3
0
6
0
24
0
1
0
16
0
8
0
0
17
0
0
9
0
7
0
7
2
0
8
0
6
6
5
0
7
0
9
0
0
1
0
0
0
0
7
0
0
0
0
7
0
2
0
0
4
9
0
2
3
0
0
0
15
0
36
0
8
0
0
0
0
0
2
4
0
0
0
5
9
8
0
0
0
4
0
0
7
7
0
0
7
17
0
0
0
0
9
0
4
0
1
3
13
8
0
0
20
1
13
0
23
4
2
0
6
0
0
0
0
77
24
0
30
3
0
0
40
0
0
5
0
39
0
0
40
4
0
64
0
0
0
0
29
32
0
0
31
0
0
0
0
12
8
6
0
7
0
21
3
0
0
23
0
7
0
8
2
0
0
17
0
0
18
0
8
22
0
12
25
16
28
36
54
0
1
0
0
0
0
0
0
0
0
14
30
16
23
0
0
0
26
8
48
6
0
0
0
18
30
0
0
0
0
24
45
14
0
0
3
4
0
18
0
0
37
0
88
0
55
0
0
0
0
8
0
0
3
0
69
39
26
26
0
0
0
22
71
0
0
0
0
0
123
26
71
0
0
0
0
76
94
16
0
4
0
0
0
0
26
20
5
5
2
8
0
1
1
2
11
0
0
4
4
7
0
3
0
19
1
6
0
0
0
0
1
6
0
0
17
6
0
0
0
18
0
28
0
7
0
0
6
5
3
12
0
8
0
5
10
2
6
0
4
0
0
0
5
0
0
0
0
13
53
36
0
0
0
39
6
42
12
27
0
28
37
27
3
0
13
15
42
0
0
21
24
5
0
1
4
5
0
0
0
4
0
0
0
0
0
32
85
87
0
0
0
0
16
0
0
0
0
1
18
0
0
0
11
0
5
0
0
3
29
15
0
0
42
17
0
0
50
1
5
0
21
5
0
12
6
3
18
0
10
20
3
3
0
0
18
0
0
9
3
7
14
0
6
0
6
0
0
2
6
8
7
10
0
0
1
0
0
0
0
15
0
5
12
0
9
0
10
0
0
10
0
0
0
3
17
0
0
0
3
0
16
2
0
19
0
11
0
0
0
11
0
5
0
9
4
0
0
0
0
12
1
4
0
0
0
0
2
9
0
0
0
0
3
0
10
0
17
0
9
0
165
141
34
0
13
0
12
3
0
4
0
0
0
20
2
0
5
0
2
0
0
0
0
4
11
0
9
1
0
19
0
6
0
0
0
1
14
0
5
2
1
0
0
0
0
3
2
5
14
4
0
0
0
13
0
3
0
9
3
1
0
5
6
8
0
8
0
8
14
0
3
2
0
16
0
0
15
11
6
28
0
7
2
0
39
0
0
0
12
0
6
0
0
2
0
0
0
6
0
16
11
0
12
0
0
26
0
0
9
0
18
0
4
0
0
12
0
9
0
0
15
5
0
0
0
0
0
2
54
44
1
0
0
25
15
6
8
0
0
0
23
0
10
42
0
0
0
0
0
8
30
0
5
0
0
23
0
6
1
0
7
0
0
0
8
0
0
16
0
0
9
2
0
0
0
0
0
0
14
18
0
0
6
20
15
0
0
1
0
0
0
0
0
23
0
4
16
3
0
0
0
50
0
10
0
0
0
57
8
0
0
0
0
8
20
0
0
0
3
0
0
0
50
65
0
2
0
0
22
0
0
0
26
17
33
0
112
0
0
14
0
0
13
72
46
0
0
6
0
0
0
0
15
25
39
0
0
0
0
52
59
83
0
0
0
0
0
78
17
0
0
0
0
0
0
31
36
12
0
1
10
0
1
0
0
0
5
0
12
9
0
9
0
5
16
0
0
0
4
0
8
1
15
0
0
10
6
0
0
0
16
0
0
0
0
11
0
11
2
0
14
0
15
0
4
1
0
8
10
0
0
0
0
18
10
15
14
0
0
0
25
55
23
0
0
0
48
0
16
12
43
0
54
44
6
0
0
40
0
7
0
8
14
0
9
0
9
8
0
0
7
0
0
0
0
16
44
84
38
0
0
0
1
0
0
5
53
0
0
4
0
0
11
12
0
0
0
0
2
0
8
0
29
0
0
43
0
0
0
0
0
25
0
6
0
0
0
0
0
0
13
0
2
0
0
25
0
0
0
4
8
13
0
0
0
0
9
3
0
0
3
0
5
0
0
0
20
8
1
16
6
0
0
0
6
5
5
14
0
5
0
0
6
6
5
0
0
0
1
3
0
6
0
1
6
0
0
0
0
19
0
0
0
0
0
0
7
0
3
0
12
0
0
0
0
7
0
11
0
0
6
1
0
0
0
6
4
0
0
3
0
10
144
85
0
11
2
13
0
16
0
39
0
17
12
0
13
4
0
0
2
3
0
8
4
16
0
1
0
15
0
8
0
10
0
0
5
1
1
0
3
0
10
0
4
15
0
0
7
0
8
0
1
11
0
4
0
0
0
0
0
0
2
1
0
8
0
0
25
0
0
14
0
3
0
0
0
2
2
7
0
0
10
0
0
0
0
14
7
2
20
0
0
1
9
5
1
10
0
0
0
30
0
12
0
17
0
0
9
0
8
0
0
0
13
0
7
13
2
0
0
0
0
0
8
6
0
0
0
0
29
86
0
0
26
23
0
0
20
7
0
9
0
14
0
28
31
4
0
0
16
9
9
7
0
0
0
0
18
0
14
14
0
0
14
0
27
0
16
9
21
2
0
22
0
0
8
25
0
0
0
15
0
22
0
8
0
6
0
0
0
0
0
28
29
0
11
62
0
6
13
9
24
5
1
0
0
0
23
33
19
5
0
39
0
0
16
0
9
0
0
1
55
18
53
33
0
0
0
0
6
0
0
3
0
13
71
0
77
0
6
0
43
4
0
0
0
11
0
0
0
10
0
0
27
62
0
0
0
0
0
64
53
24
0
0
29
0
70
16
0
15
0
0
0
10
31
14
11
3
2
0
8
0
0
4
10
10
0
3
0
2
0
0
8
3
0
0
0
8
7
8
4
1
0
19
3
6
0
0
0
8
0
22
1
8
0
4
0
13
0
4
4
0
0
11
16
0
23
0
0
0
7
11
9
18
0
47
0
0
0
0
0
0
75
47
0
0
6
15
0
0
17
0
0
65
30
0
0
0
11
0
0
0
0
31
0
0
5
0
2
0
0
0
0
10
15
48
77
41
0
0
0
5
0
44
0
28
0
21
0
3
0
0
0
0
6
0
0
16
0
19
3
0
0
29
0
1
0
18
0
0
6
33
0
0
0
13
0
14
0
9
0
29
0
0
24
6
0
0
7
6
15
4
8
0
7
3
0
0
12
0
2
17
6
0
4
1
0
6
6
0
0
12
3
0
0
9
0
0
3
0
0
11
0
0
0
9
0
5
0
10
0
1
0
0
0
1
11
0
3
2
0
9
1
0
15
2
7
5
10
0
0
8
7
0
11
2
5
0
19
0
0
6
3
1
4
4
0
3
0
0
3
7
150
108
2
0
0
0
4
2
19
0
7
0
0
18
0
11
0
7
0
0
0
3
0
0
10
0
5
0
5
14
0
4
5
5
5
0
0
13
0
10
7
5
0
0
2
1
0
7
0
10
16
0
0
5
6
0
9
9
7
1
17
4
0
6
1
0
0
0
4
0
6
2
17
0
25
0
0
0
5
0
0
3
6
0
0
0
8
0
0
7
2
17
0
0
3
0
3
14
0
0
11
0
1
0
1
5
0
4
0
0
16
6
0
0
3
0
0
13
21
3
2
6
5
18
0
7
0
0
0
74
0
37
15
0
1
0
0
29
3
0
0
6
10
22
20
68
0
0
82
0
0
0
11
19
0
7
0
5
0
0
0
0
13
2
0
2
4
0
11
0
0
0
0
10
0
0
19
13
0
0
44
19
0
13
0
0
2
27
0
20
13
6
0
18
0
0
27
23
0
33
23
0
0
0
0
0
13
0
0
0
0
0
0
0
0
0
0
0
46
0
0
0
49
58
0
9
9
0
0
14
2
0
29
45
33
0
133
0
0
1
11
8
3
0
0
20
14
0
23
2
14
0
45
73
0
0
0
0
0
31
54
0
0
45
39
0
87
0
0
28
0
0
39
42
36
0
7
6
6
0
0
0
0
8
0
0
1
5
0
3
1
6
14
0
0
0
0
8
0
4
0
14
5
0
0
0
0
0
0
0
6
0
0
0
0
28
0
0
14
0
5
0
0
15
0
0
0
0
0
19
3
11
7
11
0
21
7
3
0
0
0
0
0
81
67
5
0
0
24
1
0
42
0
0
52
0
6
0
31
0
0
21
0
4
0
0
0
0
19
0
0
9
2
32
39
87
18
0
0
0
0
5
0
1
0
0
30
0
0
6
3
5
1
6
12
0
14
0
0
19
0
3
6
22
0
6
0
4
0
4
0
0
2
13
7
0
0
20
17
0
44
0
0
0
24
2
0
0
35
0
12
1
0
0
10
7
0
0
2
9
0
6
0
3
6
0
0
8
0
0
13
0
0
3
0
10
0
0
10
0
4
0
0
0
0
0
4
0
5
0
8
0
6
0
8
0
0
18
0
12
0
0
12
12
0
8
0
0
0
0
0
0
10
0
0
0
5
0
0
5
0
0
1
0
5
0
4
0
18
0
0
0
148
113
4
4
0
7
0
0
13
0
0
14
0
5
0
0
5
0
7
2
7
0
16
0
4
2
0
6
0
0
23
0
0
0
0
3
0
5
0
0
0
10
2
5
0
0
20
0
1
0
0
6
0
10
0
24
0
0
3
0
4
0
1
10
5
0
0
0
0
9
0
2
0
10
0
12
0
13
0
1
2
0
0
22
4
6
0
7
0
0
0
9
0
6
0
6
3
0
2
0
0
0
0
1
12
9
0
8
8
0
4
0
0
0
6
0
0
0
0
0
0
4
0
0
8
0
0
0
0
0
71
29
0
0
3
0
4
12
32
0
1
5
5
18
12
0
0
22
66
11
0
0
0
11
9
2
3
8
40
0
12
0
8
0
0
0
8
4
0
7
20
0
0
9
0
0
0
0
0
0
0
33
11
21
5
0
12
3
0
30
14
25
65
65
0
0
13
27
24
0
1
0
22
0
11
36
0
5
39
0
26
0
8
0
0
7
2
0
48
0
37
0
76
0
0
0
28
0
6
0
0
0
65
0
73
0
57
0
0
0
0
0
8
0
0
0
17
0
0
0
0
0
49
63
0
0
0
0
52
60
20
0
0
51
16
29
44
0
0
3
0
0
38
39
0
3
3
3
0
0
3
0
10
0
12
0
0
0
2
0
0
3
0
1
0
8
5
0
0
18
0
17
0
1
0
0
3
0
0
9
3
1
10
0
23
0
8
0
0
4
3
0
17
0
1
0
10
9
0
13
0
7
0
0
7
0
21
0
2
0
27
4
0
0
54
72
0
0
10
16
0
0
82
0
29
40
0
0
11
9
0
0
0
6
4
0
1
9
1
0
17
25
45
72
38
0
0
0
0
7
0
0
14
0
0
18
0
0
12
15
0
8
4
0
12
18
0
4
0
0
31
0
0
0
0
20
0
1
13
2
10
0
30
0
0
0
12
0
5
14
0
36
0
0
13
0
0
5
0
2
24
14
0
0
0
0
0
0
9
0
12
6
0
1
0
0
3
1
1
0
8
0
10
1
0
0
17
8
0
5
0
4
8
2
19
0
6
0
0
0
1
0
1
0
1
0
1
0
0
9
0
0
10
0
0
4
0
4
3
12
0
6
6
5
0
10
3
0
9
1
4
7
0
1
11
0
6
0
0
1
8
4
148
112
2
5
4
1
2
8
5
0
3
0
2
0
5
3
0
18
2
0
16
0
12
0
8
0
0
0
0
0
0
5
0
12
3
0
0
11
0
0
0
13
0
0
1
0
0
6
9
0
18
0
0
2
0
0
15
0
11
0
0
6
8
3
4
0
0
0
17
0
6
0
5
0
0
2
4
0
9
0
14
0
3
4
0
2
0
12
6
5
9
0
13
0
7
7
0
5
2
14
8
0
0
8
0
24
1
0
9
6
0
3
3
11
1
0
4
0
19
0
4
1
7
0
0
13
14
0
0
0
66
67
0
15
18
0
0
0
20
25
0
17
11
29
0
0
0
41
11
10
0
0
2
0
1
19
0
2
0
5
0
11
0
0
5
0
16
0
0
10
34
17
35
0
32
45
19
25
3
19
0
0
0
16
37
15
3
0
18
16
0
0
0
0
0
0
0
0
0
2
0
0
6
0
51
0
27
62
0
0
0
10
0
0
7
0
0
0
0
0
7
40
64
0
0
0
0
0
24
0
0
36
12
0
0
1
39
0
2
0
52
35
0
0
0
0
0
2
0
0
0
0
52
0
21
0
0
0
80
15
0
11
36
88
0
46
0
0
11
0
13
0
36
15
0
7
9
0
12
0
6
7
0
4
0
7
0
6
0
4
14
0
2
0
16
0
0
8
0
18
4
2
0
0
0
15
0
0
10
3
0
1
12
0
0
0
0
3
23
0
10
0
0
0
9
3
0
2
8
0
0
0
13
15
1
14
3
0
4
0
0
30
41
0
0
43
79
0
6
0
32
0
22
0
16
50
10
0
0
19
0
0
31
0
6
0
0
12
0
19
28
72
59
0
0
0
0
0
0
16
8
0
0
0
11
5
0
0
0
0
0
12
4
0
0
0
0
8
0
0
12
0
23
1
0
4
25
0
0
0
6
6
0
0
0
5
17
0
5
12
0
0
8
4
0
0
7
7
0
8
2
0
7
2
2
0
2
0
12
0
9
0
10
0
12
0
16
0
9
9
0
0
1
0
4
0
0
2
4
5
0
0
0
0
0
6
0
0
10
0
0
0
17
0
0
14
0
3
0
0
11
0
0
0
1
8
0
9
2
0
7
0
0
0
0
6
0
4
0
0
19
0
0
4
6
2
0
8
0
9
2
17
147
106
0
0
0
9
0
0
3
9
0
5
7
7
0
3
0
0
0
0
4
5
0
0
8
0
11
9
2
0
0
11
0
0
0
11
0
0
0
19
0
0
1
7
10
0
8
0
0
4
0
12
11
0
3
7
0
16
0
0
9
0
0
0
14
0
0
0
0
0
4
1
14
10
0
32
0
0
0
0
0
0
8
0
0
13
0
0
0
0
0
10
0
6
0
4
17
0
0
7
1
0
16
7
16
0
0
0
0
1
0
10
0
1
0
1
0
15
0
0
15
13
0
12
15
0
0
9
0
0
7
71
12
0
0
0
0
18
0
3
0
25
23
0
0
0
39
44
9
0
0
0
0
22
6
0
20
21
0
2
8
6
17
0
3
5
3
0
1
0
14
8
0
0
0
18
0
0
0
32
0
0
0
0
0
16
42
42
5
14
12
15
0
0
0
50
27
0
0
4
27
0
34
0
0
0
44
0
8
0
0
0
0
13
0
9
0
2
0
0
74
0
60
0
0
0
0
0
0
77
101
0
21
0
15
6
0
0
0
27
0
10
26
48
5
29
3
34
32
0
0
27
69
0
0
32
0
64
26
21
0
27
110
0
44
1
0
0
0
17
66
0
21
0
14
0
0
7
0
0
0
14
5
0
0
11
0
10
0
14
0
4
0
25
0
0
0
16
3
1
0
0
0
6
6
3
0
0
0
0
21
0
12
0
11
0
0
11
0
0
0
8
8
5
0
17
0
3
7
5
1
0
0
0
0
0
5
0
6
0
0
0
0
47
0
0
83
73
0
0
37
0
2
0
0
49
47
0
4
28
0
0
0
8
4
0
22
9
31
47
37
19
0
0
0
19
0
23
6
0
0
9
1
0
0
0
0
0
21
0
31
0
9
2
5
0
20
0
0
12
0
0
0
13
9
0
0
0
21
0
0
4
6
3
0
0
0
0
3
7
0
8
0
0
3
0
0
12
17
8
14
6
0
11
0
0
3
0
11
0
12
0
1
20
0
0
0
15
0
3
2
1
0
5
0
0
0
0
0
0
14
4
9
0
9
11
0
0
0
5
2
9
0
3
0
0
0
3
0
10
2
4
4
3
0
0
3
4
0
8
0
0
0
22
3
5
0
0
0
6
0
12
0
0
0
0
14
0
0
13
0
0
159
109
3
0
3
0
2
0
17
0
8
5
0
0
0
0
1
0
0
19
2
0
13
0
0
0
13
0
0
0
19
7
0
0
0
6
0
8
12
0
8
0
2
0
8
0
5
0
0
2
6
0
0
8
0
5
0
0
0
18
0
0
1
23
0
0
28
0
13
1
0
0
5
0
7
0
0
26
0
11
21
0
0
31
0
5
3
2
25
0
13
0
14
9
0
0
0
0
0
4
0
2
5
0
0
4
7
0
8
2
4
0
5
0
1
0
18
0
4
10
0
3
8
0
7
0
2
0
12
0
0
15
68
0
0
0
10
0
14
0
6
1
37
2
0
0
103
0
10
0
0
20
0
0
12
0
0
0
0
4
40
0
0
8
0
7
4
23
0
11
0
0
0
0
0
0
0
2
4
0
0
0
3
6
0
0
0
0
0
0
32
14
10
0
0
1
0
0
17
19
23
0
0
15
2
14
20
0
9
0
0
20
4
13
0
0
30
0
0
23
50
0
64
0
0
15
0
62
0
0
68
0
0
0
0
0
0
0
29
7
0
27
55
8
55
34
44
67
33
47
26
7
77
15
7
9
43
0
76
28
0
0
0
0
0
6
0
0
22
78
12
0
34
0
0
14
0
10
0
0
6
0
0
4
0
0
15
3
0
0
6
0
9
2
0
4
5
0
9
0
0
9
0
2
0
19
0
0
9
11
7
0
15
0
9
4
0
0
0
0
16
15
0
6
0
12
2
0
6
8
2
14
0
13
0
16
14
8
0
5
0
0
0
9
9
0
0
70
92
0
0
41
0
25
0
18
37
0
0
0
9
0
0
0
0
18
3
42
11
6
0
0
0
0
7
0
0
0
0
0
10
3
0
21
0
0
0
0
9
0
2
3
0
34
0
8
0
0
36
0
3
0
12
0
0
4
40
0
0
0
0
0
24
0
0
20
0
35
0
0
2
0
20
32
0
0
24
0
16
0
0
0
0
8
0
11
3
7
0
0
15
0
0
0
18
0
14
0
11
0
0
1
0
0
2
3
1
8
6
0
2
0
1
0
6
0
0
15
0
2
0
0
6
6
0
2
7
0
5
0
2
0
4
0
9
7
0
3
0
0
7
0
2
0
0
2
0
0
14
5
0
7
0
0
2
9
0
7
8
0
0
0
150
104
0
0
0
0
16
4
0
4
5
0
0
21
0
16
0
0
12
3
0
3
0
0
5
0
0
0
0
11
0
0
10
2
8
8
0
0
0
0
8
0
0
0
0
27
0
6
0
0
0
5
3
5
0
13
0
1
7
0
0
15
18
0
0
0
0
2
0
0
0
11
4
0
10
0
30
0
0
0
0
5
8
0
10
0
10
0
0
10
0
0
1
0
15
0
14
1
5
0
0
2
7
0
0
0
0
19
0
13
0
12
0
0
33
1
0
14
0
0
0
10
0
23
0
18
2
0
2
0
0
0
65
17
16
0
9
0
0
0
0
34
36
0
0
0
78
0
0
6
6
0
4
0
7
6
0
0
0
0
0
7
0
6
0
22
14
0
0
22
0
0
0
0
7
0
2
18
18
21
22
37
17
32
12
0
0
32
0
0
0
0
0
31
46
11
0
0
20
41
0
0
18
31
0
42
0
0
15
0
34
0
49
0
7
0
0
2
1
11
0
0
55
0
0
0
0
0
0
134
0
0
0
10
9
17
9
0
0
0
40
0
0
0
9
0
0
0
31
0
0
12
60
0
5
17
0
0
43
17
0
0
0
52
37
0
0
32
83
8
0
0
29
2
6
6
0
5
0
1
0
3
6
0
14
3
6
1
0
0
5
6
2
0
14
6
0
7
0
24
0
12
0
0
21
0
9
0
0
0
5
0
7
4
0
0
0
0
6
7
0
0
3
13
12
0
6
8
0
0
9
3
8
1
15
7
11
0
7
26
0
0
0
0
22
21
0
0
28
91
0
0
22
10
0
0
90
29
0
4
0
26
0
0
12
0
8
0
0
0
0
0
0
0
0
8
13
0
0
4
0
0
7
10
8
14
11
0
0
0
13
7
0
5
0
2
1
0
0
0
21
0
3
12
10
0
0
0
3
2
2
11
0
6
1
0
0
0
15
0
0
0
6
0
6
0
0
18
0
10
0
11
0
0
15
0
0
0
8
7
0
0
4
20
0
0
7
0
16
0
15
7
0
15
0
14
0
0
0
19
9
0
0
7
0
0
8
0
4
0
0
3
0
0
9
3
6
4
0
9
11
0
0
0
0
0
4
3
0
2
0
10
0
1
12
0
0
11
0
5
0
10
2
2
0
4
5
0
0
0
6
0
150
112
3
3
5
16
0
10
10
0
0
0
7
0
11
0
10
2
6
0
10
2
11
0
0
4
0
7
10
8
2
0
18
0
1
3
7
0
16
6
6
4
3
7
0
0
0
0
22
1
0
5
0
2
0
7
0
0
0
16
0
3
0
0
0
21
0
7
0
5
18
0
11
21
4
6
0
6
15
0
5
0
0
23
0
1
0
16
10
0
9
0
0
2
0
0
0
11
0
3
8
0
0
12
0
11
0
0
6
0
0
14
0
7
0
0
10
2
7
0
13
0
11
7
12
8
0
2
0
0
0
0
59
17
23
5
0
0
1
3
0
15
30
0
7
0
16
0
0
0
0
0
0
6
6
18
0
0
17
3
0
0
18
0
0
0
1
0
0
0
11
0
0
17
25
25
18
0
2
11
0
4
7
20
8
5
0
1
0
0
0
0
0
24
0
0
0
9
18
5
0
0
14
25
0
25
0
0
23
3
0
12
0
0
12
1
0
12
0
0
30
7
37
3
0
0
17
19
22
23
0
0
0
0
0
0
4
3
8
0
15
0
0
0
0
1
41
0
0
0
0
0
67
0
35
7
0
0
60
26
0
20
36
44
31
0
0
77
30
0
0
10
0
9
0
2
0
0
1
12
0
8
9
0
5
0
0
0
8
4
0
0
0
18
11
0
0
0
7
0
0
12
5
0
0
17
0
0
12
0
7
2
0
0
0
9
0
11
10
0
9
0
0
2
0
18
0
5
0
10
0
8
7
0
0
0
21
9
0
4
0
0
3
0
0
34
4
0
0
134
86
0
0
0
54
0
0
30
38
0
0
15
0
19
0
4
41
0
0
0
33
13
0
0
7
0
0
0
4
27
3
0
11
0
0
0
0
19
0
4
0
1
0
3
19
11
0
0
18
19
0
0
0
0
12
9
5
5
0
0
26
0
0
6
0
30
0
0
16
1
9
12
0
10
0
0
9
27
0
11
12
0
2
9
0
0
0
9
12
4
4
14
0
0
5
0
4
2
0
4
0
0
8
1
11
0
7
0
0
0
0
7
0
0
3
0
0
5
0
14
0
4
3
0
0
4
0
2
4
0
0
9
2
7
0
0
3
0
0
13
0
9
3
0
0
0
8
0
0
0
4
0
9
0
2
0
0
11
0
0
0
21
150
110
3
0
0
0
9
0
7
0
6
10
0
0
0
0
10
0
0
0
0
7
0
0
3
0
11
8
0
0
3
16
0
6
5
0
0
0
5
0
4
0
0
0
6
0
8
0
0
2
0
0
9
4
2
0
19
0
7
0
13
0
7
3
13
0
7
7
1
0
0
0
0
0
0
0
0
0
7
6
0
15
16
0
2
13
0
10
0
9
0
0
17
0
4
0
11
0
4
0
15
7
3
0
6
0
1
10
0
1
0
12
5
0
15
0
0
17
0
2
0
0
0
8
0
0
11
0
24
0
0
0
56
6
5
33
0
0
27
0
10
0
25
0
66
0
0
10
0
12
8
21
0
21
0
0
5
5
0
6
9
0
10
16
6
23
0
0
0
0
0
8
10
10
14
0
12
0
0
29
0
0
10
34
0
38
0
6
0
24
17
0
68
0
0
0
0
0
16
15
0
0
18
0
47
12
0
16
6
0
0
0
1
0
2
0
14
4
0
0
14
0
26
41
0
57
0
0
0
0
0
3
30
0
8
0
0
0
0
0
0
0
19
1
0
2
0
0
0
0
0
0
52
0
0
0
40
0
15
23
0
0
64
0
0
0
13
0
0
0
0
0
15
0
0
11
0
0
11
9
0
0
0
1
0
3
0
22
0
8
0
3
22
14
0
0
9
15
0
0
10
5
0
8
0
0
0
7
10
0
0
4
0
0
17
0
5
13
0
0
2
0
3
0
1
0
3
1
1
0
0
0
0
4
0
11
8
1
25
0
13
0
0
10
0
0
51
6
0
0
113
86
0
43
7
0
0
63
19
2
0
8
31
0
12
0
0
0
0
12
1
26
0
0
0
17
0
8
0
5
0
10
0
9
0
7
14
0
15
0
3
12
3
0
1
0
0
4
0
0
0
25
0
15
0
0
0
17
0
0
0
1
0
19
13
0
21
0
0
0
0
15
0
0
23
0
29
0
13
0
0
0
0
0
14
0
0
7
0
12
1
0
10
0
6
4
0
0
1
6
0
7
0
1
0
0
0
10
0
12
0
3
4
0
0
8
8
0
11
0
13
0
11
5
0
4
6
0
6
1
14
0
1
7
7
2
2
4
8
0
12
0
0
19
0
13
0
0
3
3
6
0
1
2
0
10
0
1
0
1
1
2
143
101
0
22
10
14
0
11
0
0
1
12
0
0
13
0
2
13
10
0
16
0
0
0
19
0
0
0
11
2
14
0
0
7
2
0
0
15
0
14
0
0
18
0
19
0
1
0
0
0
7
8
0
4
0
7
7
0
9
0
0
19
0
2
0
14
0
0
0
0
7
0
15
0
28
20
0
14
0
0
0
2
0
23
0
0
12
0
0
0
1
0
0
15
0
4
0
0
8
0
0
0
0
5
0
0
1
0
0
6
0
1
5
0
0
16
0
11
7
40
0
44
0
14
8
4
0
4
0
1
0
0
71
0
0
5
21
0
0
0
9
24
0
0
80
0
4
0
0
6
0
0
21
0
0
0
0
12
0
2
23
0
14
0
0
7
0
23
0
0
3
10
18
11
0
5
26
0
10
0
0
0
30
15
26
5
26
42
1
0
0
3
0
23
29
2
0
0
0
3
0
0
15
30
0
4
26
0
0
0
29
0
0
9
4
0
16
0
28
9
0
0
18
17
5
0
51
14
0
15
34
0
0
0
3
0
5
0
3
20
0
18
0
0
19
0
14
29
0
11
0
0
15
0
0
35
51
0
0
33
0
0
0
0
0
0
0
0
0
5
2
0
15
12
0
0
0
9
0
1
0
10
0
5
0
0
28
0
5
0
1
23
3
0
0
5
0
0
17
0
11
9
0
17
0
10
4
8
7
0
0
0
17
13
18
10
5
4
0
0
1
0
5
0
0
0
0
0
0
0
8
2
0
2
10
4
2
5
0
5
0
0
0
12
23
0
7
36
7
0
0
105
0
14
0
39
0
6
49
0
0
0
16
0
20
3
0
0
0
0
11
10
0
13
0
0
0
6
6
0
0
2
0
11
0
5
0
17
0
7
0
7
0
1
5
0
22
0
0
0
5
0
0
0
0
18
5
0
12
0
0
10
0
0
13
0
0
4
1
0
23
7
0
0
0
13
6
17
9
0
20
0
0
0
0
13
0
3
8
9
0
5
0
0
0
5
5
0
3
1
0
0
7
0
34
0
0
0
0
0
0
0
0
2
13
5
0
4
0
0
7
0
4
0
11
0
0
6
0
0
11
0
9
0
0
0
0
0
2
0
7
6
4
4
0
0
3
5
1
0
0
0
0
16
0
1
21
0
6
0
0
11
150
105
0
0
7
0
0
4
0
13
0
0
9
13
0
0
8
0
4
1
9
0
0
0
0
0
10
6
0
0
0
0
3
8
0
0
1
0
18
0
0
0
0
1
0
0
0
5
0
1
6
0
0
0
12
0
1
5
0
15
0
0
8
0
12
0
0
6
0
5
5
7
21
0
0
0
0
11
14
9
19
0
16
0
15
1
11
0
0
14
15
15
0
12
0
1
0
0
0
0
9
2
0
4
0
17
0
6
0
4
6
0
0
7
0
12
15
0
0
0
0
5
0
13
0
1
3
7
0
0
0
0
78
23
0
0
11
17
0
14
0
20
6
44
0
0
0
7
27
0
0
9
22
17
0
0
0
14
6
0
9
0
0
13
0
0
0
33
0
0
18
5
27
0
2
0
0
21
19
21
2
0
26
0
0
3
0
15
13
0
34
0
0
0
0
0
2
41
0
0
0
0
27
70
0
32
0
0
7
24
32
0
0
24
0
2
0
0
50
0
0
0
41
22
21
1
0
5
0
0
0
4
0
11
0
14
0
15
0
0
0
4
27
8
0
7
6
0
17
0
0
0
50
0
0
63
6
0
0
40
0
0
33
33
0
0
24
0
12
0
8
7
0
10
0
0
11
1
0
10
0
14
7
0
0
11
20
0
0
1
2
7
0
0
7
14
0
7
12
1
12
0
0
4
8
9
2
7
0
0
0
24
8
0
0
0
3
0
15
0
17
0
1
6
0
6
3
4
11
6
0
0
13
10
2
0
6
12
12
0
5
0
0
0
37
27
0
0
28
0
0
0
96
0
22
0
0
0
22
22
1
0
0
20
0
23
9
11
1
2
24
0
0
8
16
6
0
1
0
0
0
12
11
0
12
10
13
15
0
2
0
0
0
8
0
28
0
0
23
0
34
29
0
13
0
22
0
36
0
0
17
0
0
0
10
0
1
1
0
22
0
0
0
2
9
26
0
13
0
0
15
0
0
14
0
0
2
0
7
0
6
2
10
0
16
0
9
0
0
4
4
3
0
8
0
0
22
2
2
0
12
0
5
0
15
0
16
0
14
2
5
0
0
8
0
4
4
0
5
0
0
4
0
10
7
7
2
0
0
0
5
0
0
7
0
3
0
0
0
13
0
3
0
0
0
12
0
0
2
20
1
0
142
108
2
0
0
20
0
0
3
6
0
0
10
0
0
11
0
0
12
6
0
11
0
4
0
0
15
0
0
25
0
20
0
0
3
6
2
3
0
3
0
7
0
0
0
10
0
0
6
10
0
0
12
2
2
4
9
0
10
0
13
0
13
0
0
0
0
11
0
0
0
1
2
0
0
3
0
0
1
0
0
0
0
10
9
0
0
0
10
9
0
3
0
0
17
0
19
16
0
10
4
6
0
10
0
0
17
0
8
3
4
0
0
5
15
0
4
2
11
0
0
0
0
4
10
20
0
2
0
11
0
0
75
13
12
0
0
18
0
10
0
0
13
17
0
0
0
2
0
9
0
7
0
1
0
18
0
9
16
0
7
4
0
9
0
3
0
0
0
26
23
0
0
2
0
0
0
1
3
14
0
0
69
6
13
0
0
16
0
0
4
1
36
0
17
24
0
0
0
0
21
0
5
0
0
9
0
0
2
0
23
7
10
0
26
0
0
23
28
0
0
0
111
0
39
34
0
39
0
0
8
0
0
41
0
0
0
0
0
28
7
0
26
0
0
5
7
0
0
0
0
0
2
0
92
2
0
0
0
18
0
0
82
51
0
7
45
6
3
0
4
18
0
0
0
1
0
3
5
10
4
0
0
8
21
0
0
0
12
4
9
0
17
9
0
0
11
7
0
0
6
0
20
19
0
7
5
0
0
4
19
0
0
6
10
0
0
6
2
0
0
5
8
0
0
8
0
0
0
1
0
5
5
0
9
16
0
0
16
0
0
22
0
0
31
0
44
0
0
4
0
0
36
45
22
0
26
0
8
50
0
26
0
39
0
14
0
31
0
5
10
0
0
0
1
0
15
0
0
0
2
0
0
6
0
0
18
0
3
0
6
0
0
0
12
0
0
61
0
30
0
0
0
0
0
0
0
0
5
3
1
0
6
0
17
0
6
0
18
11
0
25
0
4
12
0
8
0
14
0
0
18
0
0
11
3
3
14
0
3
9
0
0
17
0
6
0
5
2
0
12
1
16
0
0
17
0
4
0
10
0
7
0
3
0
17
0
17
0
0
2
0
4
2
0
0
13
0
0
2
6
0
4
0
10
2
0
0
2
14
0
4
0
0
0
7
0
19
0
5
0
15
0
5
15
0
0
23
0
0
6
2
152
116
6
20
0
10
5
0
10
0
0
8
0
0
16
0
0
11
0
0
17
3
0
0
10
0
12
1
0
18
0
1
0
0
3
8
0
0
15
5
0
17
7
0
0
7
0
4
1
0
6
3
7
2
0
8
0
6
0
10
0
11
8
1
0
8
0
0
0
0
30
0
6
0
20
0
0
4
17
0
0
11
0
3
0
0
9
4
0
11
0
0
8
0
0
4
0
0
3
10
0
0
1
0
10
0
5
6
0
2
16
0
0
0
8
0
11
0
4
0
0
19
3
0
0
0
9
0
13
0
0
0
81
0
12
1
0
24
0
5
12
6
67
0
0
0
0
1
0
20
0
20
0
0
18
9
23
0
3
6
7
0
0
0
5
0
0
18
6
0
7
5
0
15
23
0
3
0
0
9
0
0
37
0
22
9
9
0
0
14
24
10
0
0
0
0
5
0
7
0
0
0
0
3
16
16
0
68
0
0
2
51
0
0
26
0
3
17
17
23
0
0
71
0
36
28
0
16
0
0
5
6
13
0
3
0
4
19
7
0
0
11
9
0
29
0
0
22
0
19
0
0
18
93
9
0
0
0
0
4
0
0
86
0
0
9
41
4
17
0
0
10
4
0
4
0
8
13
4
2
0
20
0
11
0
0
0
17
0
0
12
9
1
7
0
23
0
0
16
18
0
0
10
8
0
0
0
0
5
9
7
13
7
1
0
0
3
2
1
0
0
2
2
0
0
7
0
6
0
1
1
0
0
0
4
14
0
6
0
14
12
8
0
0
0
0
0
25
0
0
5
0
0
97
6
11
0
39
0
81
0
16
0
2
0
3
7
0
5
37
10
0
1
0
30
0
9
0
0
0
7
0
22
0
16
0
0
34
0
0
0
0
16
6
0
15
0
0
33
0
0
0
0
8
0
81
0
9
0
15
0
0
1
0
20
0
7
0
0
0
1
0
0
11
4
15
10
20
2
1
0
0
24
0
2
10
4
15
0
0
0
0
6
0
0
0
0
1
5
0
0
0
6
0
0
0
9
0
0
10
0
0
15
0
14
0
6
0
10
0
11
7
0
0
12
0
8
0
5
0
7
4
3
2
0
0
0
0
2
1
0
3
0
27
0
0
3
0
0
2
0
0
12
0
4
5
0
0
0
0
0
0
153
101
1
0
15
0
0
0
6
4
0
15
0
22
0
0
0
1
0
6
0
0
6
0
0
7
0
9
15
0
6
0
18
2
0
3
0
0
0
12
3
0
1
7
0
1
0
13
0
13
0
0
0
0
14
7
0
0
10
0
1
8
0
2
10
1
0
6
0
5
0
24
1
0
8
0
7
2
0
0
1
8
4
0
9
9
0
0
0
7
0
0
22
0
21
0
2
0
0
6
8
0
0
12
0
0
0
0
9
0
4
0
14
24
0
3
0
1
0
22
0
0
0
0
12
0
0
5
0
0
0
0
73
14
0
12
0
8
6
10
6
13
29
0
0
0
0
8
7
10
16
0
0
20
0
0
2
0
17
0
10
0
0
0
0
30
2
9
10
0
0
0
18
0
2
25
0
2
0
0
28
0
0
31
0
0
0
0
0
64
17
5
23
0
9
18
0
0
12
0
0
6
0
0
60
0
0
2
0
56
0
10
23
26
0
0
0
6
29
0
0
11
0
23
8
45
18
22
0
0
0
0
7
0
5
34
0
0
0
0
0
0
10
0
12
0
0
0
0
0
31
11
0
16
17
0
0
0
0
36
18
0
78
0
0
48
3
0
10
0
10
0
0
16
0
5
4
0
0
0
4
0
0
1
0
2
4
1
3
0
0
0
0
0
7
6
0
0
5
3
0
0
8
0
0
0
0
19
13
0
0
3
0
10
0
0
6
9
6
1
4
0
0
0
3
0
1
0
8
16
8
0
0
7
0
0
1
4
0
5
20
0
21
0
17
0
0
0
11
0
8
0
0
5
42
2
0
31
0
12
33
0
0
0
3
15
0
21
9
16
0
0
2
0
0
7
0
11
0
4
0
5
0
9
0
8
0
0
21
0
0
52
0
0
0
0
5
0
0
0
4
27
0
0
14
0
0
8
0
0
2
7
5
19
0
22
0
0
7
0
0
15
0
5
22
0
3
0
0
15
13
5
0
15
0
0
8
0
1
12
6
0
1
0
1
0
10
0
0
5
0
3
0
3
2
9
0
0
3
0
0
0
0
0
2
6
5
7
0
0
9
2
4
0
0
0
0
6
4
7
0
2
3
0
6
1
0
12
0
2
0
5
0
0
5
4
0
0
1
0
8
0
0
10
0
1
3
0
0
0
0
1
150
110
2
11
0
7
0
18
0
16
0
0
30
0
9
0
5
20
0
11
12
3
0
21
1
0
0
0
0
31
0
0
1
0
10
0
17
0
10
0
0
1
0
0
8
0
0
4
6
3
0
0
5
6
0
10
0
18
0
8
6
4
0
5
2
0
0
7
0
0
13
0
0
33
1
0
11
12
0
6
0
9
4
4
9
0
0
17
1
8
15
0
0
0
0
0
17
0
14
0
0
31
0
4
0
7
3
10
0
2
0
13
0
0
0
9
2
10
14
0
0
6
1
12
0
0
31
0
1
0
0
0
67
10
0
14
1
0
12
24
1
2
0
8
0
0
15
8
2
8
0
0
14
0
7
0
9
0
23
0
0
0
15
0
6
23
0
0
11
23
0
1
26
0
0
0
0
26
23
11
0
0
0
2
0
0
0
0
4
46
0
0
0
0
0
13
15
0
7
0
9
2
5
9
44
14
0
0
17
0
3
0
60
0
0
7
0
12
40
1
0
0
0
0
74
0
9
40
0
0
0
0
0
4
0
0
0
32
0
22
1
26
0
0
0
0
1
0
0
27
14
43
0
41
0
0
0
0
14
55
7
0
91
0
0
45
0
0
6
0
10
1
0
0
4
0
2
0
0
3
8
0
0
3
3
0
0
0
8
0
0
9
0
1
17
0
0
8
10
0
0
16
0
0
0
16
17
0
7
0
5
1
0
10
2
9
0
8
3
0
12
0
11
1
0
0
11
0
0
11
0
8
0
14
0
0
15
0
16
0
12
0
0
0
0
0
24
13
0
8
10
11
0
0
8
3
2
0
0
0
65
15
0
0
28
0
0
40
0
0
5
0
27
6
0
0
34
0
20
0
22
5
0
0
3
0
0
0
0
11
17
6
0
11
0
38
0
12
4
9
15
0
6
7
0
12
0
23
26
0
8
0
19
0
0
9
0
0
4
10
0
18
11
0
0
24
10
0
0
0
0
0
6
0
8
12
4
0
12
16
0
7
15
0
5
12
0
7
0
3
14
0
9
0
11
0
14
0
0
9
2
4
3
0
7
9
8
0
1
9
0
0
0
15
0
16
0
0
6
0
1
0
0
2
0
2
0
4
0
0
8
0
0
0
0
4
3
0
0
0
8
10
0
2
0
0
5
7
6
1
12
9
141
105
0
17
7
0
2
0
0
0
0
0
0
2
0
30
0
0
17
2
0
13
0
0
6
0
0
1
0
0
18
0
19
0
0
8
0
3
0
11
6
0
0
0
0
6
0
0
0
0
13
3
5
0
11
3
0
0
0
0
0
3
0
0
13
0
0
0
0
7
9
0
8
0
13
0
30
0
12
0
0
21
0
0
2
0
0
0
0
0
17
0
0
0
14
0
22
0
0
12
0
0
4
0
13
10
0
0
0
16
0
0
0
6
7
7
1
0
0
15
0
8
0
16
0
0
10
0
3
0
0
0
38
40
0
0
8
0
0
21
47
36
0
0
0
0
2
0
7
10
0
1
0
9
0
13
0
22
0
0
0
5
0
10
21
0
28
9
0
0
0
1
22
0
7
1
0
25
30
0
0
0
0
0
31
0
0
0
30
9
0
13
0
0
0
0
0
2
20
0
0
0
0
0
27
23
37
0
0
0
31
5
34
35
0
0
0
0
20
48
0
12
0
0
39
0
15
40
70
0
0
0
0
0
0
0
27
0
8
0
11
0
0
0
0
17
0
0
21
13
74
0
0
22
0
0
0
0
72
53
0
0
69
0
3
31
0
0
1
1
0
0
3
0
12
0
2
8
6
0
13
0
0
9
0
0
6
3
0
2
3
0
0
4
1
0
15
0
0
0
0
0
18
5
21
0
0
12
0
0
3
7
0
5
0
0
2
0
0
0
0
1
0
12
3
3
0
5
0
0
10
7
4
7
0
4
4
4
0
8
9
0
0
8
0
2
23
0
5
0
8
0
0
0
11
28
7
27
0
0
33
50
0
0
56
0
5
14
42
0
0
0
4
32
8
32
0
0
0
14
0
0
20
1
0
26
5
18
0
11
0
0
17
0
0
0
25
0
0
28
0
11
1
0
30
3
4
0
0
8
29
0
10
0
2
0
0
7
4
0
0
0
0
10
11
0
10
0
30
0
5
0
0
6
5
0
4
5
0
0
10
3
0
17
0
0
1
9
0
0
0
8
4
2
0
0
0
1
11
0
0
6
0
0
0
5
0
5
13
0
5
6
2
0
0
0
6
1
0
1
3
11
0
2
0
8
6
5
0
13
0
4
2
2
3
0
0
3
12
5
0
0
7
0
4
2
0
0
0
7
0
0
146
97
0
0
7
0
0
0
13
0
27
11
0
32
0
0
0
0
0
0
14
0
0
8
0
0
0
0
34
1
0
0
6
0
15
0
12
0
0
0
15
0
2
0
20
0
1
0
0
1
1
0
0
2
0
0
4
15
0
8
0
5
15
5
17
0
0
0
17
0
5
19
0
6
3
11
0
0
13
0
12
0
0
16
0
9
8
16
9
0
10
18
0
6
0
2
0
0
13
0
0
25
7
0
0
0
0
10
16
0
15
0
9
0
2
0
14
0
0
0
5
3
1
9
0
1
3
0
3
0
0
0
38
47
3
0
14
1
0
36
52
0
0
0
9
0
0
9
20
0
9
0
6
0
0
11
0
1
8
0
0
0
16
0
1
0
2
15
0
4
34
8
0
0
30
13
0
0
5
20
0
3
0
0
0
36
0
0
37
0
32
0
0
14
0
1
17
0
5
2
33
0
7
0
0
47
0
47
0
0
11
0
21
0
13
0
0
0
61
34
0
0
0
14
0
6
14
9
28
0
59
33
39
47
0
0
0
0
0
14
0
0
14
2
3
0
0
2
25
49
45
6
0
0
0
0
2
68
41
3
0
0
6
0
9
10
15
10
0
0
18
0
0
7
7
2
8
10
1
17
0
13
0
8
4
10
0
15
0
2
14
0
4
7
7
2
8
7
6
0
5
7
4
0
0
7
0
0
2
0
0
5
0
0
0
2
2
8
6
0
5
0
3
1
0
12
0
8
0
2
7
0
0
6
0
12
0
1
0
1
0
8
3
0
0
0
1
13
0
5
0
15
0
0
0
53
0
6
0
0
40
16
17
0
24
2
9
26
18
2
0
0
8
0
0
0
18
0
17
0
0
13
0
4
5
0
8
0
30
0
44
1
0
0
12
2
0
6
0
9
23
0
21
0
0
0
0
3
0
6
0
29
0
3
0
6
0
0
0
0
3
9
2
11
13
0
6
0
0
0
0
11
4
0
5
0
10
0
0
10
0
5
0
0
8
20
0
0
15
1
0
0
9
0
2
1
3
0
0
4
2
0
10
10
1
0
4
1
0
4
0
7
2
3
4
6
0
10
1
3
7
0
9
3
3
8
0
0
0
0
6
0
2
0
3
10
0
0
0
1
0
15
0
0
7
0
16
0
6
0
17
0
148
118
11
2
0
4
15
0
20
0
8
0
2
0
0
8
3
3
4
4
0
5
7
4
0
0
9
14
0
5
3
11
0
0
2
0
0
0
12
3
0
0
4
0
0
12
9
0
6
3
0
0
4
7
10
0
0
0
5
1
0
22
0
0
0
8
0
19
0
0
16
0
0
0
3
0
0
8
26
0
0
14
18
0
13
0
7
0
0
7
3
0
13
3
2
9
0
4
3
0
5
0
0
23
4
26
0
0
13
0
2
4
6
4
0
0
0
0
0
8
0
3
2
0
0
3
12
0
11
0
0
0
27
66
7
0
11
15
0
20
18
0
0
0
0
11
0
0
0
7
9
0
7
11
0
10
0
0
0
0
8
13
8
18
0
0
2
0
0
24
12
6
2
0
0
3
25
43
15
11
73
0
13
0
0
0
0
46
53
0
0
7
0
0
41
0
0
0
0
0
0
10
0
9
15
5
26
0
35
0
0
0
25
35
5
7
0
0
77
22
0
0
0
25
0
0
0
69
28
0
11
0
49
77
57
91
0
0
0
23
0
11
0
0
2
0
0
52
49
70
0
0
0
0
0
25
64
2
0
26
0
0
0
0
48
24
6
0
0
17
0
20
6
0
0
7
13
0
0
0
0
0
7
0
0
0
10
0
3
0
0
12
9
5
0
27
0
0
0
0
0
14
0
0
0
15
6
2
0
8
0
15
0
0
10
0
0
0
12
0
2
0
3
0
12
0
1
1
6
0
1
1
0
1
0
0
0
11
1
0
13
0
17
0
5
5
27
4
0
0
0
18
18
0
0
32
26
0
0
0
4
53
9
0
6
0
26
28
0
0
0
3
0
0
0
34
0
0
0
0
19
0
15
0
0
2
0
0
0
12
0
0
0
25
5
0
6
0
0
0
10
0
0
38
0
7
4
0
18
0
15
0
22
0
26
0
32
5
0
3
0
16
12
0
18
14
0
10
0
4
0
11
0
0
1
10
0
18
0
0
3
0
19
0
1
0
0
15
0
5
14
17
0
0
3
0
10
0
8
6
0
9
0
0
0
4
0
9
0
1
0
7
0
4
3
0
22
0
0
0
0
8
1
0
0
1
0
8
0
11
0
16
0
3
0
0
1
0
4
1
2
0
0
0
10
0
10
0
2
2
14
0
152
91
0
17
4
5
14
0
0
5
0
0
12
7
0
0
5
4
1
2
6
0
20
0
6
0
4
0
10
13
0
3
0
0
10
13
0
10
6
0
17
14
0
12
0
0
0
12
8
0
0
5
5
2
0
2
0
0
0
0
2
2
2
10
0
11
0
0
0
13
0
25
12
6
0
8
11
4
0
0
0
10
0
4
0
27
0
6
19
0
0
3
0
8
22
0
0
0
16
0
0
0
0
0
3
0
0
1
0
11
0
3
4
0
3
19
0
11
4
5
10
0
6
0
10
0
0
12
0
27
0
0
0
53
26
4
0
6
14
35
0
0
0
0
0
0
3
0
0
0
0
18
7
0
20
9
13
0
0
4
5
1
7
4
18
0
41
0
0
41
15
0
0
7
0
34
0
0
53
42
0
0
0
0
0
0
34
20
35
0
7
0
24
0
0
0
20
16
0
0
2
0
0
0
0
0
14
28
0
8
0
0
2
4
3
15
0
9
35
42
0
0
28
15
0
0
0
63
25
0
0
15
0
13
0
4
0
7
0
0
5
8
0
0
0
0
36
36
54
0
0
0
0
0
22
49
32
0
20
1
13
0
0
20
0
37
13
0
28
0
19
0
19
0
0
16
0
7
0
0
24
0
0
7
0
10
0
0
0
16
8
0
27
0
35
0
0
0
5
2
0
0
3
0
3
3
0
0
0
0
0
1
1
0
0
7
5
4
0
1
0
3
6
0
1
0
1
0
0
17
0
1
5
0
4
5
3
13
1
5
0
28
0
0
6
0
8
0
10
1
0
0
3
6
0
11
0
40
15
0
0
40
14
0
0
39
0
20
31
0
0
0
0
15
9
0
0
6
6
0
13
0
6
0
20
0
0
0
0
14
0
39
0
8
0
14
0
16
44
10
0
0
0
0
0
13
2
31
0
7
0
47
0
0
0
0
0
0
0
3
0
7
0
26
0
0
0
2
0
0
0
10
0
7
0
6
0
0
10
0
0
20
0
6
0
1
9
0
0
8
0
0
14
10
4
0
9
0
20
0
17
0
2
17
0
0
0
0
0
1
9
0
0
3
0
1
7
0
4
0
0
13
2
2
6
0
1
0
12
0
0
0
0
12
2
6
0
2
6
0
12
10
0
4
3
0
7
0
0
10
0
0
156
102
0
0
0
0
11
0
4
0
8
14
0
0
0
19
0
0
11
0
10
13
0
0
0
0
0
0
0
0
18
0
5
2
0
0
7
0
5
0
0
9
0
0
13
0
1
0
7
0
3
2
0
1
0
0
12
0
6
26
2
0
0
10
2
33
0
12
6
0
0
11
0
0
20
0
0
0
21
0
23
0
23
6
14
0
0
16
0
0
1
13
0
11
0
3
13
0
0
9
7
0
9
0
0
15
0
11
0
0
0
3
7
0
0
0
3
0
13
0
15
0
0
2
0
5
0
0
14
0
0
0
0
32
28
13
0
2
24
61
0
0
0
17
4
10
0
28
0
0
8
6
0
0
0
30
0
0
27
12
13
0
5
2
0
2
15
30
0
0
22
24
13
37
39
25
0
7
0
30
0
0
0
14
0
32
15
20
14
0
0
4
0
0
3
1
6
4
0
0
24
0
2
20
0
0
0
42
21
0
15
10
0
2
0
16
0
0
51
36
0
0
3
20
0
3
0
77
60
0
0
0
0
0
0
0
0
0
28
0
0
0
0
0
0
44
65
33
7
0
0
0
0
20
45
46
0
0
0
1
39
0
0
0
0
12
17
24
0
0
0
22
5
0
16
0
17
5
0
0
0
0
18
0
9
0
9
0
16
0
0
24
26
4
0
0
0
13
0
11
0
0
14
5
0
21
0
8
9
0
10
0
5
12
0
0
0
15
4
0
17
0
0
0
2
0
7
5
0
3
10
7
8
0
3
3
6
0
0
0
11
0
20
0
0
0
22
15
0
0
4
0
3
1
0
0
0
11
1
0
0
34
25
6
0
12
4
10
0
0
0
0
13
0
0
0
0
5
7
0
0
0
0
0
0
9
2
39
0
17
0
0
0
0
0
16
13
0
0
0
10
0
0
8
0
3
0
0
0
0
17
0
0
2
5
0
16
0
0
0
31
6
14
0
13
3
6
10
0
0
16
0
11
6
0
1
6
6
0
0
2
0
30
0
0
0
4
13
0
0
0
20
0
4
3
0
0
0
0
3
0
4
3
0
0
6
0
6
0
0
0
10
0
1
9
0
10
0
0
18
0
0
5
0
1
4
0
0
0
1
8
1
8
0
0
0
7
0
0
0
1
0
0
1
0
9
0
6
8
0
2
0
150
111
6
12
0
9
0
14
0
18
0
0
12
2
0
5
14
0
0
5
11
0
22
9
0
0
13
14
0
1
0
0
7
0
1
10
0
9
0
0
4
0
13
0
0
4
19
0
0
0
12
0
7
5
0
0
0
8
0
14
1
14
3
0
0
0
0
14
0
0
0
1
9
5
0
11
15
0
2
7
0
0
0
1
0
23
0
0
0
0
4
0
0
2
21
0
2
0
19
0
0
6
0
4
0
0
7
0
0
13
0
4
0
0
0
29
0
0
0
4
0
0
9
0
15
1
6
13
3
2
0
0
0
7
66
5
0
6
25
19
0
0
0
0
0
6
0
0
19
0
0
21
13
0
22
0
0
3
26
30
0
0
0
0
27
31
39
28
3
0
44
0
16
0
0
0
0
0
0
0
0
0
6
0
0
32
7
47
0
0
0
0
14
0
0
0
16
0
0
2
24
0
4
0
22
0
0
0
40
12
7
0
0
20
0
7
43
0
17
25
0
0
39
0
9
0
24
60
37
0
0
2
0
0
26
0
0
2
0
0
0
0
0
0
6
68
82
0
0
0
0
0
8
27
46
0
0
0
6
2
23
0
7
0
8
5
0
12
21
0
0
15
11
0
0
0
43
0
0
16
3
7
10
0
15
0
14
0
5
0
20
39
0
0
0
2
19
0
1
23
0
0
0
21
0
0
4
2
10
0
0
25
0
0
7
0
1
0
0
6
2
0
4
0
8
0
0
3
0
6
0
0
0
5
9
8
0
2
10
8
10
1
1
0
0
0
0
0
17
0
0
0
0
15
9
0
12
0
20
0
0
40
25
3
0
42
23
14
21
0
0
0
0
0
16
0
0
0
44
55
2
8
23
2
0
4
10
0
2
0
0
9
5
15
18
0
0
16
8
8
0
21
0
8
8
0
14
7
1
0
17
11
0
0
5
0
7
0
9
6
10
0
10
19
5
0
15
0
0
11
0
14
0
14
0
6
1
0
12
6
1
9
0
7
0
0
6
9
0
0
0
0
0
16
0
0
9
12
0
0
4
0
0
10
0
3
2
0
3
0
0
6
0
29
0
11
6
3
12
0
0
10
5
0
0
6
4
0
8
0
0
0
12
0
18
0
2
0
2
0
1
0
5
6
0
10
0
0
0
0
5
10
150
93
0
0
20
0
0
19
0
5
0
9
0
8
1
0
0
0
0
0
0
0
0
0
1
0
0
0
0
0
25
0
0
8
0
0
1
6
0
6
0
10
0
2
16
0
0
1
14
7
0
0
0
5
5
6
7
0
0
0
0
0
16
0
25
0
9
0
15
0
20
14
0
5
0
0
0
17
15
0
8
10
0
13
11
3
0
28
0
0
9
20
5
0
6
0
0
8
0
8
2
6
0
17
1
0
13
0
4
0
0
0
0
0
126
0
0
7
10
0
22
0
0
22
0
0
5
2
0
0
0
0
0
0
64
15
3
3
24
40
0
0
19
0
1
0
15
7
0
8
3
0
18
0
0
0
0
17
15
0
0
14
0
0
0
0
18
0
0
0
0
0
10
0
21
13
38
20
53
38
62
17
20
0
0
0
36
35
0
0
0
1
11
0
0
22
20
3
0
40
0
5
0
0
18
0
0
7
0
0
40
0
0
23
0
0
7
12
20
0
0
0
94
0
0
0
0
21
66
42
0
17
0
0
0
2
0
0
2
0
0
0
0
23
49
72
0
0
0
0
0
14
25
54
0
0
0
2
0
4
7
0
0
0
28
3
0
0
0
0
4
18
0
0
0
20
1
0
11
7
0
0
12
0
5
0
7
0
19
20
25
0
0
0
9
0
3
0
0
0
4
0
0
0
12
0
8
3
0
1
0
4
5
0
0
15
0
0
4
4
0
5
1
0
0
12
0
5
2
0
6
0
0
0
0
2
0
9
1
7
0
0
8
0
14
0
4
20
0
1
11
0
0
0
0
0
9
23
7
36
0
0
51
21
2
0
22
1
43
0
0
19
11
0
22
0
54
0
0
0
0
0
32
0
0
0
0
25
0
16
4
0
0
0
14
0
3
0
0
0
0
0
10
5
6
8
0
10
3
7
0
0
32
0
0
2
0
0
7
9
0
9
14
4
0
0
0
0
0
7
2
0
11
11
0
8
0
4
13
0
0
14
2
2
0
19
0
0
0
17
0
0
13
0
5
8
0
5
13
0
12
0
0
4
4
0
10
0
0
10
0
5
0
0
12
0
0
9
0
7
0
0
0
3
2
0
0
19
3
0
5
1
9
1
0
0
8
0
6
0
0
21
0
12
0
0
14
0
0
9
0
0
136
97
0
0
17
15
4
0
0
31
0
5
25
0
6
7
0
4
0
5
0
17
0
21
0
11
6
0
5
1
0
2
20
0
4
1
7
0
0
2
5
0
17
5
0
5
0
0
0
0
16
0
0
0
5
12
0
3
6
5
0
2
9
0
0
15
0
20
0
0
0
1
9
0
6
4
0
3
0
0
2
7
3
0
9
13
0
0
10
1
0
10
7
0
6
13
0
0
0
22
0
0
8
0
0
10
0
0
0
13
0
0
0
144
26
0
0
0
6
8
0
22
0
0
1
0
2
0
0
18
0
0
0
0
2
63
0
8
40
0
0
15
0
0
14
0
28
0
0
3
15
0
0
0
0
32
40
0
5
5
1
1
23
13
0
0
0
2
0
28
0
0
34
24
21
0
0
0
23
31
15
0
0
0
0
58
48
0
0
0
0
0
0
0
0
21
22
0
21
0
15
0
0
0
0
0
20
0
0
0
19
0
22
0
4
0
3
34
4
52
0
0
83
0
0
1
0
0
96
67
0
0
20
9
8
0
0
1
0
0
0
0
22
76
42
0
0
0
0
0
2
43
27
0
0
0
0
7
0
6
7
5
0
0
17
17
10
0
0
19
7
15
0
3
6
5
3
0
0
0
0
2
0
8
0
3
7
8
8
11
0
0
0
29
0
0
9
4
4
7
2
0
2
0
1
9
0
18
9
0
5
0
12
5
0
0
7
0
0
0
4
0
4
2
2
0
0
9
0
0
0
0
13
0
0
0
9
0
0
0
13
1
24
0
0
0
4
9
9
0
0
2
9
8
0
7
0
0
12
39
0
0
67
7
0
6
2
33
0
22
0
0
32
28
0
10
0
14
31
10
0
0
17
0
0
1
4
0
0
0
0
2
4
17
0
21
18
9
0
15
12
0
0
0
0
0
16
0
5
0
37
0
0
0
15
0
0
0
0
22
8
24
5
0
2
0
2
0
0
0
7
5
0
6
0
0
13
0
17
0
19
0
0
7
0
0
9
5
0
0
0
5
0
9
0
0
6
0
0
0
11
15
10
0
4
0
0
8
12
0
0
10
0
5
1
0
0
0
0
5
5
10
0
0
0
8
0
0
0
8
0
0
0
12
0
4
0
0
0
10
2
0
0
0
3
15
0
0
2
4
0
0
163
106
0
14
0
0
1
0
4
0
0
0
0
7
0
4
0
21
0
0
15
0
0
3
3
0
0
21
0
0
1
2
0
0
0
12
6
0
2
4
10
0
0
0
0
9
0
0
13
6
0
0
0
2
6
0
12
0
0
9
4
3
0
0
12
0
0
0
0
0
28
0
0
0
14
0
10
5
0
4
0
0
2
0
1
2
11
0
12
0
0
0
7
0
7
15
0
15
0
0
8
18
0
0
2
6
0
0
8
0
0
8
116
51
0
0
0
10
0
21
1
2
0
0
14
0
9
0
3
4
0
14
0
0
0
80
22
0
43
0
0
0
15
1
0
4
0
0
28
0
0
0
0
16
1
12
14
12
0
6
0
7
16
18
0
0
68
2
18
19
0
0
0
27
8
0
0
0
17
0
0
0
0
0
0
40
37
15
0
19
1
0
0
0
0
18
5
0
0
11
0
7
19
0
20
0
60
0
0
0
7
0
11
1
0
0
0
5
16
25
46
0
101
0
4
0
0
0
68
83
0
0
0
13
0
6
0
25
0
0
0
7
41
63
10
0
0
0
0
29
39
44
0
4
0
0
12
0
14
0
36
0
0
0
16
24
11
0
0
0
6
0
0
35
0
11
0
0
3
7
0
0
5
0
4
13
0
35
0
0
0
0
6
3
10
0
4
0
11
0
9
0
12
3
11
0
0
0
5
0
0
0
0
0
3
0
8
0
0
3
0
1
0
11
0
9
0
1
0
0
0
0
2
0
5
7
3
7
8
0
9
4
0
11
0
0
0
0
16
0
27
3
2
0
4
0
0
0
0
22
13
0
39
32
0
0
24
36
0
17
0
0
0
0
20
0
0
4
0
0
13
0
0
0
13
0
10
13
0
0
37
0
0
6
10
0
0
0
0
0
0
0
12
11
0
11
0
0
18
0
0
1
14
0
0
1
0
1
16
7
0
0
9
4
0
8
0
10
0
0
7
16
0
4
0
0
0
14
0
0
0
11
0
0
0
0
0
0
0
0
0
8
0
0
0
4
0
0
9
0
0
0
0
0
0
22
0
0
0
11
0
7
0
0
1
1
7
3
0
1
0
0
8
0
0
7
1
0
3
4
10
0
2
0
6
0
7
0
0
0
1
16
0
0
20
0
20
0
11
0
6
8
144
111
6
0
3
0
10
4
16
0
12
1
2
14
0
8
0
0
0
9
0
1
7
0
0
3
10
0
21
0
2
5
6
2
0
0
0
0
0
0
0
2
4
0
0
3
13
0
3
0
0
4
9
0
0
12
13
0
5
2
0
10
8
5
1
12
0
9
0
15
14
0
18
0
5
14
0
13
0
19
0
4
14
0
0
4
0
5
5
9
0
8
0
4
0
6
0
13
0
0
0
3
0
7
7
0
0
0
0
0
0
118
0
0
0
10
0
21
25
0
0
3
7
0
0
13
3
4
11
1
4
20
0
0
0
19
55
3
28
0
0
0
14
0
0
4
17
0
6
16
18
0
0
35
0
9
0
23
2
0
0
0
20
16
18
17
4
6
19
6
32
0
39
0
0
0
0
0
0
0
32
0
7
8
0
60
52
0
0
0
0
11
0
19
25
19
0
0
0
17
0
0
6
14
0
51
0
38
0
0
0
12
0
7
5
0
0
0
35
43
0
46
61
0
3
0
6
0
3
67
0
0
0
17
0
10
6
0
0
0
0
59
88
0
0
0
0
0
0
45
39
0
0
23
2
5
0
1
0
39
0
0
0
0
16
32
0
5
4
0
2
1
16
0
0
7
0
0
11
2
0
7
12
0
0
13
6
6
0
0
0
0
0
8
0
6
11
0
4
0
0
8
0
2
0
3
10
0
11
0
5
5
11
0
0
0
0
3
11
0
3
2
0
0
0
7
2
0
1
11
2
3
0
2
0
9
0
0
0
0
9
11
0
12
0
3
0
0
12
0
0
3
0
0
0
4
0
14
0
13
45
0
13
54
0
0
21
22
1
37
0
0
0
0
8
17
0
3
0
11
0
6
0
0
0
0
0
0
6
0
0
0
5
0
13
10
4
0
16
1
10
0
0
0
14
11
0
24
0
26
0
25
0
10
0
0
0
0
0
7
26
0
6
0
12
0
0
5
0
16
0
0
10
11
0
10
0
0
10
5
0
0
5
0
4
0
0
16
0
8
9
0
0
0
7
0
13
13
0
9
0
13
0
10
0
0
0
2
0
10
0
0
4
0
4
4
0
9
0
0
8
0
0
0
19
0
10
0
0
2
0
10
3
0
4
0
0
7
0
2
0
0
0
18
0
16
0
0
6
0
12
0
149
96
0
8
23
0
0
0
10
12
0
0
7
0
5
6
5
0
0
18
5
1
0
0
3
0
0
0
9
0
6
0
0
9
0
11
0
0
22
1
7
0
4
0
1
0
1
8
0
6
1
0
0
0
4
0
0
17
0
4
0
0
15
0
0
0
0
1
0
0
0
23
3
5
0
0
17
10
0
0
37
0
0
0
5
3
0
0
3
0
4
5
17
0
10
1
16
0
13
0
7
0
11
0
0
9
15
0
0
0
54
0
0
0
0
0
13
0
0
0
0
0
7
4
0
7
1
0
9
0
0
0
12
0
0
0
68
18
25
41
0
0
0
6
12
0
0
0
2
0
0
0
18
12
0
15
0
0
22
11
0
12
3
0
13
9
0
0
1
40
28
31
45
0
0
6
8
0
44
0
0
0
0
37
0
15
47
0
0
0
0
12
0
26
52
1
0
13
12
44
0
0
0
16
0
0
16
0
0
0
0
46
10
0
23
4
0
8
0
24
23
26
54
0
0
0
0
0
0
107
0
0
0
0
0
6
0
2
0
0
30
63
9
0
2
0
0
0
43
42
0
0
0
12
17
0
5
0
0
0
32
0
0
0
23
0
0
0
24
16
2
0
0
9
13
0
0
0
0
8
0
0
7
6
0
17
0
0
0
10
8
0
0
8
0
0
0
0
7
0
14
0
0
13
10
0
2
4
0
12
0
0
13
0
5
8
0
5
0
0
2
0
0
10
0
2
4
5
0
3
0
0
0
12
0
0
0
0
6
3
15
10
0
0
0
0
12
0
3
13
0
0
0
0
0
0
5
4
0
22
49
0
0
82
13
0
13
17
0
0
0
0
32
0
0
68
0
0
0
7
0
0
5
17
0
12
0
10
3
0
0
6
0
0
9
0
6
12
0
0
21
0
0
9
0
5
0
2
0
0
4
15
0
0
4
5
0
22
0
17
0
23
0
16
0
0
0
15
0
9
0
9
0
0
0
5
1
0
0
0
12
0
5
0
7
0
28
0
1
13
0
0
12
0
14
7
0
1
36
0
0
4
5
0
0
3
6
2
4
0
13
3
16
11
0
11
1
0
6
0
0
4
0
11
0
5
0
0
7
2
5
2
0
0
0
8
4
0
13
0
3
0
0
10
0
2
7
5
0
10
0
0
139
116
13
0
5
1
12
0
0
1
2
12
0
9
0
17
0
0
0
0
7
11
0
8
0
0
0
8
5
0
3
7
7
0
10
0
21
0
0
1
6
0
10
8
0
6
4
0
10
0
0
17
0
12
7
0
3
0
10
9
4
4
0
52
0
11
0
11
0
0
0
7
0
9
8
0
3
0
0
16
0
11
7
2
9
0
14
4
0
0
23
0
0
0
0
0
0
11
0
0
0
1
0
0
3
12
0
13
10
0
26
0
0
7
0
0
9
0
9
13
6
2
0
0
8
0
0
10
0
15
3
1
0
0
0
0
40
41
26
41
0
0
9
4
0
3
0
0
0
0
0
9
16
13
8
0
0
0
3
6
20
0
12
10
28
0
4
4
12
0
0
0
0
0
13
0
0
54
0
3
0
0
18
0
0
27
76
0
0
0
6
0
8
15
14
0
9
0
30
0
0
0
5
4
23
0
0
11
2
0
36
0
0
3
0
14
33
18
0
13
0
0
50
27
24
0
43
0
0
94
41
91
0
0
0
0
0
0
0
56
30
49
0
0
0
0
0
29
48
20
0
0
22
0
18
0
4
0
21
8
15
20
0
0
27
0
1
8
0
0
2
15
0
30
9
0
0
0
16
7
16
0
0
0
26
3
0
0
12
0
12
0
1
0
4
5
7
4
0
0
0
5
3
0
3
6
0
0
4
0
0
7
0
3
0
9
0
3
3
0
2
0
2
7
0
15
0
4
0
0
9
0
2
0
0
4
0
0
2
0
3
2
2
6
11
0
0
0
24
0
3
0
0
0
5
0
5
0
0
0
52
0
0
64
34
0
0
61
0
0
42
0
0
0
0
0
59
13
0
14
15
0
0
0
2
1
0
0
9
0
5
23
0
12
0
12
0
24
0
12
0
30
0
9
2
0
11
1
7
4
0
1
0
9
8
0
29
0
6
6
0
6
8
0
6
3
0
7
3
0
11
11
7
15
11
0
17
0
4
0
0
0
6
0
0
3
0
9
2
0
3
8
0
0
8
0
0
9
0
6
0
0
6
0
3
9
0
0
0
0
0
1
0
0
8
0
3
0
9
0
3
3
15
0
0
4
3
1
0
1
5
0
3
6
0
3
0
0
0
6
0
11
1
0
6
0
0
0
5
2
0
0
150
92
0
9
0
7
0
4
0
0
0
2
0
2
7
0
0
10
7
0
0
0
0
0
0
46
3
4
0
8
0
0
0
1
0
4
0
7
0
1
4
0
0
2
3
0
7
3
7
0
4
2
0
8
0
11
0
1
3
0
0
19
2
0
31
0
9
0
0
2
7
13
0
0
0
0
0
20
22
0
10
0
6
0
1
0
0
10
0
0
0
0
2
1
1
6
2
0
0
22
0
9
0
3
14
0
0
3
0
0
0
9
0
9
0
0
16
0
0
0
10
0
0
14
10
1
5
0
0
0
8
0
16
0
0
0
0
61
31
37
0
0
18
0
6
1
10
0
0
0
26
2
0
0
0
21
44
0
0
23
5
8
5
0
0
3
0
7
30
10
0
0
0
0
0
0
45
16
0
0
0
24
0
0
0
0
76
0
0
0
0
0
32
0
0
0
0
0
58
0
0
9
9
0
1
48
0
0
6
0
25
1
7
0
0
0
2
69
10
0
68
0
0
2
40
52
31
25
41
89
16
7
0
0
0
0
0
0
27
40
51
0
0
12
0
0
37
54
11
0
7
0
18
0
0
16
2
14
0
12
27
0
0
0
0
23
0
0
0
0
7
13
6
9
0
0
0
4
0
10
0
0
0
42
0
0
3
8
0
4
0
2
0
0
15
0
0
0
8
7
12
0
7
0
0
0
8
0
7
0
0
3
0
0
0
8
0
3
0
7
0
5
0
0
8
0
0
0
4
0
0
0
2
0
5
1
4
7
0
12
0
8
4
0
7
0
0
1
0
8
0
4
0
0
0
17
3
0
7
0
36
13
0
46
60
0
5
45
0
0
0
0
13
2
36
0
0
0
5
0
9
0
27
0
0
30
19
0
16
7
3
0
11
0
16
17
0
5
0
0
0
0
7
4
0
2
0
0
0
9
0
0
1
0
0
0
0
26
9
18
8
0
3
0
0
0
5
0
0
0
11
0
0
0
5
4
0
26
0
10
1
5
0
12
4
0
1
1
0
4
0
6
0
0
0
10
0
0
16
0
0
21
0
4
0
0
3
0
0
13
0
7
0
5
0
18
0
22
0
4
9
0
0
9
7
0
0
4
1
0
1
19
2
0
0
1
9
3
1
0
3
2
0
6
0
2
14
0
1
1
13
0
164
115
9
0
11
0
10
8
14
0
5
0
0
10
0
19
30
0
1
26
0
13
5
4
4
2
0
0
2
0
6
0
0
9
0
0
9
2
6
0
0
0
11
2
0
1
0
1
0
4
0
8
1
8
0
14
0
4
4
0
2
0
11
18
0
0
0
11
0
14
0
0
23
4
0
0
5
0
0
11
0
5
11
0
4
4
4
2
0
26
0
6
0
1
0
14
0
17
0
12
0
0
33
0
0
14
14
0
7
10
0
0
0
0
15
3
0
0
6
0
1
0
3
2
0
0
12
0
2
6
0
9
7
0
2
0
0
53
55
33
0
0
0
0
0
0
20
9
0
4
29
0
0
3
0
0
0
39
0
0
20
5
1
0
0
0
33
44
12
0
29
26
0
0
0
19
82
0
0
0
10
0
23
0
0
0
60
12
0
44
35
67
0
0
0
0
0
21
0
3
12
0
12
0
0
0
7
0
0
15
35
0
23
0
0
0
0
68
12
0
111
0
0
26
4
0
0
0
0
125
26
0
0
0
4
0
0
68
0
116
0
0
0
0
0
22
46
8
0
3
0
0
27
0
0
18
0
0
0
11
29
0
29
0
0
21
0
0
9
0
17
0
11
8
0
4
0
4
11
0
0
12
35
0
0
13
0
8
0
20
0
17
0
0
0
6
13
0
0
16
0
3
0
8
0
11
0
1
12
7
0
8
0
7
0
0
3
0
6
4
0
11
0
1
8
0
13
0
10
0
0
9
0
8
0
2
0
12
0
5
4
7
12
0
0
4
0
0
18
10
0
0
1
0
0
0
0
1
0
0
0
91
0
0
90
0
8
38
0
0
57
12
0
0
0
0
0
11
0
0
24
0
10
0
19
0
8
10
5
0
0
1
21
25
0
11
0
0
15
0
0
0
8
12
6
0
12
3
3
19
23
0
0
0
0
9
16
11
6
8
8
0
10
9
9
0
0
0
2
16
0
0
5
0
10
0
9
0
9
9
0
0
0
4
3
0
10
0
0
2
0
0
3
10
0
0
18
0
2
0
0
0
5
0
0
0
4
2
6
0
0
2
7
1
0
0
0
0
7
13
0
12
0
0
0
6
0
0
1
0
0
7
0
0
0
0
3
7
0
1
4
0
0
3
7
0
5
1
0
0
0
3
140
101
0
0
6
0
0
0
0
2
8
0
0
5
7
2
0
7
3
0
0
0
0
10
0
0
1
8
4
0
13
0
12
0
0
13
0
0
4
0
1
9
0
0
4
6
5
0
4
2
0
0
0
2
11
0
26
0
0
14
0
15
0
0
0
4
0
0
0
0
0
4
0
0
11
27
0
5
15
0
0
0
0
0
0
6
0
8
4
0
23
0
20
0
0
9
0
7
0
11
0
20
0
4
8
8
0
0
18
0
6
41
6
0
0
0
1
0
13
12
17
0
0
5
0
7
0
0
1
6
1
0
0
1
0
0
0
0
69
60
7
0
0
26
14
9
8
0
2
13
9
14
0
0
8
9
0
16
0
0
0
28
21
0
0
33
37
0
0
0
0
0
0
19
39
11
24
0
17
0
7
7
0
2
0
0
26
71
0
0
0
9
0
0
45
1
0
43
0
3
0
0
0
63
0
4
0
0
0
48
0
0
5
14
0
0
0
76
61
0
16
30
4
19
0
0
0
0
0
26
81
25
0
0
0
0
28
5
89
0
0
6
0
0
0
91
0
0
0
5
1
0
0
19
15
0
6
11
0
18
28
0
27
0
0
32
0
5
0
0
4
24
10
0
0
0
0
2
0
0
31
9
0
0
1
0
6
8
0
0
1
2
4
0
10
0
5
0
9
0
0
22
8
0
11
0
9
0
4
0
11
8
0
5
5
0
0
6
0
0
0
0
0
0
6
0
0
0
0
6
0
0
7
0
0
0
0
0
0
4
4
0
16
9
7
0
18
16
0
0
18
0
0
0
8
0
4
15
16
0
0
49
0
0
81
9
0
27
11
0
67
21
0
0
15
0
0
3
1
0
0
2
11
0
0
10
0
0
17
1
0
11
0
0
63
0
8
53
0
1
14
0
5
0
6
0
0
10
0
0
0
0
5
18
0
10
11
0
9
12
5
0
0
0
0
0
0
17
0
1
12
0
0
7
0
6
0
1
0
0
8
2
15
0
0
3
0
3
7
0
0
5
9
0
12
0
0
20
0
20
0
15
0
0
12
1
0
0
0
0
4
4
0
0
0
4
0
12
0
0
3
0
0
5
0
17
0
12
14
0
9
0
2
0
0
5
0
0
0
20
0
5
0
0
15
12
0
11
0
0
24
0
161
108
3
0
6
0
0
10
7
1
0
2
2
10
0
4
0
0
0
5
13
4
1
10
6
0
0
4
0
0
1
0
5
0
12
0
0
9
3
17
0
0
20
0
0
11
0
6
6
0
0
1
15
0
5
0
4
0
9
0
0
0
4
2
5
7
1
0
0
2
15
0
2
8
5
0
5
0
6
11
0
30
0
15
0
0
0
0
0
10
0
0
0
0
13
3
19
0
5
0
0
0
0
6
0
0
12
0
0
0
0
35
37
0
4
7
0
0
0
9
0
3
7
0
15
12
0
15
9
0
0
0
0
19
4
6
0
0
39
79
26
0
2
7
0
0
0
0
32
8
0
23
31
0
0
7
1
0
33
0
0
34
0
42
0
8
0
0
0
41
8
0
55
112
0
71
0
0
0
6
0
4
0
2
0
0
0
82
33
0
0
0
0
1
0
13
71
6
0
0
0
8
9
1
0
0
3
0
11
58
0
0
10
0
13
0
0
36
58
0
0
18
23
1
0
8
3
0
0
0
140
30
9
0
0
46
14
75
7
0
0
17
0
0
70
3
0
13
0
9
13
0
0
4
21
0
0
6
1
12
14
0
49
0
0
53
2
0
3
3
16
8
0
0
4
3
5
0
0
33
8
0
9
11
8
0
41
0
1
11
3
0
0
8
1
1
0
0
11
2
0
13
0
0
0
17
4
0
2
0
6
4
8
0
0
8
0
11
3
6
0
0
8
1
0
9
0
7
0
5
0
0
0
5
5
1
6
0
8
0
1
14
0
0
0
8
0
0
0
19
11
0
0
6
13
0
0
0
0
18
0
50
0
0
76
22
0
35
60
0
73
0
0
0
0
7
29
4
0
20
0
0
8
0
25
0
2
0
0
18
0
0
4
23
0
5
0
0
18
5
0
0
0
0
0
20
5
0
10
3
0
16
0
0
0
0
22
9
25
0
0
5
4
1
0
0
6
7
0
4
0
12
4
10
0
0
6
0
0
3
0
3
0
0
9
0
4
0
1
6
0
14
0
0
0
0
8
0
5
0
6
0
7
0
0
9
0
0
5
4
0
0
0
0
0
0
13
0
0
6
0
2
5
0
10
0
0
9
0
9
7
2
10
0
0
4
0
0
6
0
6
0
6
0
1
0
0
0
5
3
0
1
138
93
0
27
0
2
0
20
0
0
28
0
10
9
0
33
0
0
9
0
1
0
16
0
0
1
0
0
0
26
0
1
1
0
2
6
0
6
0
1
0
0
0
0
4
0
12
0
6
0
3
0
0
6
0
10
0
4
10
0
13
0
26
0
0
0
8
0
1
0
0
6
0
0
17
0
6
0
0
0
14
0
2
0
0
0
26
0
9
0
10
0
7
0
0
3
0
19
0
24
0
2
19
0
13
5
0
18
7
0
0
0
18
0
0
3
33
0
0
13
0
10
0
0
1
1
0
0
7
0
6
5
0
0
1
1
0
0
0
67
0
0
24
0
0
0
0
26
26
0
0
0
0
4
0
0
8
2
17
26
41
0
0
34
0
0
0
0
37
8
0
0
21
0
14
87
0
3
6
0
13
29
0
0
1
0
0
0
101
0
0
0
29
0
0
43
6
0
10
0
50
0
0
32
0
20
0
0
58
12
0
0
52
0
2
21
4
0
41
0
0
21
9
6
0
3
0
0
0
0
48
83
0
0
8
14
63
13
0
0
2
0
0
95
0
0
7
9
0
5
0
9
0
0
6
0
1
0
3
14
15
0
45
0
0
43
0
8
9
10
3
8
0
16
0
0
0
0
22
20
0
0
7
0
12
2
0
10
0
3
0
11
5
0
5
0
18
0
7
0
0
0
0
0
1
0
9
1
5
0
0
0
0
1
11
0
0
16
2
5
0
2
4
1
0
2
0
0
8
0
8
0
0
10
0
4
1
2
3
1
6
0
11
7
0
4
11
0
10
0
0
1
0
0
0
22
0
4
0
5
0
37
60
0
16
47
0
18
61
0
84
0
1
0
17
0
0
0
5
6
0
23
0
25
0
20
18
0
9
0
7
4
6
5
0
13
11
14
9
0
10
3
1
0
7
0
0
0
6
0
0
0
0
0
0
3
0
14
0
21
0
13
0
12
0
8
0
3
10
6
3
0
3
0
0
13
0
5
2
0
1
0
0
0
10
0
7
3
4
6
0
0
0
0
0
2
0
0
0
17
0
5
5
3
0
0
0
7
0
4
0
17
0
24
0
0
0
7
3
0
15
7
0
1
0
0
0
11
0
5
4
0
11
0
28
0
0
15
0
0
0
9
0
0
0
0
3
11
0
0
2
1
152
109
8
0
0
12
1
0
19
0
0
2
0
0
0
0
0
10
0
18
0
0
3
17
0
0
0
22
0
3
5
7
0
9
15
0
18
0
17
4
2
2
0
0
13
0
4
0
9
1
0
0
0
7
0
6
3
0
2
2
0
14
0
0
0
21
0
0
0
0
0
0
26
0
5
15
0
12
6
14
0
30
16
0
15
0
1
0
0
18
0
16
0
5
16
0
0
0
0
0
11
0
6
8
0
0
0
0
11
0
0
8
0
23
0
11
0
0
15
0
14
18
23
1
8
2
18
16
2
35
23
19
9
0
0
0
0
15
0
25
0
0
0
16
18
0
14
23
0
11
10
0
0
46
16
0
2
0
0
17
17
0
0
4
0
0
0
39
25
0
0
0
0
0
89
0
0
0
0
0
38
0
0
8
5
0
0
0
0
99
0
0
0
0
33
23
12
5
0
0
0
24
0
23
0
3
0
0
64
0
0
20
84
0
0
31
0
3
0
30
0
4
57
0
0
0
3
1
0
0
0
86
0
0
0
55
59
0
0
0
0
0
55
18
0
10
4
0
14
0
0
15
0
10
0
3
0
21
2
0
5
0
14
0
0
32
0
12
13
13
0
0
0
0
12
0
0
8
0
0
0
3
0
0
0
14
0
0
1
1
0
4
0
0
0
6
1
2
13
0
19
1
6
0
7
12
0
5
0
8
0
0
7
0
13
0
4
0
0
0
6
0
0
1
0
8
0
0
3
9
0
10
0
7
2
0
0
0
7
0
7
5
12
0
1
0
5
0
0
18
10
11
4
1
8
0
11
8
0
0
0
0
64
0
0
37
1
14
43
0
0
0
0
48
11
4
0
45
0
0
11
0
2
0
0
18
0
18
0
0
1
0
0
0
15
5
0
0
0
20
3
0
0
4
15
0
0
1
0
0
0
0
0
5
2
27
0
1
24
0
0
2
0
0
7
0
0
15
0
0
14
0
0
6
10
0
2
10
2
7
11
0
12
0
0
1
8
8
8
0
0
13
1
9
0
6
0
4
4
1
0
0
8
0
12
2
27
0
12
0
0
9
0
12
0
3
9
4
0
0
8
0
0
0
1
19
0
0
0
5
0
8
1
10
0
5
2
0
0
0
7
0
0
1
13
2
0
0
10
1
1
0
155
97
0
0
15
0
18
0
0
0
7
8
0
0
7
6
0
0
12
0
21
0
4
0
5
0
7
0
0
0
0
20
0
0
0
0
0
29
0
0
6
0
0
0
2
0
0
5
0
12
0
3
0
1
4
8
0
9
0
6
4
5
0
5
5
0
0
19
16
0
0
2
0
20
0
0
7
3
0
0
0
0
0
22
0
0
0
14
0
8
0
0
0
9
0
20
0
0
8
0
0
4
0
2
0
3
8
2
0
2
3
0
1
0
16
0
0
0
0
0
5
0
5
0
14
0
0
0
5
0
0
0
22
0
0
22
29
0
0
29
53
0
0
20
0
6
0
0
1
10
6
11
20
2
0
7
0
0
31
0
0
7
11
0
0
0
0
65
0
0
0
2
0
0
106
0
20
0
0
26
91
0
7
44
0
0
0
0
0
53
23
0
0
41
36
22
0
0
0
0
0
0
14
16
0
0
0
0
90
0
0
0
85
0
2
0
0
0
0
68
0
0
85
17
0
0
14
0
0
0
0
53
0
86
0
79
0
10
0
0
0
18
40
0
0
8
2
0
2
0
0
4
0
25
0
0
0
0
0
8
14
13
17
0
0
36
0
0
32
8
0
0
5
0
0
13
5
1
0
0
4
0
5
0
11
0
0
13
0
16
0
7
9
0
0
0
4
0
0
8
0
0
6
0
7
0
0
4
2
4
0
5
0
0
6
18
0
2
0
0
8
0
1
1
7
0
8
0
0
1
1
0
2
0
3
0
4
8
0
0
15
9
0
0
13
0
3
9
0
19
0
13
0
0
0
18
0
0
4
0
0
11
60
0
0
68
11
5
66
0
0
0
0
38
0
0
0
0
16
17
18
0
6
0
20
0
0
3
3
14
0
0
35
10
0
2
0
10
17
0
0
22
17
0
2
0
18
12
0
2
0
0
41
0
30
2
15
0
13
0
0
7
0
5
11
0
1
5
17
0
0
0
0
0
0
0
4
0
4
0
1
4
0
5
3
14
0
0
8
4
0
2
0
6
0
7
0
2
8
0
7
0
0
3
4
1
0
28
0
5
17
0
2
0
0
15
0
0
0
15
6
12
0
12
0
0
6
0
0
0
3
5
4
0
0
9
16
4
0
0
7
0
5
1
8
0
10
0
0
0
6
13
144
98
0
7
8
0
3
0
15
15
0
0
0
2
9
0
4
6
8
33
0
13
0
0
0
5
9
0
1
0
18
0
0
0
6
3
7
0
0
19
0
8
6
0
3
1
8
0
7
0
12
9
0
0
10
0
17
0
1
13
0
0
14
0
0
2
0
0
0
20
2
5
1
0
0
5
17
0
3
3
0
11
12
0
4
7
9
0
0
11
0
5
0
0
28
0
0
6
15
0
0
5
0
0
5
1
2
7
6
0
24
0
2
8
0
11
0
0
0
0
7
0
0
0
0
5
0
2
0
0
0
0
0
0
45
63
26
0
3
0
31
19
0
0
0
33
5
4
0
0
41
0
10
0
0
1
16
0
0
0
0
0
11
0
0
0
41
52
0
0
0
8
0
8
101
0
0
0
0
129
0
0
0
33
0
0
0
0
0
0
0
0
53
32
55
0
0
34
0
2
10
11
25
0
0
6
0
30
71
0
0
0
30
0
0
18
0
0
9
0
0
11
129
59
0
0
0
0
0
0
0
0
11
49
62
0
16
0
0
0
30
75
7
0
0
9
0
0
5
0
6
6
0
5
4
0
0
10
6
2
15
0
38
0
0
7
4
20
14
0
1
0
6
6
7
0
0
0
1
7
12
9
0
0
13
0
11
0
12
0
22
0
12
0
0
9
3
0
12
2
9
0
5
7
0
7
0
0
0
4
0
2
7
0
9
0
0
11
0
0
0
14
0
3
0
0
8
0
0
0
2
0
0
0
0
0
5
4
0
1
0
0
3
15
0
4
12
0
0
0
0
14
0
1
0
0
0
8
0
6
1
0
48
0
0
35
13
6
34
18
0
50
0
9
23
0
3
0
0
4
4
0
0
24
0
0
1
25
0
0
0
13
0
0
6
0
1
0
0
14
0
0
0
18
0
21
0
9
0
0
0
2
0
0
24
0
0
3
6
14
0
5
2
0
2
3
0
0
0
0
11
5
0
0
0
6
0
0
0
0
0
0
0
0
0
0
0
7
0
1
3
0
5
11
0
2
3
0
0
7
0
8
7
0
9
0
22
0
9
0
0
0
2
5
0
0
7
9
0
0
0
0
0
0
1
0
8
0
6
0
8
0
0
4
5
2
0
6
0
18
0
10
3
0
3
3
0
0
10
0
0
0
157
103
2
0
9
0
0
16
1
0
0
0
32
0
6
0
0
0
0
0
20
0
4
2
9
0
6
7
0
22
0
0
4
6
0
0
0
8
6
0
2
0
7
4
0
0
2
7
0
3
0
1
2
3
0
5
0
14
2
0
5
0
10
8
2
18
0
0
0
4
0
0
5
8
0
0
0
5
2
0
0
17
0
6
0
4
0
0
11
7
0
10
5
0
0
0
16
8
0
0
3
0
0
15
0
4
4
0
0
0
0
16
0
0
12
0
0
15
10
9
3
0
7
1
9
0
4
1
0
0
26
0
0
11
38
2
0
6
0
0
0
0
11
0
0
35
10
0
1
0
0
0
0
0
0
0
21
9
6
5
17
13
19
0
0
0
45
50
0
0
9
0
0
0
88
0
16
0
18
59
0
0
12
7
44
0
13
0
0
0
0
68
43
67
0
0
34
0
0
0
0
21
0
4
0
0
0
12
92
0
0
0
24
12
59
0
32
49
0
0
0
91
65
0
7
0
0
0
0
0
0
0
12
0
28
0
0
0
0
0
45
5
0
0
5
0
0
0
4
4
0
0
0
17
0
3
14
0
0
0
0
3
0
0
0
25
14
11
0
0
4
0
14
0
0
0
0
0
12
17
0
0
7
9
0
5
10
5
0
0
1
7
0
4
0
0
0
3
0
3
1
0
0
0
0
6
11
0
8
0
4
4
0
0
0
0
15
0
9
0
10
0
0
0
6
4
5
0
7
12
0
6
0
1
4
0
0
0
3
0
0
0
6
20
8
0
0
6
0
0
39
0
16
0
0
0
0
5
0
0
0
0
77
0
0
44
23
18
20
1
0
28
0
0
8
0
0
30
0
0
0
10
3
0
3
15
0
0
6
17
0
0
0
18
0
0
5
0
11
1
3
0
0
0
3
0
34
0
0
0
30
0
0
0
17
9
0
14
0
0
7
0
0
0
0
4
2
6
14
0
0
5
0
1
4
0
0
13
0
0
12
0
9
0
5
3
0
13
4
0
12
0
0
5
0
2
2
0
0
3
0
0
0
2
1
10
0
5
13
0
3
0
10
5
0
22
0
5
0
0
4
14
0
19
1
0
0
2
0
0
4
4
4
10
0
0
7
0
0
5
2
8
4
0
0
0
10
0
1
5
4
0
155
106
4
0
25
0
0
0
8
0
2
16
0
16
8
0
3
9
0
0
25
13
4
0
11
0
0
9
0
3
14
7
4
0
20
0
4
6
0
4
0
0
0
0
9
0
5
0
0
12
0
13
0
0
5
0
11
0
4
0
0
8
0
0
0
0
0
11
11
0
4
8
0
5
26
0
0
19
0
0
1
0
3
0
0
2
7
4
0
0
28
0
10
6
4
0
0
0
11
6
7
0
3
9
0
1
0
1
0
2
0
0
6
0
3
9
2
8
0
3
5
2
0
0
26
0
12
5
13
25
0
19
0
40
0
0
0
0
0
55
15
0
26
0
3
16
1
0
15
4
0
16
24
0
3
2
0
15
16
2
32
33
0
0
0
61
50
0
0
4
0
0
0
22
74
0
0
19
0
0
0
0
54
0
12
17
0
13
0
0
66
83
0
0
26
0
9
0
0
20
0
26
3
0
5
0
0
93
11
0
8
0
0
41
19
0
1
29
0
0
28
135
0
0
3
0
1
0
23
0
0
49
45
11
0
0
0
0
0
76
17
0
0
9
0
6
0
0
0
0
7
0
0
9
1
18
0
0
0
12
0
12
13
0
1
19
7
0
0
0
6
32
0
0
0
12
10
22
0
0
7
0
1
0
15
0
10
0
0
11
0
20
6
0
5
3
0
5
0
0
12
0
0
0
0
7
0
11
0
1
7
0
16
0
5
4
0
0
8
0
9
0
5
0
9
0
0
6
0
0
3
1
13
0
0
3
2
0
14
0
14
0
13
10
4
10
0
0
0
1
0
30
0
0
0
0
10
3
0
0
0
0
19
0
0
0
54
0
46
21
0
36
0
0
24
0
15
0
0
39
0
11
14
7
0
1
2
0
23
6
4
8
0
9
11
18
0
0
0
22
0
0
0
4
5
8
0
16
0
0
0
0
0
23
10
11
7
0
3
0
0
0
0
0
6
0
3
5
3
0
9
0
2
0
0
1
12
0
12
17
0
14
0
0
4
0
0
0
2
0
8
1
5
7
0
8
8
5
0
0
10
9
0
12
0
0
0
0
0
3
4
0
0
5
2
0
11
0
0
0
0
6
0
0
0
1
0
14
4
0
0
7
0
0
1
0
0
7
1
12
0
5
2
11
5
11
0
18
0
0
1
0
164
100
0
4
0
5
5
5
7
14
0
0
5
0
9
0
5
3
5
3
0
9
0
4
0
0
0
0
0
0
0
0
0
13
0
11
2
0
0
3
0
17
0
5
0
11
0
6
3
3
0
0
3
0
0
0
13
0
8
0
13
8
4
0
7
12
0
0
0
0
0
3
0
0
0
11
2
0
22
0
6
1
0
14
0
9
7
3
0
15
0
6
0
0
0
13
5
19
0
1
1
0
6
0
0
16
0
0
16
6
0
14
0
1
11
0
0
0
6
11
3
12
0
9
0
0
0
0
11
0
0
0
0
71
11
0
25
3
16
41
27
67
82
0
0
17
0
7
32
0
0
9
3
5
0
0
3
32
0
19
18
0
0
0
8
0
93
0
0
0
0
1
0
0
101
0
0
40
0
0
2
16
35
0
0
38
30
0
0
37
94
0
0
47
24
0
8
0
0
17
0
1
28
6
0
0
0
119
0
0
0
0
0
6
90
0
13
0
0
0
182
0
0
0
0
27
24
0
0
0
55
24
81
0
0
0
0
0
73
33
0
0
15
0
0
0
16
12
0
0
0
7
0
18
0
0
6
5
0
22
0
6
0
0
1
22
0
0
39
30
25
0
1
0
23
8
0
1
0
15
0
0
9
0
4
4
0
3
3
0
5
0
13
0
3
0
0
0
6
0
0
0
10
0
9
0
8
0
10
7
0
5
2
0
14
0
3
1
0
6
2
3
1
0
2
0
0
6
2
0
7
4
0
4
3
7
0
6
0
5
2
15
0
15
0
8
6
12
0
8
0
12
0
1
0
0
0
0
17
0
23
0
52
18
0
0
53
15
22
15
0
23
0
0
56
0
0
0
0
25
0
0
1
34
9
0
0
29
0
0
0
7
17
0
0
0
3
0
57
0
0
16
0
0
9
0
0
20
0
0
9
0
0
5
0
13
13
8
0
5
0
0
0
27
0
0
6
1
0
0
1
13
1
0
27
0
0
7
0
0
8
0
0
0
11
0
2
5
0
16
0
6
3
0
0
0
0
10
0
8
0
11
0
2
0
8
1
0
9
0
0
1
10
0
0
0
9
0
20
3
0
4
0
5
0
6
6
0
0
14
0
9
7
0
0
6
10
0
0
0
4
8
0
4
0
6
0
0
0
4
5
11
148
104
2
0
28
0
0
8
0
15
0
13
0
10
0
4
0
0
0
0
0
0
12
5
0
0
0
0
0
19
0
2
16
0
9
0
0
11
4
7
9
2
0
0
12
0
8
0
0
5
0
5
0
14
0
13
0
0
3
11
0
3
6
0
2
12
0
13
13
0
10
6
0
1
4
0
8
14
0
0
0
7
9
0
17
0
0
0
19
0
16
0
5
12
7
0
0
0
3
4
2
4
8
0
3
0
13
3
0
9
0
0
15
0
0
15
0
0
14
0
0
7
0
3
2
7
0
12
0
0
0
0
0
36
82
12
42
28
19
0
0
66
90
19
0
0
0
0
0
10
10
12
0
2
0
0
0
20
0
25
0
0
0
0
0
0
91
0
0
10
0
0
0
0
98
0
80
0
0
0
0
43
0
0
0
0
0
0
42
68
0
0
66
0
11
0
0
4
10
0
5
35
0
0
6
0
0
124
0
0
5
0
0
28
94
0
0
0
0
51
84
0
0
0
27
8
0
0
0
19
30
82
0
0
0
0
13
49
28
0
0
14
0
21
0
14
2
1
0
12
0
0
0
16
4
3
0
1
0
10
7
3
0
17
0
0
32
35
50
6
0
0
4
8
9
0
15
5
12
0
0
0
8
0
0
27
0
0
4
10
0
7
0
2
0
2
11
21
0
18
3
0
11
2
2
0
0
5
0
0
0
10
0
0
2
0
0
12
3
0
14
0
5
0
0
1
11
0
0
0
0
4
0
8
0
2
3
5
0
0
0
0
0
12
6
0
8
1
0
11
14
6
6
0
23
0
0
0
3
12
0
1
6
0
0
31
26
9
35
0
7
0
19
0
22
0
33
0
64
0
15
37
0
0
1
0
16
0
0
18
0
6
2
2
0
2
0
6
0
0
59
0
3
35
0
21
5
0
0
12
0
0
0
19
3
1
4
0
3
0
0
0
0
0
2
4
13
9
0
20
9
0
3
9
0
3
0
11
16
0
0
4
4
1
0
5
0
0
6
0
0
0
3
9
8
5
0
0
0
4
11
0
2
0
0
0
5
0
0
10
0
0
0
13
0
0
12
11
0
10
5
0
12
0
1
0
0
8
0
0
0
5
0
0
13
0
21
0
7
0
0
0
22
0
2
0
6
12
7
15
0
0
156
80
0
11
1
0
13
0
14
9
0
0
7
18
0
4
7
1
5
24
0
6
0
9
0
6
0
25
0
0
18
0
3
4
3
0
0
0
2
0
0
2
0
0
0
4
0
9
3
9
0
7
0
17
0
6
9
0
2
0
10
0
16
0
4
0
0
6
0
0
0
0
0
4
0
5
16
0
8
0
6
6
5
0
0
12
14
0
0
8
17
0
0
6
0
5
0
0
10
0
24
0
0
0
0
0
0
0
0
2
7
9
0
1
0
0
6
0
0
0
29
0
19
0
3
0
23
0
0
0
0
0
0
6
105
61
0
44
38
23
42
38
61
12
0
0
8
1
5
0
10
0
18
0
0
0
51
34
11
0
0
0
0
56
0
29
95
0
0
18
0
10
0
0
100
0
57
0
0
16
11
6
0
0
0
0
57
58
41
0
0
8
0
18
0
0
0
10
0
0
0
0
0
19
0
0
65
35
0
0
1
0
0
60
5
0
0
0
0
100
0
0
0
43
11
0
19
0
7
13
103
16
0
0
0
0
45
56
0
0
0
26
0
11
5
8
0
25
0
0
0
0
12
0
8
0
6
0
6
0
0
0
15
0
5
38
53
25
0
0
0
19
0
23
0
0
3
0
0
18
18
8
13
5
8
0
0
11
11
0
11
0
0
3
0
4
0
0
11
0
2
0
3
11
0
8
0
3
11
11
2
0
11
3
0
6
0
0
9
0
6
0
0
0
7
0
0
3
0
7
4
5
0
5
0
9
0
7
2
6
0
4
18
13
5
22
9
0
0
9
0
0
7
0
0
0
6
2
0
0
0
0
0
55
0
3
55
18
28
0
22
0
0
34
20
0
0
13
0
10
0
0
0
21
0
0
0
27
0
5
0
0
7
0
6
5
0
0
34
0
0
19
0
0
0
0
0
0
0
0
0
3
7
0
0
20
0
15
0
14
0
0
1
17
0
1
0
0
13
0
13
3
0
7
0
0
1
0
2
5
0
2
0
8
0
16
0
0
8
5
0
7
0
8
1
1
2
2
0
0
0
0
12
0
22
0
0
12
8
0
2
10
0
0
19
0
5
2
0
0
0
5
0
10
0
0
15
0
1
0
12
1
3
15
1
0
0
0
3
4
8
0
0
0
0
0
0
6
0
0
0
0
146
117
13
6
0
36
0
0
13
0
4
2
11
0
0
0
5
13
0
0
0
0
1
0
24
0
11
2
0
2
0
18
15
0
8
12
0
14
0
18
2
0
4
0
1
0
0
0
8
0
13
0
0
0
6
0
5
5
11
0
4
8
0
0
0
0
0
8
0
0
28
6
0
4
17
0
0
0
7
3
0
0
0
0
7
0
2
22
0
4
6
0
23
0
10
9
0
0
0
16
0
23
0
13
19
0
8
0
14
5
0
0
11
0
10
3
17
0
0
12
0
0
3
0
8
0
0
0
0
6
84
3
0
74
57
0
0
0
0
0
0
0
0
0
0
26
0
0
14
6
0
11
7
0
0
49
26
20
40
0
0
0
11
74
0
103
19
0
0
13
0
0
0
0
56
20
0
0
13
0
0
21
0
0
45
45
0
0
0
0
13
27
0
0
0
0
0
4
0
5
11
0
0
21
7
0
69
18
0
0
0
0
30
22
64
0
0
0
3
100
0
37
94
12
0
0
0
0
46
61
45
0
0
0
0
24
71
15
0
12
0
0
9
0
21
0
11
0
10
0
0
0
4
0
6
1
4
0
23
0
3
20
5
1
72
99
0
0
0
0
12
31
0
5
0
20
4
11
22
0
0
10
0
3
7
23
3
12
3
0
5
11
0
3
6
1
0
14
0
0
2
0
0
0
0
2
3
0
0
1
0
10
0
6
11
0
12
0
6
0
0
1
6
0
4
0
9
3
0
0
0
0
5
6
1
0
4
0
2
0
14
0
9
9
22
0
24
5
16
0
0
0
0
0
25
0
0
13
0
28
0
0
28
64
0
0
33
11
19
0
25
5
0
3
16
0
0
0
22
0
30
53
2
0
17
0
11
0
37
52
0
20
0
31
0
3
0
22
0
0
20
0
6
26
14
0
0
10
7
0
1
0
24
4
22
0
17
0
19
0
0
0
0
0
8
9
7
10
0
0
5
0
0
0
7
0
11
0
10
2
0
1
0
5
9
0
5
5
1
0
6
7
6
0
0
10
0
0
0
17
0
0
0
6
0
0
12
0
0
0
8
0
9
0
0
11
0
17
1
0
14
1
0
0
13
6
0
0
0
0
0
4
0
0
0
0
14
0
0
0
4
4
0
1
1
8
0
0
7
10
0
0
160
106
6
0
0
5
0
6
0
9
0
0
0
5
4
3
0
3
0
12
7
22
0
13
0
2
0
0
8
0
7
0
2
6
0
1
5
0
0
0
0
9
0
3
4
4
0
8
0
5
0
4
7
0
3
0
2
0
0
4
0
1
10
0
0
12
0
0
25
0
0
15
0
13
0
13
21
23
0
11
0
5
10
7
7
0
5
0
0
0
7
0
0
18
0
0
0
12
0
0
13
0
4
2
0
17
0
4
8
0
19
4
12
2
2
0
0
6
12
0
0
6
5
0
0
0
0
0
86
55
63
51
69
81
0
0
0
0
0
0
0
0
0
0
10
0
0
0
0
6
22
4
0
0
15
6
0
3
3
0
28
0
80
0
3
69
0
0
0
0
9
0
0
42
27
72
0
0
0
0
43
0
3
15
10
0
0
0
0
0
0
30
3
0
24
0
3
0
23
0
0
15
0
0
0
0
24
0
0
2
0
0
91
0
74
0
0
0
54
43
0
0
0
0
0
0
0
77
1
93
0
0
0
0
0
92
7
0
13
0
0
3
9
1
6
0
7
0
7
0
0
0
1
9
14
0
0
0
7
0
0
0
20
80
24
0
0
0
9
0
0
0
4
18
0
1
6
11
21
0
10
4
0
21
4
0
14
0
5
18
0
10
4
0
7
0
10
7
0
13
9
0
0
11
0
6
4
3
0
11
0
9
0
1
3
0
3
0
2
0
17
4
0
2
0
16
0
5
6
0
0
5
0
4
0
0
3
5
0
14
0
12
1
0
7
21
8
9
0
0
0
3
0
18
0
0
0
0
0
0
13
0
0
82
0
0
62
34
21
7
16
0
0
0
0
24
14
15
0
0
0
0
0
7
0
0
29
11
0
0
36
0
0
0
16
7
0
1
2
2
0
0
1
0
0
4
2
16
0
0
0
0
5
9
2
1
0
0
0
0
0
0
12
2
6
0
0
10
0
0
6
0
5
0
4
0
6
0
0
0
30
0
15
0
5
0
1
0
10
0
0
0
0
0
15
0
0
25
0
0
15
0
5
0
3
0
0
7
7
0
0
0
11
2
0
0
4
0
9
0
0
0
14
10
0
3
6
3
2
30
0
2
6
6
4
0
0
10
0
18
0
17
10
0
0
0
17
0
0
0
4
0
136
92
0
10
3
1
0
15
0
8
0
8
0
0
0
13
3
0
0
0
0
0
0
13
0
0
6
6
0
6
3
19
0
10
9
0
10
0
11
0
0
4
0
3
0
5
0
0
0
3
2
0
7
0
0
6
16
0
9
0
8
3
0
13
0
0
0
30
0
0
28
0
4
6
7
0
0
0
0
0
7
0
8
1
0
10
1
0
11
12
0
24
3
5
0
6
15
0
0
4
0
6
12
0
0
13
0
0
0
0
16
0
0
0
10
13
0
8
0
0
0
1
0
6
0
0
0
9
107
51
0
0
55
0
0
0
0
0
0
0
11
0
0
95
0
0
0
22
4
0
7
0
13
0
33
28
0
0
0
1
0
35
87
0
47
51
0
0
0
17
0
0
18
41
18
36
0
0
3
0
58
0
0
0
15
0
0
33
0
14
0
0
0
0
13
0
0
13
15
27
0
6
19
0
0
0
19
22
0
0
0
0
67
0
84
0
1
0
81
0
0
0
0
0
0
0
63
7
72
0
0
0
0
0
46
47
0
0
6
4
16
0
19
11
13
11
0
13
0
6
0
5
9
1
0
5
3
11
8
0
2
57
66
0
0
0
0
0
0
0
0
4
0
0
0
3
0
6
0
0
6
0
11
0
2
3
18
18
4
15
6
7
0
2
1
3
0
3
11
0
0
0
26
0
0
0
2
12
0
1
0
9
3
0
0
0
8
0
7
4
0
14
0
0
2
0
2
0
0
2
11
0
1
0
8
0
0
6
11
1
38
0
16
19
0
10
0
7
0
0
2
4
0
0
0
0
6
4
0
11
0
0
0
78
0
0
86
41
13
0
0
44
3
0
0
0
0
21
41
16
0
0
32
0
0
22
0
1
0
13
0
8
0
23
0
13
0
0
0
0
11
5
0
16
10
0
0
8
6
0
17
0
5
4
23
7
0
0
0
0
5
12
0
0
8
6
8
0
7
0
0
1
5
0
0
0
0
15
11
0
0
5
0
0
0
0
3
0
0
5
0
0
0
9
0
2
6
0
3
9
0
10
0
10
0
0
0
16
0
9
4
0
0
14
0
9
0
0
0
8
1
0
0
0
0
0
5
0
0
0
6
0
0
0
6
10
9
0
19
0
21
0
0
5
10
0
14
0
0
0
0
5
127
100
0
8
0
1
0
0
7
0
11
8
0
17
0
0
0
14
0
9
0
12
0
0
0
15
0
7
0
12
3
0
0
0
1
2
0
7
0
6
0
11
7
0
13
0
11
8
1
0
0
3
0
0
0
14
0
0
0
3
0
2
0
11
5
0
2
0
0
9
0
0
31
0
13
0
0
1
0
22
0
0
3
0
0
12
0
2
4
0
4
0
4
0
8
0
0
12
0
22
0
7
2
2
4
8
0
17
6
4
0
1
1
13
5
5
0
0
0
5
5
0
11
0
4
0
0
23
90
25
0
1
0
0
7
0
0
0
25
0
0
0
0
48
2
0
92
93
76
0
9
20
0
0
63
0
0
0
0
0
0
53
0
0
136
0
0
0
34
0
0
0
0
24
25
62
0
0
12
0
13
12
0
7
0
0
0
0
25
0
21
47
0
6
0
20
0
1
16
0
0
0
0
66
32
44
29
14
0
20
37
0
53
0
92
24
0
0
89
0
0
12
16
0
0
0
26
103
0
0
0
0
0
49
59
0
0
2
0
0
2
0
0
11
17
0
0
0
0
7
0
29
0
8
0
1
5
0
0
12
75
9
0
0
0
0
11
13
6
0
8
0
0
0
9
0
0
0
0
21
0
3
11
16
15
20
0
25
15
3
2
9
0
25
0
10
0
0
0
5
1
0
0
7
5
0
9
0
8
0
7
0
0
0
4
0
12
0
0
0
9
0
5
2
14
0
2
5
4
0
0
4
6
1
1
6
9
13
10
0
18
21
0
13
1
0
0
29
0
0
0
0
0
30
3
0
0
0
0
0
0
0
0
72
0
0
0
73
23
0
0
10
2
0
22
0
25
0
23
0
16
0
0
0
0
7
0
47
0
24
0
0
7
0
0
0
6
3
0
16
20
0
5
0
4
5
0
0
0
0
0
12
0
6
0
11
14
0
21
0
0
0
18
3
5
0
0
4
0
11
0
0
4
0
15
0
0
5
0
10
0
0
0
3
3
0
11
8
6
0
0
8
0
3
12
6
0
0
0
7
0
0
17
0
0
3
0
0
4
5
9
3
3
0
3
0
0
11
3
0
4
8
0
11
0
24
1
0
0
12
0
9
0
0
0
0
5
6
0
6
0
0
5
0
2
4
0
21
13
2
1
0
146
98
0
3
0
8
0
0
0
16
0
0
6
12
0
3
0
0
0
4
3
0
0
9
0
0
0
1
0
0
0
0
9
0
0
0
10
0
6
0
6
0
0
0
6
0
14
0
4
0
4
5
1
9
10
0
9
0
2
5
0
14
0
0
0
4
0
0
0
10
15
4
0
21
6
1
0
12
21
1
0
8
17
6
12
0
12
0
10
0
0
18
0
0
16
20
7
0
6
0
6
1
8
0
0
0
8
0
0
0
0
1
19
0
0
0
14
0
7
12
1
0
11
0
0
0
0
25
81
13
4
10
0
0
0
0
11
0
0
20
14
15
45
0
0
52
87
34
103
0
2
0
0
0
0
0
0
0
0
29
0
66
0
98
106
0
0
15
0
0
0
35
5
16
90
42
0
0
0
4
37
0
0
5
0
0
84
0
0
29
0
29
16
0
0
0
0
19
13
0
28
0
12
0
0
0
50
51
0
40
0
0
92
0
55
34
0
0
76
0
0
20
0
0
0
38
38
80
0
0
0
0
45
43
0
0
10
0
15
0
0
11
0
26
1
1
0
10
0
0
1
2
8
0
0
3
1
2
14
58
0
0
0
1
14
14
25
4
16
15
12
0
0
1
0
0
0
0
0
0
0
0
0
0
0
0
15
0
0
12
27
19
0
5
14
0
0
8
7
2
1
14
5
0
0
0
0
1
0
3
0
13
12
0
0
4
0
4
0
5
0
4
0
5
0
0
3
3
5
0
4
0
15
11
17
2
16
28
5
24
21
2
3
8
0
5
14
10
0
2
0
0
0
0
0
7
0
0
8
0
1
0
0
39
0
0
30
26
30
22
0
23
13
0
17
0
0
0
11
42
0
0
21
12
0
0
1
0
0
0
0
8
23
0
20
0
36
17
7
0
0
17
19
0
0
0
0
21
0
0
29
0
6
1
15
0
0
6
0
0
0
16
0
0
0
19
5
0
0
0
0
0
8
4
0
0
5
0
1
2
0
4
0
7
4
0
3
3
0
6
7
0
9
0
0
0
5
8
0
5
0
5
0
0
7
0
24
0
0
7
0
12
0
6
0
5
10
0
11
0
5
0
6
0
0
0
0
0
13
0
0
0
16
9
8
9
0
10
0
0
15
0
13
0
0
6
0
0
0
0
1
0
130
94
0
12
9
0
5
6
0
6
0
15
0
13
0
0
5
0
1
0
24
0
0
2
0
0
1
0
22
0
17
0
17
5
7
11
0
0
9
0
2
8
0
8
4
11
0
0
9
2
12
0
1
10
0
0
0
16
0
16
13
0
15
0
6
0
0
17
0
0
0
0
18
0
0
0
11
1
0
0
0
0
0
5
0
35
0
0
2
0
0
0
0
8
4
0
3
0
0
16
2
0
0
4
17
5
1
16
0
18
0
5
10
0
2
0
8
0
2
0
19
26
0
0
2
0
0
12
44
0
49
0
0
35
0
44
0
0
0
0
0
5
32
0
80
5
0
0
5
0
22
18
0
0
22
9
0
7
21
0
45
18
0
146
0
0
0
8
0
0
46
0
4
0
87
18
0
0
0
5
0
0
0
0
62
0
26
58
0
0
0
0
41
15
0
13
0
32
0
0
0
0
0
0
0
0
0
82
44
0
0
8
85
0
26
74
0
5
71
0
0
0
22
0
46
17
67
0
0
0
0
0
73
5
0
12
4
0
7
6
0
5
22
7
9
0
0
0
0
29
0
22
5
0
25
0
9
17
73
0
0
0
9
6
10
12
27
1
5
16
11
7
16
16
4
2
6
0
0
0
0
0
19
0
0
0
0
14
0
6
27
9
15
18
0
10
6
0
0
19
3
0
0
8
2
11
0
0
0
22
6
0
0
10
0
7
7
0
3
0
22
0
0
0
4
0
0
0
8
14
3
9
1
16
22
37
34
0
15
0
0
0
8
0
2
1
0
0
0
0
0
13
0
11
0
0
9
0
3
0
5
0
1
15
0
0
25
31
41
6
0
49
0
0
21
0
17
0
0
13
0
33
0
0
0
29
0
0
0
10
9
0
3
34
0
9
0
0
6
0
15
16
0
5
4
16
0
0
0
8
0
0
27
13
0
1
10
0
0
0
10
0
11
9
1
5
0
12
1
0
4
0
0
1
0
10
0
17
0
0
12
0
2
0
3
0
4
0
6
2
0
14
0
3
0
7
0
16
0
0
11
1
0
5
0
0
0
0
1
14
0
0
9
0
11
6
0
0
0
9
1
8
0
7
14
0
2
12
0
0
15
7
0
0
0
4
3
0
11
0
1
12
2
0
4
0
21
11
0
8
0
5
135
117
16
0
19
0
18
2
1
6
7
0
2
0
0
10
21
0
0
19
0
15
0
2
11
0
16
0
0
8
3
0
6
0
0
13
5
20
0
12
0
2
6
0
2
0
12
0
0
6
0
0
2
0
0
11
7
0
8
0
0
20
0
9
1
13
6
0
0
0
0
19
0
13
21
2
0
0
25
0
0
0
0
16
0
18
0
0
24
0
12
0
0
7
0
0
8
5
11
0
0
2
6
0
0
0
0
0
15
4
0
0
0
0
12
0
10
0
0
20
0
0
0
0
18
1
0
0
0
0
44
60
16
0
0
0
5
0
0
11
0
0
22
0
45
21
0
0
0
35
1
0
0
0
48
26
0
0
0
0
37
0
88
0
0
15
0
40
0
0
46
1
34
0
108
78
0
0
3
8
0
0
0
37
0
7
0
0
0
77
0
0
0
46
0
0
17
33
0
3
0
17
7
0
4
0
0
6
64
47
0
66
63
0
0
80
0
0
49
0
24
9
0
0
26
63
6
0
0
0
6
71
36
0
0
2
1
0
0
0
3
9
17
0
0
1
0
0
11
0
0
3
0
0
4
6
18
67
0
0
0
5
11
17
0
7
0
8
17
1
19
31
4
0
11
15
0
13
0
0
12
9
0
24
0
0
0
0
0
0
0
0
17
23
16
17
23
0
0
3
0
0
7
0
0
8
0
0
14
0
8
0
0
0
0
0
0
4
7
0
0
3
6
9
0
3
0
4
6
0
7
15
8
21
0
16
0
0
0
0
0
9
0
0
0
0
0
17
0
2
4
22
4
0
0
2
9
1
2
0
15
0
6
7
2
0
6
44
23
0
0
10
52
0
10
0
12
0
0
39
0
0
49
6
5
0
22
5
4
0
6
0
0
6
0
10
0
7
0
0
0
5
0
5
0
0
22
0
0
0
17
29
9
6
0
2
0
0
4
0
0
1
0
12
2
0
0
9
0
3
3
4
2
0
0
1
0
0
14
0
15
0
12
4
5
0
0
0
0
0
1
0
0
6
0
12
0
0
14
9
0
6
1
0
2
5
0
6
0
2
6
5
0
0
0
2
0
20
0
0
5
4
0
0
8
0
11
0
3
0
0
18
0
14
0
0
2
0
0
12
0
4
4
0
0
20
0
0
4
0
5
0
125
102
0
0
9
0
0
4
0
0
10
0
9
12
0
0
0
18
1
3
8
0
0
1
8
0
0
0
3
0
8
0
0
7
15
0
0
3
0
0
12
0
2
7
0
7
0
0
12
0
0
0
12
0
9
0
8
0
5
0
0
0
9
18
0
0
0
8
0
18
12
0
8
0
4
0
16
0
0
11
9
1
18
0
11
8
4
0
6
0
2
6
0
0
2
0
10
0
6
3
0
31
0
0
3
0
22
13
0
0
0
14
0
10
5
14
0
18
0
0
0
0
0
23
0
11
0
0
0
0
55
72
0
13
8
0
0
0
0
8
0
1
48
0
0
20
0
0
0
0
19
0
0
4
34
37
0
0
0
55
18
0
58
0
6
0
0
0
4
37
0
83
0
0
73
74
0
0
11
0
13
11
25
95
15
16
2
10
0
138
25
0
44
33
0
0
4
32
0
7
5
8
0
0
13
0
0
0
0
27
38
48
1
0
0
64
69
0
0
0
0
0
0
35
32
66
0
0
0
2
45
51
0
0
10
0
12
0
15
2
8
13
10
0
14
0
0
1
0
5
14
0
11
2
17
49
67
0
0
0
0
15
0
0
18
8
19
1
6
0
41
13
0
20
14
19
0
18
7
29
18
3
31
0
13
0
1
1
0
0
0
0
0
11
0
0
3
0
10
0
16
0
0
5
0
0
0
18
0
14
0
0
28
0
5
0
14
0
0
1
7
8
11
0
11
1
0
10
10
13
12
8
24
9
0
0
0
0
0
0
7
0
0
0
34
0
29
9
1
14
38
16
20
2
0
0
21
0
9
0
0
2
0
41
12
0
33
72
21
0
0
4
36
0
0
27
0
0
0
72
0
0
4
1
0
17
0
0
7
0
0
6
0
25
0
0
23
4
0
2
12
0
45
0
1
12
0
15
0
5
6
4
0
26
0
5
0
7
0
0
4
0
0
11
0
8
0
0
0
2
0
0
0
18
0
6
0
1
0
6
0
8
0
7
0
3
6
4
1
5
0
15
9
4
0
0
0
22
0
15
0
4
3
8
0
0
16
0
0
0
1
0
6
21
0
6
9
0
4
0
0
1
0
12
0
4
0
15
0
1
10
1
5
0
0
16
8
1
0
0
0
9
0
13
5
0
2
8
0
11
7
2
120
106
7
0
0
0
21
0
0
12
0
19
0
0
0
0
6
2
0
3
0
1
16
1
5
0
0
4
0
14
0
7
0
13
0
17
0
5
8
5
2
3
11
0
1
6
6
2
0
0
0
8
0
9
0
2
9
0
0
9
0
7
6
7
0
0
0
0
0
0
17
0
0
11
0
0
19
0
28
0
0
11
0
0
0
0
13
15
0
0
13
0
3
12
6
0
19
0
4
15
6
0
3
11
0
21
0
1
8
0
27
0
10
0
0
0
0
15
0
0
0
11
5
16
4
0
0
24
0
0
14
0
0
0
0
0
0
0
0
0
0
0
55
0
0
51
0
0
7
0
87
62
16
11
12
0
6
2
0
42
0
40
0
0
0
7
1
0
10
65
9
36
0
0
50
82
7
0
0
6
26
0
0
0
0
9
9
0
0
0
0
0
36
0
66
0
10
0
0
0
0
0
0
6
0
6
17
0
94
0
0
128
0
0
0
17
120
0
0
0
0
0
20
28
80
13
7
0
0
13
61
13
0
3
2
6
0
1
0
19
2
9
13
0
0
2
0
10
0
13
1
0
1
21
63
28
0
0
16
21
12
4
3
0
14
13
0
17
16
0
0
9
39
7
7
6
14
0
0
34
42
0
30
0
12
0
6
2
0
12
0
0
0
0
0
4
0
19
9
9
0
12
0
6
3
12
0
6
0
0
0
0
12
0
0
6
3
5
0
0
15
0
8
0
14
0
0
13
0
1
4
10
0
0
0
0
0
6
2
0
41
0
45
0
8
47
20
17
5
36
0
6
25
0
11
4
11
0
6
0
0
0
0
11
32
0
0
54
23
4
8
2
8
12
0
0
0
23
0
0
64
0
0
0
0
0
8
14
0
0
26
0
0
0
0
0
0
1
0
27
1
11
0
5
9
10
0
0
0
0
0
10
7
0
9
0
0
0
0
0
12
0
22
0
3
12
11
0
15
0
0
10
1
0
2
0
14
0
0
0
0
0
20
0
0
5
3
0
0
0
18
0
0
0
3
0
0
12
0
0
8
0
0
0
0
16
0
0
10
16
0
5
0
0
7
0
0
2
0
2
4
0
0
2
2
2
5
0
2
0
0
0
2
12
0
0
0
0
4
0
3
0
0
5
0
10
3
2
0
0
0
1
141
95
0
7
0
17
0
12
0
0
15
1
16
0
8
10
10
2
3
0
4
15
5
0
0
17
0
0
8
0
22
0
0
10
4
0
10
0
0
0
0
12
1
1
0
5
0
3
2
8
6
0
2
0
11
1
6
0
3
0
6
0
0
0
6
21
0
0
5
0
1
4
0
5
12
0
0
13
0
1
0
0
0
55
6
0
1
0
0
9
0
2
3
0
4
4
0
0
0
0
0
0
0
0
38
0
13
0
0
0
0
0
0
4
10
5
4
0
0
14
9
17
10
15
6
3
0
2
6
0
44
53
0
0
0
37
30
69
0
0
0
0
60
24
0
79
0
0
0
0
0
21
0
0
23
0
0
16
0
30
0
66
0
0
8
0
0
0
87
13
25
0
0
0
0
76
89
0
0
0
8
0
0
34
0
1
0
0
0
28
0
0
14
25
29
0
0
0
0
0
25
9
7
0
28
0
0
0
0
0
0
66
103
0
0
0
0
0
0
3
0
0
12
72
7
0
0
0
14
54
19
0
2
0
0
0
0
3
3
4
4
3
5
11
0
18
0
20
0
3
4
8
29
79
7
0
4
0
5
15
1
0
0
31
2
5
0
14
23
45
0
24
46
6
0
42
19
0
30
35
27
0
23
0
5
2
0
0
10
9
0
9
5
0
0
0
12
6
12
2
3
0
7
14
0
0
0
5
0
17
5
0
0
10
3
0
0
4
3
0
0
0
12
0
3
0
0
21
28
9
0
0
0
0
0
0
0
31
0
9
22
35
42
0
57
50
1
17
0
7
18
14
0
6
0
0
13
0
0
0
27
0
0
20
14
0
0
38
42
0
0
0
13
20
0
0
10
0
0
5
23
0
0
20
0
0
27
0
43
0
0
22
0
0
63
0
0
36
0
0
0
0
25
0
0
0
20
0
0
14
5
8
25
1
10
0
17
2
0
13
0
15
0
3
0
0
0
8
0
0
13
14
0
16
0
0
0
3
2
0
9
5
0
7
9
0
0
11
5
0
0
0
5
0
15
0
4
0
10
0
14
0
13
0
12
0
15
0
1
9
0
0
12
3
10
0
3
8
1
15
0
0
11
0
0
0
4
0
0
0
6
0
2
0
3
2
11
0
9
0
6
0
7
0
7
0
0
0
1
0
7
0
127
99
0
16
0
0
8
0
6
5
14
0
8
0
18
0
0
4
0
9
0
9
0
17
0
0
0
0
7
0
0
0
19
0
0
6
0
17
1
8
0
5
0
0
18
0
0
7
0
8
0
10
4
11
16
0
5
0
0
13
0
0
2
0
12
0
0
3
0
0
0
23
0
6
5
8
0
35
0
0
1
13
7
0
0
4
0
0
0
4
0
0
3
0
3
0
20
5
9
0
18
0
23
0
0
0
0
8
0
3
16
13
0
11
0
0
3
0
0
20
6
3
1
0
0
1
3
0
0
0
36
72
0
14
0
0
123
21
0
0
0
7
46
5
0
44
50
39
32
0
70
33
0
0
0
0
0
0
0
5
58
47
0
7
0
10
8
0
66
15
0
0
5
0
0
37
95
0
0
18
0
0
15
24
40
0
0
0
5
0
25
0
26
10
14
41
0
0
3
13
0
7
0
9
1
0
0
8
0
16
0
0
19
125
0
0
0
21
0
0
0
67
40
76
0
0
0
11
44
54
0
0
16
2
0
2
14
0
0
6
10
3
0
0
0
0
0
17
0
4
6
41
82
0
0
0
6
10
0
0
30
12
8
22
1
0
9
37
5
14
0
0
11
19
9
13
9
0
22
41
0
0
30
0
38
16
18
0
32
0
0
7
0
10
0
6
0
23
3
0
0
0
0
6
0
2
0
1
0
15
9
0
0
0
2
0
5
3
4
4
7
0
10
9
0
0
9
20
0
0
0
0
0
0
12
21
17
32
58
0
0
45
0
43
7
0
4
6
0
0
0
9
0
0
0
59
0
0
41
11
0
0
0
24
39
0
0
29
42
6
5
7
2
0
26
0
0
7
0
0
23
0
0
13
0
0
21
6
0
0
0
26
0
5
0
0
0
0
2
0
18
0
10
0
0
3
1
0
0
22
2
0
0
11
0
6
0
0
17
0
4
0
10
0
1
3
0
8
5
6
0
0
0
1
0
2
4
0
12
0
8
0
0
0
0
0
7
0
0
18
0
0
0
6
0
0
1
0
11
3
0
8
0
7
0
0
1
15
0
0
3
8
2
0
0
2
4
0
0
0
1
6
3
0
0
4
3
0
9
0
15
7
0
14
0
2
2
0
14
0
0
7
0
12
0
6
0
8
1
0
0
4
133
103
3
0
20
2
8
0
0
6
1
0
18
0
5
0
4
5
13
0
0
3
2
0
21
5
1
6
0
3
20
0
3
3
0
10
5
0
0
17
0
1
0
0
4
1
10
0
11
0
8
0
0
8
0
1
1
10
5
7
0
14
10
0
13
0
20
0
0
7
1
0
0
0
0
0
8
0
0
29
3
0
14
0
1
10
0
0
11
8
3
11
0
22
5
0
6
0
0
23
0
12
0
0
5
18
0
19
0
17
0
0
15
2
0
0
0
0
0
29
6
0
4
8
0
0
11
15
5
0
26
48
33
66
0
0
49
24
5
1
27
76
34
0
24
32
71
73
0
0
0
26
0
5
4
16
10
0
0
51
76
0
7
0
24
0
10
20
18
35
0
0
0
0
0
5
41
19
0
0
24
0
0
62
30
0
6
0
0
0
0
0
10
31
31
33
0
0
18
0
6
0
0
21
10
0
14
0
13
0
0
0
0
0
114
0
0
0
0
0
14
49
90
0
0
0
0
51
42
0
0
26
0
7
19
0
2
0
21
1
6
0
4
0
3
0
11
6
0
0
69
91
0
0
24
0
8
8
3
0
0
0
2
10
14
10
27
22
10
0
0
0
20
83
19
67
0
0
38
80
0
56
0
22
14
9
0
29
7
0
2
16
20
0
0
2
0
0
0
10
18
0
0
3
3
0
0
0
0
0
0
14
13
4
3
10
0
0
0
0
0
8
3
3
10
0
0
0
0
0
1
1
29
26
15
17
43
37
22
0
47
0
0
16
18
0
35
0
5
3
14
0
0
0
0
43
6
0
0
0
14
0
16
0
43
0
14
26
47
19
0
10
0
0
68
0
0
0
0
0
103
0
3
14
0
4
0
0
17
0
9
0
0
0
8
15
6
13
0
12
0
0
0
0
8
0
0
0
0
16
9
9
16
0
7
0
3
0
0
5
21
4
0
13
0
0
6
0
0
0
7
6
0
12
4
0
0
2
0
0
0
0
21
0
13
6
0
9
13
0
9
0
24
0
0
5
0
8
0
5
14
0
0
0
4
1
0
0
13
0
0
12
0
11
2
0
8
0
0
3
1
0
2
3
14
0
9
0
0
18
0
0
15
0
0
5
11
0
6
10
4
9
1
1
16
0
0
4
0
15
4
3
112
81
0
5
0
0
0
4
15
0
14
0
26
0
2
8
0
0
0
6
0
3
2
0
1
0
5
0
0
0
1
0
10
1
13
0
0
3
0
1
7
0
0
9
0
0
0
1
0
5
1
0
2
0
0
11
0
1
0
0
3
0
23
0
0
6
0
0
20
0
6
0
44
0
0
0
0
0
29
0
0
0
1
0
0
16
0
5
0
0
0
0
0
0
22
0
0
0
20
12
6
0
1
0
1
12
0
0
0
5
0
0
0
0
0
0
7
7
0
0
0
0
6
7
0
0
0
0
2
0
5
45
14
59
63
22
20
6
22
35
96
5
0
0
1
34
0
0
0
17
14
0
0
0
0
20
0
3
37
104
0
0
32
52
0
41
0
13
52
53
0
0
4
0
0
21
0
118
0
15
0
0
9
2
63
0
9
16
0
0
0
7
0
52
0
33
40
0
0
34
0
0
0
0
0
28
0
15
0
4
0
25
0
0
45
55
0
0
0
0
52
71
16
0
0
0
51
65
1
0
14
0
6
0
0
3
0
3
0
17
2
0
8
0
9
0
1
0
8
75
92
0
0
0
3
18
5
24
35
13
32
0
0
0
0
26
0
28
0
0
0
0
0
40
9
0
0
0
5
0
0
2
46
0
80
0
0
39
0
17
1
0
0
3
10
0
0
0
0
0
0
6
0
7
4
0
0
4
9
0
17
0
6
0
0
6
8
10
0
0
4
0
1
10
10
1
2
0
0
21
29
7
72
61
0
0
25
0
0
0
0
0
0
0
5
0
0
0
0
0
13
0
0
1
16
13
0
11
0
0
0
2
0
23
26
0
0
39
31
33
0
0
0
0
19
0
3
0
14
0
31
0
0
13
0
19
0
0
0
0
16
0
21
0
13
0
24
0
0
1
21
4
4
0
0
0
0
22
15
4
9
0
5
6
0
0
0
0
20
11
0
4
2
0
13
0
0
0
3
7
2
0
14
0
11
2
0
0
5
0
6
0
1
0
4
0
0
0
0
11
0
0
0
1
10
0
0
5
0
2
0
0
0
15
0
13
0
3
0
6
1
0
7
0
0
0
11
9
4
2
0
9
0
0
0
0
0
0
10
0
0
0
6
0
0
0
0
8
0
0
0
1
0
10
0
23
13
0
3
0
0
0
146
122
16
13
0
20
0
0
31
0
2
0
0
4
0
0
0
24
0
0
0
0
18
0
17
0
5
2
0
5
11
0
2
0
5
0
14
4
0
6
0
8
9
0
14
6
0
3
0
3
0
14
0
9
10
0
1
0
16
0
1
34
0
28
0
25
0
0
0
0
0
5
0
4
9
6
0
4
3
0
34
0
0
3
0
0
5
7
9
0
3
1
0
7
0
18
6
4
0
0
0
0
0
7
0
0
1
22
0
12
0
0
0
4
0
0
40
19
0
0
7
0
17
0
4
8
24
10
2
0
0
9
0
0
0
10
43
45
24
0
0
0
26
0
0
0
0
0
3
0
70
108
0
33
0
0
0
3
42
15
0
0
0
0
7
18
0
18
44
0
0
0
0
0
0
74
0
98
0
0
0
0
0
32
45
0
0
0
6
0
3
0
0
0
14
51
1
0
0
0
5
14
21
1
0
0
0
0
26
0
33
0
0
0
0
71
0
0
0
51
14
76
0
0
0
34
49
17
0
8
0
16
0
0
4
0
12
11
8
9
0
5
1
0
0
0
3
6
99
73
0
0
0
0
35
7
0
0
0
35
25
0
0
12
4
0
0
0
0
0
0
0
0
0
0
2
0
0
0
0
0
0
0
120
0
0
8
27
1
0
0
7
0
7
0
0
4
5
2
0
4
0
9
11
0
0
0
0
7
0
0
11
4
0
0
5
0
1
0
2
0
0
7
3
18
0
16
3
40
55
0
44
14
0
0
0
0
0
0
6
0
2
0
8
0
7
0
18
0
16
8
0
0
0
59
0
0
0
25
3
0
10
0
18
60
0
0
36
44
0
24
0
23
40
0
9
0
3
0
0
77
0
0
0
26
0
0
0
0
14
0
1
2
0
0
6
6
0
12
0
0
10
0
0
0
12
0
0
3
19
15
38
0
1
22
5
0
7
0
7
0
11
3
23
0
0
22
3
0
2
0
10
0
13
0
0
0
12
5
0
10
0
5
2
0
8
2
0
0
1
3
13
0
0
0
5
0
0
2
3
0
0
16
0
12
0
0
0
3
8
0
7
0
18
0
7
4
0
0
2
11
0
0
7
0
7
2
3
0
14
1
0
3
0
14
0
1
4
0
12
0
3
1
0
5
0
0
9
0
9
17
0
121
90
0
4
0
0
0
3
0
8
0
0
10
0
0
0
8
9
11
0
0
19
0
11
0
2
0
0
9
11
1
6
7
0
0
5
0
0
25
0
0
0
0
0
4
0
4
15
0
0
0
0
11
0
0
9
4
3
2
0
0
0
0
1
3
5
0
0
12
37
0
0
0
0
0
4
10
1
0
0
0
3
0
0
12
0
0
3
10
0
9
5
4
0
7
0
0
10
0
0
11
27
14
3
0
23
0
0
1
0
0
26
23
0
0
4
32
0
7
0
10
0
0
1
0
0
0
0
11
0
0
0
0
0
0
0
32
43
0
60
0
0
0
0
3
0
15
0
0
0
0
0
6
5
14
0
0
63
40
0
0
14
0
0
73
0
0
16
43
0
0
18
1
0
0
82
0
18
87
0
1
0
0
36
68
0
0
2
0
0
0
26
0
1
0
97
35
37
0
0
0
0
0
0
0
47
0
0
8
0
0
0
0
3
0
0
0
0
0
71
64
0
0
0
0
54
43
0
11
0
1
0
0
5
8
0
9
0
14
0
0
0
14
7
0
4
5
93
60
0
0
5
37
0
10
0
17
0
0
0
5
0
0
2
0
0
19
0
0
15
4
0
8
0
0
0
0
7
0
0
0
0
0
0
0
20
55
12
6
0
11
0
24
17
2
0
27
0
0
16
0
4
1
7
0
4
0
18
0
0
7
2
14
0
0
7
0
0
0
3
11
1
19
9
7
2
15
0
0
26
0
0
0
0
0
8
0
20
0
0
11
0
0
0
20
0
19
0
0
7
0
37
0
19
0
0
4
16
0
0
2
0
0
10
55
0
0
61
17
18
47
0
0
26
0
23
27
0
6
0
34
0
0
14
1
19
0
24
0
0
0
9
0
28
0
0
0
0
0
12
13
3
6
1
0
0
0
21
14
0
0
0
2
0
0
16
0
1
0
0
17
0
0
0
0
1
0
0
14
0
9
0
11
0
14
0
8
0
0
0
0
38
0
0
0
0
0
2
0
3
12
0
0
0
6
0
9
17
0
6
9
2
1
0
10
0
15
3
0
0
9
0
6
7
0
14
0
0
1
0
0
8
0
9
0
0
12
0
6
0
0
16
0
0
2
8
0
3
2
0
0
0
0
0
13
0
8
7
0
6
0
15
124
100
0
9
6
5
0
21
0
0
2
0
18
0
10
6
14
0
0
19
13
0
0
18
23
0
5
0
5
1
7
0
0
0
15
0
2
4
0
9
8
1
0
8
7
0
9
0
4
11
0
1
0
1
0
3
7
0
7
5
0
6
0
1
0
0
0
31
0
0
9
0
6
7
11
6
0
0
8
0
10
0
11
6
16
0
2
4
0
0
0
3
0
2
14
0
0
10
0
16
0
0
7
1
0
0
6
8
0
0
0
42
0
0
39
83
0
0
9
8
2
0
8
20
0
10
4
0
10
2
12
8
42
9
0
5
0
17
60
0
0
0
0
26
0
0
0
0
0
0
73
28
0
0
20
0
43
96
0
2
0
0
0
14
68
0
0
23
46
6
0
0
0
0
0
106
0
0
28
32
0
9
0
62
51
0
10
0
25
0
9
0
0
0
0
19
44
41
59
0
0
0
0
21
0
0
0
7
0
1
0
0
15
50
0
0
0
0
40
50
42
12
0
0
18
79
0
0
2
22
0
0
9
0
6
3
9
0
0
0
0
0
4
0
0
16
86
59
0
0
14
0
1
3
2
0
0
0
0
2
0
0
0
3
0
2
0
4
1
0
0
34
0
6
0
0
64
0
11
0
0
14
0
0
0
28
66
29
29
0
0
0
15
0
0
20
0
35
0
0
4
0
3
0
1
0
0
0
0
10
0
0
2
6
0
0
0
10
9
0
7
0
6
7
33
9
37
0
0
0
0
0
0
0
0
0
0
0
0
0
0
0
9
11
0
15
0
0
0
0
0
0
21
40
0
0
0
21
0
3
2
0
0
37
40
0
0
79
11
17
14
0
0
12
0
5
0
0
0
0
30
21
0
0
0
31
0
27
0
7
0
11
0
8
0
0
37
8
12
7
0
2
0
0
0
0
0
19
0
27
17
0
2
11
0
0
0
0
1
0
6
1
0
0
12
1
1
0
10
4
0
12
0
3
0
4
0
0
0
14
2
0
0
27
3
0
26
0
7
0
2
8
9
4
1
2
0
0
6
0
7
0
10
0
0
10
4
0
0
16
2
0
0
0
3
0
0
0
8
6
11
0
0
0
1
0
9
0
9
0
9
2
1
8
0
0
13
0
0
0
5
3
1
0
5
0
0
0
0
0
0
0
142
105
0
16
4
2
0
0
8
0
17
1
4
0
0
5
0
5
0
15
0
16
12
0
0
3
2
0
1
0
10
5
0
0
0
6
4
4
13
0
0
0
19
0
0
15
0
0
6
0
8
0
0
0
19
0
0
2
1
0
10
0
15
0
0
0
0
19
11
3
0
0
27
0
0
0
17
0
16
0
0
22
0
0
4
7
14
0
16
0
10
0
18
0
0
6
16
0
0
7
13
0
4
0
11
0
0
0
0
0
12
7
0
57
45
77
0
0
1
7
0
6
0
0
4
0
6
4
1
12
25
29
0
0
0
0
0
0
36
63
12
0
0
0
0
0
0
0
41
56
6
9
0
12
0
0
119
0
0
45
4
0
0
80
0
0
0
16
49
15
0
0
21
0
0
82
0
0
0
97
0
0
0
0
92
0
0
5
0
0
5
0
4
0
22
0
86
30
0
47
42
0
0
0
0
0
7
8
14
24
10
0
0
18
0
0
0
0
32
121
0
0
0
0
55
43
0
0
1
3
0
14
0
0
6
0
12
0
0
15
0
2
10
0
9
71
68
0
0
0
0
41
0
0
0
10
0
0
6
0
0
23
0
0
7
18
0
4
0
5
0
0
0
0
26
0
0
0
0
0
25
0
0
30
0
0
0
1
21
17
14
0
0
17
0
0
8
0
6
10
0
1
0
0
10
0
0
1
1
2
7
7
0
0
21
0
7
0
0
9
0
4
25
35
29
0
0
0
0
20
0
10
6
11
0
0
0
0
0
0
0
14
0
0
7
0
0
29
0
0
0
19
13
0
3
0
28
0
0
22
0
8
0
16
12
0
0
49
0
38
1
0
5
0
23
0
9
62
0
0
23
0
16
0
12
16
0
0
0
0
10
0
0
4
5
0
23
7
10
0
13
12
0
11
0
0
4
0
21
16
14
0
0
0
9
0
8
1
4
15
3
3
8
9
0
0
3
9
0
13
10
0
0
16
0
1
6
6
0
0
3
0
21
0
0
32
0
0
10
0
0
0
0
1
0
0
2
8
0
6
0
0
4
0
12
0
0
2
0
11
0
0
13
0
8
0
11
7
0
13
0
0
16
0
0
3
8
0
3
10
0
0
2
10
7
0
8
4
13
2
9
0
12
7
3
10
0
21
0
2
13
6
121
87
0
0
1
0
8
0
2
0
18
0
0
5
4
0
9
0
8
0
14
0
0
4
0
0
13
8
7
2
0
15
0
1
4
9
0
13
0
12
0
6
0
13
0
0
15
3
0
15
0
7
0
9
0
9
1
0
6
0
0
20
18
0
0
9
0
0
0
0
0
24
0
0
13
0
4
0
10
0
0
17
0
0
0
23
0
0
13
0
19
0
0
11
0
0
8
0
0
1
0
27
0
9
0
4
10
0
0
17
42
0
43
42
32
7
0
10
0
0
15
13
0
7
0
0
3
0
21
7
0
0
0
30
23
0
0
9
19
10
0
0
0
1
0
0
0
0
56
36
43
1
4
0
0
115
9
0
0
68
0
1
0
63
0
0
0
79
9
2
0
0
29
0
0
61
0
0
0
0
76
0
0
20
120
0
1
4
0
0
0
0
0
18
0
0
0
51
35
13
24
53
5
0
0
8
0
0
0
13
0
22
5
0
3
0
0
45
57
49
0
0
0
43
50
0
0
0
4
9
0
9
0
14
0
16
3
0
0
1
0
1
1
0
72
90
0
0
0
2
14
3
0
3
0
0
0
13
7
0
0
11
0
21
0
0
0
5
0
0
0
81
0
6
21
12
0
0
0
0
0
0
24
0
0
0
0
0
14
9
23
1
14
4
0
11
0
0
12
0
7
24
0
0
3
4
2
11
0
3
3
0
5
7
0
5
4
0
9
2
24
42
41
27
0
0
0
0
24
0
0
0
30
0
0
3
0
21
0
0
9
0
0
0
4
1
37
0
0
17
0
2
0
12
0
0
0
0
0
0
15
0
0
13
11
0
0
63
11
35
2
0
0
9
22
0
0
0
35
0
58
2
0
0
4
0
0
0
0
3
0
10
9
6
0
30
0
0
0
45
0
0
4
0
0
0
2
0
7
7
1
1
0
0
0
0
8
6
7
0
6
0
7
0
5
0
0
0
0
0
0
0
2
0
9
0
3
3
9
0
10
0
14
0
22
0
11
23
0
0
4
19
0
11
0
0
7
2
3
6
0
3
0
0
0
5
12
0
15
0
1
9
0
0
0
0
6
4
0
0
0
21
0
15
0
0
3
10
0
0
0
0
0
0
2
0
0
14
0
0
8
0
6
0
0
0
0
4
6
0
3
3
140
87
0
0
0
9
0
0
0
0
0
0
9
1
0
0
0
8
0
22
0
14
1
0
0
0
0
0
0
14
0
0
0
7
4
0
0
1
21
0
6
0
7
0
2
0
0
0
0
0
3
0
0
1
5
0
6
0
0
6
7
0
0
6
14
0
0
6
0
19
1
0
2
4
0
2
7
2
0
4
0
6
0
7
0
0
0
15
0
0
0
0
2
0
5
0
0
13
3
1
12
0
0
1
8
0
0
0
50
92
29
0
40
13
66
0
0
20
2
0
0
0
13
0
7
7
27
14
13
0
0
48
16
0
0
0
21
63
0
0
0
0
0
0
0
0
90
73
2
16
0
0
0
0
125
1
0
0
0
44
9
0
29
8
0
0
49
59
9
26
0
0
0
12
6
39
0
0
0
0
43
84
0
7
106
0
0
1
27
20
4
0
18
0
12
0
0
0
63
42
7
45
55
44
0
0
0
0
13
0
0
0
12
0
0
0
17
29
110
0
0
0
22
60
19
0
6
1
0
0
0
11
0
8
5
10
11
0
9
0
0
14
0
66
84
0
0
6
15
0
0
29
0
0
0
18
0
0
0
0
26
0
4
0
0
0
5
3
0
0
0
0
0
40
48
0
47
0
0
0
0
0
0
14
0
0
0
0
20
0
7
10
0
1
0
0
0
8
0
6
0
0
0
9
0
0
0
0
9
9
9
0
0
0
4
0
0
8
7
11
29
48
0
0
0
15
0
0
0
14
1
0
0
0
0
20
55
22
0
14
0
0
0
0
0
10
0
0
12
0
0
15
0
0
0
21
6
17
0
0
8
5
0
34
50
0
0
68
0
44
26
38
0
0
0
0
0
32
0
0
3
7
0
0
0
0
4
0
0
7
0
0
0
0
4
0
26
4
22
0
0
16
0
0
0
0
0
23
8
11
0
0
19
8
0
0
0
0
9
1
0
2
0
0
8
0
15
0
0
17
0
4
0
0
0
2
4
0
14
0
0
12
0
12
0
3
0
6
14
10
0
0
3
0
1
5
9
6
0
8
7
4
4
0
2
11
0
0
0
17
0
0
17
6
0
28
0
3
0
0
0
7
0
0
0
4
1
3
3
3
9
0
5
0
1
13
0
9
3
11
0
11
0
0
9
6
10
0
12
0
0
0
125
109
9
19
0
0
10
2
10
12
0
16
8
0
3
0
15
0
0
11
0
31
0
0
3
0
1
0
18
0
34
0
0
0
0
0
7
2
0
3
11
0
8
0
0
1
0
3
10
1
1
5
0
5
2
1
5
0
5
8
0
0
7
0
0
3
0
0
5
7
0
0
0
8
0
0
4
0
36
7
0
0
13
0
0
25
0
1
2
0
14
0
1
24
0
0
0
16
0
0
0
33
0
0
0
3
0
0
112
22
0
0
37
45
35
0
0
4
14
0
9
1
0
11
3
14
10
0
0
28
27
0
0
29
0
71
63
0
0
4
0
11
0
0
0
16
123
29
45
0
0
0
0
115
39
0
0
7
0
0
31
0
22
0
0
0
74
56
17
0
0
0
0
14
0
34
37
0
15
0
0
17
0
0
139
0
0
8
0
0
8
2
0
0
0
0
0
0
0
63
36
0
50
0
120
87
0
0
0
3
0
12
0
0
0
0
60
60
0
0
0
0
64
49
0
16
0
7
11
0
9
0
0
5
0
5
0
16
4
0
0
0
66
97
0
0
0
13
0
25
28
5
0
9
11
0
0
0
0
0
0
0
11
0
20
0
14
0
62
0
0
23
45
15
54
46
26
22
0
4
0
0
0
0
0
0
0
0
0
4
16
16
0
0
2
12
0
4
4
0
18
0
9
2
10
0
11
0
0
0
0
0
19
0
5
9
0
6
8
31
48
0
0
0
0
7
0
1
0
0
20
0
5
68
1
0
115
19
22
3
27
0
0
0
0
0
2
9
3
0
10
0
16
0
0
0
11
0
3
9
0
13
0
51
0
0
0
75
0
35
2
27
0
0
62
0
5
3
0
0
30
34
0
6
0
4
0
0
17
0
0
9
0
8
0
1
0
14
0
0
6
9
0
7
0
0
15
8
3
17
0
14
0
0
0
24
12
0
5
0
20
0
0
5
0
0
1
7
0
4
1
7
1
3
0
0
0
5
0
3
8
0
3
3
10
0
1
0
8
0
0
2
0
2
8
5
1
0
8
0
0
2
0
3
1
0
9
4
0
6
0
0
0
0
0
0
9
13
0
10
0
0
5
0
2
3
3
0
0
11
0
14
0
16
0
0
4
0
1
0
0
8
0
9
4
0
18
0
0
26
0
0
153
90
0
0
0
0
9
0
0
0
0
3
1
0
0
0
0
0
11
0
7
0
13
38
0
0
9
0
0
1
0
0
24
0
0
9
0
0
11
0
5
0
0
0
13
0
0
4
0
0
8
0
0
5
0
4
0
12
0
2
0
14
2
6
2
3
2
21
0
0
16
0
2
0
0
7
0
10
0
0
8
0
12
0
3
0
0
17
0
7
0
3
16
0
0
15
10
0
11
8
0
0
0
4
7
0
0
0
86
10
0
0
46
20
0
0
0
6
0
3
7
1
0
0
12
9
9
0
0
18
1
11
23
0
16
53
0
4
0
0
18
2
0
0
18
111
12
35
0
0
0
0
82
97
0
0
2
0
0
0
0
10
31
3
1
0
19
33
0
16
2
16
0
0
0
30
19
0
0
0
0
0
0
0
77
26
0
12
0
15
10
9
0
26
14
0
0
0
0
0
0
0
0
0
0
29
88
0
0
3
0
0
0
0
0
30
37
80
0
0
0
43
63
0
0
0
0
5
14
0
1
7
0
18
17
0
7
0
1
5
2
37
92
0
0
1
26
19
8
5
3
0
0
0
0
10
0
0
37
14
0
0
7
5
0
0
0
0
93
43
0
14
24
48
33
27
10
9
11
73
0
0
0
0
16
25
5
0
0
24
1
14
0
0
0
0
0
20
0
19
0
22
0
0
0
0
0
10
0
0
7
0
0
0
8
8
0
15
22
58
0
0
0
0
0
0
0
15
0
0
0
0
2
117
66
0
104
18
10
21
0
1
0
0
1
0
0
8
9
2
3
12
1
0
22
0
0
10
5
0
0
0
0
49
0
0
0
53
2
40
10
38
0
0
31
0
0
0
0
0
44
0
0
0
36
4
0
5
0
0
20
0
13
0
0
17
0
0
0
0
0
0
0
0
0
22
4
0
20
0
17
0
0
0
0
0
0
0
9
4
0
3
0
11
0
1
0
3
0
14
0
6
0
0
5
6
12
0
13
0
1
0
2
0
0
9
0
0
0
0
11
3
0
16
0
0
2
0
7
0
4
0
5
0
0
0
0
0
18
0
11
4
0
16
3
4
2
5
1
0
0
1
3
8
1
0
8
0
0
2
1
0
13
0
6
5
0
0
0
17
0
0
0
0
5
3
0
0
15
0
11
9
108
95
0
6
19
30
0
0
0
16
0
0
12
0
0
21
0
6
0
12
0
2
0
0
6
0
0
5
0
0
8
4
0
0
18
0
0
9
0
2
1
0
19
0
0
5
15
0
6
0
0
10
7
0
0
3
0
0
12
0
19
0
0
0
14
1
0
0
1
12
0
0
0
8
8
0
0
0
12
18
0
23
0
0
3
15
0
0
11
0
16
16
0
0
10
0
8
0
0
0
3
6
4
0
7
1
0
0
94
16
0
37
30
0
0
0
2
0
0
1
0
16
0
6
0
29
12
0
0
18
0
66
27
0
0
2
3
0
0
10
13
0
0
1
108
11
0
0
0
0
0
58
104
0
0
0
0
21
0
4
9
46
24
0
0
0
15
41
0
0
0
0
0
106
0
0
10
0
0
38
1
0
0
0
71
73
0
0
20
0
3
0
1
0
0
26
2
0
0
0
0
0
0
0
7
11
0
9
56
0
0
0
0
0
0
55
83
0
0
0
3
69
14
0
14
0
0
13
0
0
6
0
3
17
0
6
1
0
17
0
46
104
0
0
0
19
6
6
6
0
0
18
0
0
0
0
4
20
17
27
0
6
25
35
0
0
0
0
0
40
0
0
0
45
43
5
11
3
30
62
0
4
0
0
0
77
39
0
0
2
29
1
0
12
2
1
0
14
0
0
4
0
32
0
0
5
9
0
0
6
0
7
10
0
6
0
5
20
56
0
0
0
0
0
0
24
0
0
0
0
27
0
0
111
95
0
44
52
0
6
11
10
0
9
0
0
1
0
0
0
0
4
0
0
0
9
3
0
3
0
0
25
20
10
39
0
0
63
10
22
16
0
0
39
0
92
0
0
36
0
84
0
0
12
0
0
11
0
3
4
0
0
0
13
34
0
30
1
0
8
4
0
0
0
0
0
10
15
9
4
14
0
18
0
10
0
5
0
2
0
9
7
2
0
5
0
10
0
11
0
19
0
0
12
7
0
1
3
0
0
10
5
0
4
0
0
23
0
9
0
0
0
2
4
3
0
7
0
0
4
4
0
8
0
12
3
8
2
0
0
0
0
4
0
0
1
1
0
9
0
22
0
0
0
8
8
0
0
0
0
7
0
0
4
0
0
0
5
0
7
9
3
0
8
13
0
23
0
11
0
0
2
131
96
0
0
0
0
29
0
0
11
0
7
0
0
0
1
0
0
0
0
0
0
7
7
0
0
3
0
0
18
0
13
0
0
3
1
6
0
2
5
6
0
11
11
7
0
0
0
6
0
13
0
9
1
15
7
9
0
0
14
0
8
0
11
0
0
21
0
0
3
8
3
8
8
0
21
12
5
0
14
0
0
10
0
0
4
0
0
17
2
0
0
0
10
0
13
0
6
0
2
0
3
0
0
11
13
0
0
15
50
7
36
50
16
9
0
0
0
9
0
20
0
0
3
0
18
11
0
10
34
48
64
0
0
72
92
0
20
0
0
27
0
3
86
11
0
0
0
0
0
11
105
0
0
0
0
0
0
0
48
0
59
43
0
1
0
72
42
0
2
15
0
0
0
0
0
0
0
0
31
0
12
0
0
11
128
0
0
21
19
0
0
7
0
10
2
4
0
33
0
18
0
6
0
0
6
0
0
0
0
79
59
0
0
34
52
35
0
0
0
74
41
0
0
8
29
0
6
11
2
0
0
21
12
5
0
0
13
0
28
89
0
0
2
16
0
0
0
0
6
5
8
0
3
15
0
0
18
25
19
0
0
54
25
25
0
0
0
0
104
1
0
0
18
44
6
0
0
6
17
21
28
0
0
0
0
89
21
0
0
20
12
0
0
0
0
51
0
2
8
8
0
10
0
0
6
0
11
0
3
3
0
11
16
7
3
9
43
0
0
0
0
0
0
30
0
0
0
1
0
7
0
0
0
42
0
24
51
5
36
17
0
0
0
6
4
0
81
0
3
0
34
2
8
0
0
29
0
0
0
0
0
0
84
0
0
0
54
22
9
11
19
0
0
0
30
0
0
0
0
22
0
10
0
6
0
0
5
0
0
24
42
0
0
0
1
15
0
0
0
0
0
0
8
0
22
0
14
0
5
0
24
0
9
0
22
0
23
0
0
9
0
14
0
0
3
5
1
1
0
0
6
0
0
0
8
0
0
0
0
15
0
21
0
4
2
0
6
0
0
0
14
4
0
0
0
0
9
3
0
13
0
0
17
0
0
0
9
0
5
5
2
0
0
3
0
0
0
0
0
0
7
3
0
0
9
0
0
14
0
8
10
0
5
1
5
16
0
7
0
0
1
4
6
0
6
9
0
0
0
0
0
117
109
9
2
0
0
0
0
20
0
2
0
18
0
26
0
0
13
0
0
12
0
3
0
0
0
0
12
0
4
0
18
0
5
0
0
2
0
1
2
0
8
7
0
4
0
6
12
0
12
0
20
0
0
0
26
0
0
6
16
0
5
0
4
12
0
0
0
0
0
0
0
3
0
2
0
0
14
12
0
15
0
4
0
10
0
9
9
0
0
6
1
0
22
3
6
5
0
12
6
0
0
0
15
19
0
0
0
2
59
0
0
80
87
85
9
0
0
0
0
0
29
0
0
0
39
0
0
87
57
73
18
0
0
0
0
0
0
0
0
0
76
39
13
0
0
0
0
0
33
68
0
0
18
0
0
28
0
12
0
0
102
0
0
60
0
55
34
0
0
17
3
6
0
1
17
0
0
34
0
26
0
0
0
0
116
0
0
47
0
27
0
0
0
21
0
2
26
6
0
0
2
0
29
31
0
0
0
2
3
0
40
0
17
45
108
0
0
0
27
75
20
0
0
34
0
8
30
0
12
0
17
0
3
0
0
22
0
10
87
0
0
5
23
0
10
0
30
0
0
0
0
15
0
0
21
0
9
38
31
0
0
66
33
16
0
0
0
34
84
1
0
0
60
34
0
0
9
3
7
21
39
6
0
0
0
49
26
0
0
11
20
0
0
0
0
0
0
2
6
0
0
0
0
0
1
0
0
6
0
2
0
0
4
5
10
24
47
0
0
0
0
29
0
0
35
10
0
0
0
10
32
0
11
0
0
44
40
0
15
14
0
0
13
1
0
5
16
0
0
3
0
0
20
0
17
0
0
89
61
0
8
0
69
0
0
0
39
39
13
20
1
24
0
0
40
3
0
0
36
33
0
0
23
0
10
0
12
0
4
0
0
0
11
0
2
0
9
0
2
0
14
0
0
0
15
0
28
0
13
7
0
21
0
0
1
0
0
9
0
5
0
0
6
1
0
4
0
8
17
0
7
0
0
4
0
10
0
20
0
0
1
4
0
0
0
1
0
0
5
1
0
0
7
0
5
0
2
0
12
0
0
4
6
0
12
7
0
2
13
0
0
27
0
0
5
0
0
12
0
8
2
0
0
4
0
10
0
4
0
2
0
0
0
11
0
1
0
6
0
8
15
0
0
4
0
0
14
0
0
0
0
145
95
0
2
0
0
33
0
0
12
14
0
26
0
0
4
1
1
0
0
3
3
9
0
14
0
0
0
0
8
0
10
0
0
15
0
5
18
0
3
8
1
0
0
0
5
0
3
0
0
10
0
15
3
0
3
0
8
0
0
2
3
2
3
0
12
12
0
0
0
0
0
6
11
0
18
16
0
28
4
3
4
0
6
0
5
0
0
21
10
0
0
1
17
0
0
0
8
3
0
2
2
17
17
0
0
0
0
88
87
0
0
0
0
46
58
41
0
1
0
0
0
0
8
23
18
77
0
28
60
0
0
0
0
0
13
0
0
0
0
105
61
0
18
0
0
0
0
35
62
0
0
0
29
41
0
0
2
0
0
4
43
0
0
0
0
91
14
0
0
0
5
0
0
2
0
19
0
25
3
0
1
5
0
0
59
74
0
13
0
0
7
3
0
6
2
0
0
21
0
1
0
4
0
0
2
0
2
0
0
0
0
0
0
57
0
0
0
25
68
45
0
2
0
0
0
0
0
0
2
2
10
0
9
1
0
0
4
98
0
0
0
0
24
0
4
0
0
5
16
0
0
0
0
0
22
0
0
31
34
22
0
0
22
53
1
11
49
2
0
0
0
0
69
15
0
1
10
0
13
19
26
20
0
0
0
13
44
0
0
0
14
2
0
0
10
6
0
0
0
0
11
0
0
3
0
5
0
1
4
0
0
9
3
1
0
24
1
0
0
0
31
26
0
0
46
40
18
9
0
16
74
2
4
0
0
62
25
0
5
9
26
0
0
11
0
0
0
0
4
3
1
7
0
26
0
5
16
0
0
1
0
0
77
0
0
0
26
32
2
35
0
39
0
0
34
15
6
0
31
26
0
0
38
11
0
0
0
2
10
0
5
0
0
0
2
12
2
25
0
24
0
0
0
12
0
7
0
13
0
6
0
0
0
4
1
7
4
11
9
0
15
4
0
8
0
4
8
0
6
0
2
10
9
0
0
0
11
0
0
0
0
0
0
15
0
11
0
0
6
0
6
0
0
2
0
0
4
0
4
0
2
1
0
15
0
0
0
1
0
15
0
0
0
19
0
23
0
3
0
0
0
7
10
0
0
0
6
0
5
0
5
0
0
6
0
4
3
0
1
5
0
2
5
0
6
0
2
2
8
0
0
165
96
0
0
0
15
0
0
0
6
1
8
0
16
5
0
0
6
0
0
28
0
0
0
9
0
0
0
6
0
5
7
0
9
0
7
0
0
2
0
8
0
19
0
15
0
18
2
0
13
0
0
0
12
2
0
7
0
5
11
0
8
0
1
9
0
0
0
6
20
1
0
18
0
17
0
13
10
4
0
0
14
11
0
0
23
0
14
5
0
0
24
6
0
2
0
0
0
3
8
12
42
11
0
0
0
0
0
9
124
49
0
0
0
0
0
65
44
14
0
0
0
6
18
35
4
1
0
0
0
0
0
11
0
0
0
0
0
0
23
56
21
7
0
2
0
0
45
48
0
11
0
0
5
65
0
0
0
0
0
45
36
0
0
0
21
90
8
0
0
0
0
1
29
0
0
0
0
26
0
0
0
0
0
0
10
93
0
0
0
16
0
31
0
0
23
0
0
40
0
0
16
0
15
5
0
0
21
0
0
0
0
0
32
24
0
0
12
0
50
0
0
0
0
0
0
0
0
0
8
1
3
8
2
0
4
0
78
4
0
15
0
14
1
12
6
15
0
0
10
5
16
0
0
0
22
31
0
0
50
21
0
0
0
14
39
46
4
25
0
0
0
48
39
12
4
8
9
0
11
28
10
20
2
0
0
0
36
13
0
0
0
0
0
7
0
2
0
8
0
5
0
0
5
2
25
0
0
20
0
1
3
9
8
0
12
28
7
0
0
14
24
36
15
0
26
18
18
11
0
0
0
35
0
0
6
59
2
8
3
28
0
3
0
17
0
0
0
3
0
0
6
10
0
0
41
0
0
17
4
0
0
0
93
0
0
0
2
69
0
37
0
31
0
0
32
12
0
0
0
47
0
9
0
27
0
19
0
0
8
0
2
9
15
0
0
4
0
0
0
0
0
0
9
1
18
13
10
0
5
3
0
0
0
9
0
0
2
0
0
0
0
0
9
0
0
7
7
5
0
2
0
0
20
0
21
0
0
8
7
0
0
4
3
0
4
0
6
17
0
10
0
16
0
0
2
0
12
8
0
0
15
0
0
0
0
16
5
0
5
0
11
0
4
1
0
10
0
8
0
11
1
0
0
4
0
7
12
13
6
0
18
8
6
1
14
0
9
0
20
0
0
0
0
0
0
9
0
4
0
2
21
151
114
18
0
7
0
0
0
0
1
0
4
12
24
0
0
7
1
6
0
0
0
4
3
1
0
0
0
0
0
15
2
0
11
1
0
10
0
1
0
1
10
0
1
0
0
0
0
9
0
0
14
0
0
0
15
9
0
3
0
0
0
25
0
6
0
0
4
0
0
23
0
10
0
7
0
2
0
0
0
4
0
0
11
12
0
0
0
10
11
21
0
8
16
0
19
0
0
52
39
6
0
8
0
8
5
0
0
0
60
94
0
0
24
0
0
0
41
0
25
5
0
10
59
15
0
0
0
0
0
0
25
0
0
0
10
0
0
52
33
0
0
0
0
0
0
27
0
29
0
51
0
0
0
59
0
0
0
0
0
42
45
28
5
0
29
66
13
0
0
0
38
0
0
15
0
0
10
40
0
12
0
16
0
0
0
99
10
0
0
18
0
17
0
8
0
0
23
0
0
0
22
12
0
2
16
0
12
0
0
0
0
59
80
0
0
0
0
30
0
0
0
6
12
0
42
0
14
16
0
4
2
0
0
0
14
74
2
0
0
9
3
15
6
13
6
0
7
31
0
0
24
9
0
0
0
0
6
0
0
41
30
9
0
0
0
0
0
0
0
0
34
49
18
0
7
0
12
0
5
2
9
19
0
3
0
0
31
15
13
0
9
0
3
18
0
0
5
13
0
3
1
0
0
0
0
0
0
0
0
11
12
0
6
5
29
38
0
0
4
0
21
26
16
0
0
0
52
19
12
40
0
0
0
0
51
26
0
0
5
4
1
0
0
13
0
17
32
0
11
0
3
0
0
12
0
0
15
0
0
0
0
24
74
0
0
0
0
86
0
51
0
18
0
0
31
0
0
0
18
3
0
0
0
0
0
0
53
30
0
11
0
0
16
11
0
6
0
18
0
3
3
0
16
0
11
12
9
2
0
0
0
0
0
6
0
10
0
0
11
1
5
0
7
0
10
0
0
9
0
7
0
0
0
0
0
22
13
0
0
1
9
0
0
0
0
3
1
0
0
0
18
1
0
0
0
2
0
1
10
0
3
14
15
1
0
0
0
8
0
2
0
11
0
25
0
3
0
5
15
1
0
0
1
10
3
0
0
0
0
21
0
10
0
0
5
0
5
0
2
0
0
0
0
0
0
3
0
2
7
1
0
184
98
0
0
0
0
15
0
0
2
17
0
0
0
11
0
0
2
17
0
29
0
0
2
0
0
3
17
0
6
0
14
2
0
1
4
0
1
6
0
7
0
10
0
5
0
0
6
4
0
11
0
15
0
4
0
0
0
16
0
4
9
0
3
0
0
4
2
4
9
0
7
0
9
9
0
0
22
1
1
0
2
5
0
0
0
11
0
0
0
17
1
0
0
16
0
21
71
40
0
0
0
0
13
0
0
0
0
0
7
60
0
0
78
70
24
0
0
2
50
27
44
96
24
0
21
0
15
0
17
0
0
12
0
0
5
0
24
35
32
0
0
0
8
20
17
0
0
40
0
0
0
0
0
0
37
0
37
4
0
91
0
0
0
0
1
41
32
0
5
0
0
0
38
0
1
7
1
22
23
0
18
0
7
0
2
12
0
0
0
0
21
0
3
8
0
8
0
15
29
0
0
0
0
0
0
11
12
5
2
0
28
87
27
0
0
0
58
69
0
0
25
12
14
2
6
0
3
3
5
14
0
5
2
8
72
32
0
0
13
3
9
0
8
8
12
8
0
8
4
12
15
0
0
0
0
0
19
21
0
0
13
16
3
5
0
0
0
0
22
24
35
21
0
0
0
2
0
0
0
26
0
0
0
14
0
0
0
20
1
0
0
0
16
16
0
0
5
0
22
0
18
0
10
3
4
10
5
0
3
9
2
6
9
6
12
25
0
0
29
1
5
28
69
0
0
0
0
14
2
0
0
0
0
43
38
15
14
4
16
1
1
0
0
0
0
0
0
0
3
15
0
14
0
1
10
2
0
0
0
0
0
7
53
0
0
0
0
75
0
46
0
21
0
0
17
15
19
0
26
14
0
15
4
13
13
0
0
0
24
4
8
0
25
0
0
0
0
0
1
0
0
0
24
4
0
15
19
0
8
15
0
11
0
0
5
0
15
4
0
5
0
4
3
0
3
0
11
6
0
0
12
6
1
2
10
0
0
6
0
12
0
3
0
13
0
0
5
0
0
10
0
0
6
10
0
0
0
0
0
5
0
0
0
0
3
5
0
12
0
10
0
17
0
0
4
0
6
0
2
10
0
0
9
0
13
0
0
0
13
0
9
0
0
14
0
7
3
3
0
3
0
2
0
0
10
0
0
2
0
3
1
180
101
0
16
11
0
0
0
10
0
0
7
1
16
0
12
0
1
0
8
0
2
0
4
7
0
0
2
0
14
10
0
6
0
9
5
0
0
0
9
0
6
8
0
9
6
0
0
1
0
4
1
2
1
0
3
19
0
11
13
0
13
0
0
7
14
0
6
0
0
17
0
0
7
0
10
0
1
16
0
15
0
5
10
0
24
0
0
11
0
21
0
4
12
33
20
42
70
0
0
0
1
0
0
0
0
0
0
25
0
80
0
0
8
44
0
0
2
47
29
52
127
80
0
0
32
0
0
0
21
0
0
0
0
4
0
26
44
0
0
0
52
33
82
30
0
0
5
25
32
0
0
28
13
0
47
23
43
0
0
53
0
17
0
0
0
36
57
0
0
0
0
15
5
0
12
0
47
0
0
50
0
23
0
12
6
0
2
0
0
0
31
0
0
0
0
0
5
0
15
0
0
23
28
0
4
0
0
22
0
0
41
92
0
0
0
36
70
0
0
0
9
21
0
0
1
7
0
3
8
0
17
0
13
77
25
0
0
4
2
15
0
0
9
0
0
26
0
34
19
0
8
0
0
0
0
0
5
35
20
0
0
32
4
0
0
0
3
23
20
39
23
0
3
6
6
7
7
6
37
9
0
0
15
0
78
0
0
0
32
13
0
0
17
0
16
2
0
3
0
0
0
1
0
5
0
1
0
9
12
0
14
0
9
0
24
19
0
0
0
3
30
9
48
43
0
13
0
0
0
0
0
1
24
51
3
0
0
17
23
0
6
0
0
8
8
10
0
0
0
0
0
15
15
9
0
0
23
15
0
0
0
24
35
0
0
0
0
38
0
35
1
27
8
0
7
20
2
0
52
0
28
0
5
0
3
10
4
24
0
7
0
0
1
1
13
6
7
13
0
5
0
46
0
18
10
0
0
7
0
15
0
0
0
12
16
0
0
0
4
0
0
0
3
1
11
0
0
4
2
9
0
0
0
0
2
4
7
1
0
0
19
0
16
0
13
0
2
3
22
0
10
4
0
0
14
3
4
0
14
0
17
19
4
3
0
0
6
6
14
0
12
0
17
0
1
0
3
0
0
0
0
11
0
0
2
0
5
0
0
0
0
0
1
1
0
0
0
3
0
14
0
10
0
4
8
0
0
12
0
0
10
184
95
0
6
0
1
19
6
0
7
1
0
5
0
7
17
0
11
11
3
2
0
14
0
0
8
0
5
0
0
0
0
2
12
2
0
4
5
3
2
0
0
0
10
0
0
10
0
0
0
9
0
0
6
18
0
0
0
0
0
0
14
0
0
4
0
13
0
0
24
0
20
15
0
4
17
1
0
0
13
0
0
23
0
15
0
0
9
7
11
0
0
8
41
0
0
0
10
0
0
0
87
43
0
0
0
30
12
25
26
29
30
0
0
0
0
56
69
63
101
119
0
0
0
9
82
0
0
1
0
0
3
0
0
0
0
10
3
32
11
29
1
30
0
0
0
0
0
19
13
29
27
20
5
22
1
12
0
0
9
54
0
79
0
0
0
66
14
0
7
0
14
39
0
0
0
0
35
5
5
0
0
0
0
0
19
10
0
0
3
32
17
0
0
40
5
0
0
0
32
0
0
6
0
4
0
0
71
0
0
67
80
0
0
0
0
74
53
0
0
0
10
0
18
0
2
10
2
0
2
3
0
10
74
5
0
0
0
32
4
0
0
1
3
0
8
10
0
4
0
4
26
0
8
0
2
5
0
0
33
4
13
18
36
0
13
13
19
7
52
14
15
11
7
9
9
22
24
31
6
0
0
0
5
47
17
0
0
2
9
4
7
7
0
0
0
0
23
0
2
0
12
0
15
0
5
5
0
0
14
1
7
12
1
7
22
0
0
0
0
0
0
10
0
22
22
8
18
0
0
49
19
23
41
21
10
0
26
12
20
11
1
5
23
0
0
0
24
0
0
0
10
0
0
14
6
0
0
18
1
7
0
57
30
0
0
0
0
53
3
56
0
0
0
0
0
60
0
43
0
15
23
0
0
0
4
13
0
11
0
0
3
15
2
6
15
0
0
18
4
0
0
0
0
10
12
17
0
5
0
0
13
0
4
0
0
15
0
4
0
7
12
0
5
0
6
0
0
1
0
0
12
0
6
0
2
0
0
3
0
0
15
23
0
6
0
0
1
3
0
0
11
0
11
2
0
4
0
5
4
5
0
0
0
1
0
19
0
6
0
9
8
0
0
5
9
0
2
0
10
0
12
0
0
24
0
0
14
12
0
0
0
15
0
1
0
0
0
0
2
4
2
7
0
0
1
10
0
5
2
2
0
188
95
0
0
3
1
1
0
8
0
0
15
0
13
0
0
14
2
0
0
16
0
0
0
0
4
0
9
0
11
23
0
11
0
0
8
0
3
0
7
1
0
0
0
1
3
0
0
8
4
0
2
0
3
0
0
13
0
19
0
10
0
4
11
0
1
0
0
0
0
4
0
0
10
3
0
6
3
0
2
3
0
0
9
0
0
12
0
0
0
0
14
47
0
0
0
0
0
0
5
0
0
74
4
5
7
45
9
6
8
11
31
0
0
0
57
97
56
83
0
0
0
0
4
0
111
29
0
0
0
0
0
0
0
0
53
41
51
21
18
50
0
0
13
0
0
0
0
85
0
0
17
29
0
0
0
42
0
0
0
77
0
77
0
0
0
91
6
0
7
0
52
0
0
0
0
0
32
0
0
0
0
3
18
20
0
1
0
0
25
15
1
20
0
0
1
0
75
16
0
40
11
0
13
6
0
34
0
0
27
31
84
0
0
0
28
64
28
0
12
0
0
0
4
0
9
1
7
4
1
1
0
77
2
0
0
32
5
0
0
4
4
9
2
0
7
4
14
2
1
6
15
7
8
9
10
0
29
0
0
13
8
27
14
33
27
41
14
0
7
3
0
21
0
8
14
12
0
0
0
11
0
0
0
0
0
0
0
13
0
21
0
12
3
0
6
0
0
2
0
17
0
0
6
7
0
20
0
15
0
0
14
0
18
0
28
0
0
0
0
0
0
0
0
0
23
9
0
13
8
16
25
14
13
28
20
12
21
0
0
0
13
23
0
0
0
19
0
12
0
11
0
13
14
0
0
3
0
0
2
0
0
40
27
0
14
0
0
59
0
36
32
0
7
0
13
16
0
46
0
0
0
0
0
0
3
0
11
0
2
0
7
0
5
0
7
0
0
0
4
0
5
0
26
11
0
0
0
3
2
0
5
2
17
0
0
6
0
1
0
0
0
13
0
0
3
0
10
0
5
0
3
10
0
4
4
13
8
0
5
0
0
4
9
0
0
14
0
9
0
2
0
8
0
0
8
3
4
2
0
1
0
3
1
0
19
0
0
0
8
0
0
1
0
4
14
0
15
0
0
0
5
1
0
11
0
0
0
4
0
4
9
7
0
0
0
0
20
7
8
5
0
0
6
10
0
0
0
9
0
5
0
200
106
3
5
6
4
8
0
0
11
0
0
0
2
25
0
0
10
2
15
0
38
0
0
3
6
0
5
0
5
2
12
0
0
22
0
0
4
0
0
0
8
9
5
0
0
12
0
0
6
4
0
5
0
15
0
0
5
0
11
0
0
16
15
0
0
11
2
8
0
19
0
0
0
0
3
9
17
0
0
11
11
0
0
17
0
1
0
30
0
0
137
0
0
4
1
0
0
0
0
0
0
20
21
10
42
25
21
0
0
10
63
77
0
73
40
0
30
0
0
0
0
17
0
0
3
52
0
0
0
0
0
36
58
74
75
84
0
0
100
0
0
0
24
0
0
0
0
102
0
0
24
10
0
11
0
0
63
0
0
53
10
48
0
0
11
90
0
19
50
0
3
0
6
103
0
28
0
0
0
0
18
0
0
0
13
5
7
0
0
13
0
0
45
0
9
0
0
19
6
0
0
37
0
0
0
0
0
0
21
115
0
0
0
11
44
52
0
0
0
0
15
4
1
0
10
0
6
0
0
15
86
22
0
0
5
11
0
0
0
2
14
0
2
0
0
19
7
2
4
5
3
0
15
18
0
0
12
0
5
19
0
0
0
13
0
35
27
26
0
0
25
0
9
2
8
0
14
19
48
47
32
0
0
0
8
0
5
10
1
6
0
0
0
15
0
0
10
11
0
0
0
0
3
6
0
0
0
0
0
0
6
6
0
9
15
0
2
17
0
0
0
0
0
0
0
29
10
17
42
5
0
5
0
0
0
0
0
26
15
7
0
0
0
0
0
18
0
0
0
0
18
0
0
0
2
0
66
0
0
14
0
46
38
0
0
0
0
66
0
38
32
8
0
0
0
13
0
75
0
0
24
4
68
0
0
0
0
48
0
0
16
2
17
0
7
33
5
0
1
0
0
1
1
13
6
22
0
13
0
0
14
0
0
20
0
8
0
1
0
8
0
2
15
0
19
0
0
18
0
17
0
3
9
0
14
0
0
0
3
9
0
10
0
39
0
1
5
5
0
2
0
0
13
6
6
0
0
0
11
7
0
0
3
4
0
0
6
1
0
11
0
11
1
0
0
14
0
0
26
1
0
0
9
0
2
21
0
0
13
7
0
0
0
1
0
9
0
0
0
2
3
0
8
5
2
2
1
0
0
9
0
193
113
10
0
0
0
0
11
0
0
7
23
0
0
0
1
8
1
0
0
0
1
0
0
0
2
0
0
1
0
0
6
0
3
0
0
0
10
6
3
0
15
0
2
0
4
0
13
0
0
5
0
2
0
1
10
0
0
4
7
0
1
9
0
0
11
0
0
0
0
0
0
7
12
5
3
0
0
7
8
4
0
9
8
0
0
2
6
0
0
23
160
0
0
20
0
0
0
0
0
0
4
18
27
0
0
0
18
38
14
0
0
0
0
58
62
45
0
0
0
0
0
0
0
0
0
72
0
0
36
55
60
89
100
30
0
0
0
20
42
0
0
14
0
9
0
0
25
114
0
0
68
0
0
0
38
9
0
34
0
13
64
18
0
7
0
106
0
23
61
0
0
0
88
17
0
4
1
20
11
0
0
0
15
0
28
0
0
0
0
0
0
0
0
15
0
45
0
44
0
0
0
0
8
4
4
0
0
44
82
19
0
0
0
54
52
7
0
1
0
8
0
0
0
0
4
10
8
0
1
85
0
0
0
2
19
0
17
10
0
0
20
0
17
0
0
19
0
0
0
0
4
7
5
9
0
0
6
9
17
27
0
6
0
20
0
0
0
0
0
8
13
11
0
55
39
0
29
0
0
7
0
6
8
26
43
21
13
8
1
0
11
0
23
0
2
25
0
0
0
2
8
5
5
3
0
0
8
7
0
8
8
0
16
0
7
0
16
39
33
23
61
8
0
0
3
16
7
0
0
21
29
33
47
51
19
61
41
0
14
0
0
0
0
0
47
10
0
15
0
0
0
25
10
15
0
0
55
0
6
0
0
32
8
0
0
0
0
51
0
30
34
0
31
0
0
0
0
40
0
0
27
20
0
0
10
10
0
0
0
0
0
0
6
8
8
0
0
15
0
203
0
9
0
5
24
0
0
7
0
2
0
0
12
0
0
0
0
0
2
4
0
8
0
16
0
0
6
3
8
0
3
0
8
3
0
17
1
0
0
0
0
16
55
0
0
1
0
7
0
17
12
0
9
0
0
0
14
5
3
0
4
11
0
10
0
9
4
8
8
0
6
0
0
0
17
0
8
0
0
1
0
0
10
16
0
7
0
8
0
0
0
15
0
0
16
0
3
11
0
8
0
5
2
0
0
9
0
0
13
0
3
193
102
0
1
12
0
9
1
0
27
23
0
0
0
8
0
0
6
0
9
0
0
0
8
27
0
1
0
5
0
32
1
5
0
1
17
0
0
2
0
0
0
7
0
7
0
7
0
1
0
0
16
0
16
0
14
3
0
10
0
0
2
9
10
0
0
0
0
0
19
2
12
0
0
1
11
0
5
1
7
0
19
0
2
0
24
0
7
6
0
22
81
0
0
0
0
0
0
12
6
0
43
53
0
41
0
16
0
9
0
0
0
0
82
156
0
0
0
0
10
6
26
0
0
3
0
64
76
0
0
31
0
0
0
0
0
0
38
102
0
0
0
0
0
0
0
0
17
111
0
0
33
16
5
0
0
20
0
0
6
0
79
11
0
0
0
90
0
0
94
0
0
79
47
0
0
11
0
5
0
5
13
9
0
13
0
0
0
0
3
0
12
4
6
0
36
0
1
0
38
0
10
0
3
0
0
0
16
26
92
0
0
0
21
40
47
0
0
0
7
0
17
0
3
5
22
0
0
14
84
30
0
0
11
0
0
0
0
8
0
0
11
0
0
4
0
4
0
12
2
5
0
7
11
0
7
0
8
17
4
0
0
0
12
35
0
0
4
7
0
0
0
0
0
0
0
0
0
18
9
20
0
37
13
20
13
10
0
4
0
0
14
0
9
0
8
0
12
5
6
18
0
0
1
0
3
0
0
6
0
6
4
9
14
3
17
0
0
14
6
19
11
6
17
10
25
12
0
3
14
0
23
0
0
31
0
0
0
0
0
0
0
5
0
0
25
14
24
1
0
7
4
0
0
0
9
0
0
0
0
0
0
12
29
0
0
0
0
69
0
15
40
0
13
0
15
0
0
29
14
6
0
18
0
0
11
0
24
0
31
0
6
19
0
41
0
0
2
0
8
0
0
13
6
1
0
6
0
0
0
0
0
3
3
0
0
4
0
1
3
4
6
0
0
0
0
14
0
0
7
0
4
0
0
0
5
7
2
10
0
27
3
0
0
0
0
8
0
0
12
0
0
3
6
0
9
0
6
0
0
0
9
0
0
0
17
0
0
10
0
5
0
1
0
3
0
0
10
6
0
9
0
11
0
0
7
8
0
0
0
4
0
0
0
1
10
0
0
7
5
1
11
0
0
3
0
2
7
0
4
0
6
190
103
1
0
4
2
17
0
1
0
0
17
0
0
9
0
8
3
17
0
11
0
4
21
0
0
1
0
7
0
0
0
15
12
0
0
5
8
0
5
0
1
1
0
2
0
0
7
6
2
7
0
16
0
15
0
7
6
0
12
0
1
0
13
9
0
13
0
0
0
0
0
15
0
0
0
13
0
10
0
3
11
9
2
6
0
0
0
0
0
22
111
0
0
0
0
0
19
41
19
39
18
68
5
0
0
0
0
10
0
0
69
119
67
0
0
0
0
45
23
34
0
32
0
9
0
0
51
50
14
0
0
0
0
0
0
10
96
0
0
0
0
8
0
2
23
0
12
99
0
0
0
55
32
44
0
0
48
5
9
15
20
0
21
0
30
63
0
0
0
0
73
104
0
0
0
0
6
0
0
6
0
14
0
4
0
0
5
17
18
0
0
0
26
20
0
0
2
0
0
4
0
3
0
0
0
0
38
74
0
0
0
0
51
53
0
0
7
0
10
0
0
9
0
1
4
0
12
71
35
0
0
31
0
2
20
0
5
10
0
4
5
6
1
10
6
3
0
0
4
0
0
4
17
2
0
13
0
8
0
21
0
6
23
2
13
0
40
0
20
0
39
0
0
17
9
0
0
62
0
0
0
10
0
9
0
13
0
0
0
7
0
0
0
9
5
10
0
11
0
0
0
0
4
24
0
0
0
8
0
9
9
0
14
11
6
0
0
0
2
0
2
0
4
6
3
0
15
0
0
0
0
9
0
27
0
0
0
34
0
0
43
17
16
0
13
0
11
0
10
0
0
24
0
0
0
0
0
0
20
0
7
30
32
0
9
3
0
69
0
26
58
0
30
0
0
0
27
22
14
0
0
0
0
0
0
0
0
5
3
0
6
0
0
0
10
18
0
0
0
8
10
10
0
14
4
3
1
0
0
6
0
8
16
7
12
2
0
0
11
0
0
6
0
4
4
3
6
0
10
0
0
0
3
9
0
0
0
1
0
0
0
5
4
0
0
1
0
14
0
4
3
0
0
4
4
4
2
1
5
0
0
0
4
11
0
0
6
5
0
0
4
0
10
5
7
0
0
1
0
11
13
0
0
13
2
0
1
0
21
0
0
25
0
5
0
3
0
0
2
4
0
5
3
1
0
5
3
0
3
9
0
189
100
0
4
0
0
11
0
8
8
0
18
0
0
16
10
2
0
0
4
2
0
6
0
0
0
10
2
0
5
0
6
0
7
0
16
0
0
1
2
9
0
4
0
0
8
5
0
3
0
15
6
0
16
0
1
0
0
16
3
0
0
8
0
5
0
3
1
0
0
16
2
3
9
7
33
0
9
0
17
0
0
0
0
0
0
0
4
0
0
0
98
0
0
0
0
0
41
25
5
0
16
37
0
0
0
23
51
44
25
41
19
0
0
0
0
0
31
23
0
0
0
0
10
6
0
0
0
103
57
0
0
0
0
0
11
110
49
0
0
0
0
0
0
0
4
0
0
101
0
71
0
6
0
29
0
0
0
0
1
2
40
0
0
0
0
46
0
0
36
0
131
45
0
0
0
0
14
0
14
0
93
0
0
0
13
5
0
0
0
0
4
0
0
0
17
7
0
5
0
4
5
2
0
0
0
32
23
64
0
0
0
0
58
25
0
0
22
0
14
6
0
10
0
12
4
0
80
48
0
0
18
0
2
0
0
10
0
16
0
6
0
24
0
9
0
5
7
3
0
0
13
0
3
4
0
16
7
8
12
2
0
9
0
0
0
0
39
0
6
3
39
0
0
22
17
0
0
58
0
0
0
0
0
7
0
0
7
0
2
0
0
6
13
0
1
4
0
0
10
0
0
3
4
0
0
0
10
0
0
7
8
6
0
9
7
0
0
0
3
0
0
0
5
0
0
4
13
0
14
0
11
2
0
19
15
0
0
45
0
0
0
16
0
0
0
0
22
0
0
7
0
10
3
10
0
3
44
1
0
0
34
0
42
0
0
0
0
57
0
25
22
0
18
0
10
0
28
26
2
4
0
26
0
9
10
6
15
11
0
8
0
12
34
0
0
0
27
0
0
34
0
5
25
12
5
0
15
0
3
0
0
8
9
0
2
2
14
9
0
0
8
0
8
4
0
0
5
11
0
5
10
0
3
1
0
16
0
0
0
0
13
0
0
4
11
0
8
8
0
4
0
12
0
0
2
0
0
0
0
10
7
12
0
0
26
0
0
3
6
0
0
6
5
0
0
0
1
0
0
0
0
25
0
0
1
1
0
4
2
10
0
0
1
5
0
8
4
5
0
0
18
0
0
3
9
0
0
0
0
4
0
195
105
1
0
17
1
10
14
0
0
0
15
8
0
0
0
0
0
6
5
7
6
15
0
9
0
9
0
0
3
10
12
0
0
4
7
0
10
0
3
0
0
9
6
3
0
4
3
0
4
0
0
17
12
0
9
3
0
4
0
2
5
0
6
3
3
20
1
0
0
15
0
0
6
0
0
5
6
14
15
0
3
7
6
5
19
0
0
13
8
0
25
20
0
29
16
0
13
0
0
0
0
0
0
35
62
37
42
0
0
0
2
0
0
1
41
25
0
0
3
0
0
1
0
7
0
0
0
27
96
22
37
0
0
8
37
0
0
0
0
18
37
0
13
38
0
0
23
88
0
0
14
0
31
25
17
0
0
14
46
2
0
15
5
52
0
0
0
0
14
92
45
0
0
0
20
34
0
0
0
0
0
0
19
19
0
5
18
0
0
5
0
0
5
8
0
21
0
0
13
14
0
0
3
0
15
30
85
0
0
0
0
44
48
0
0
0
20
0
0
0
0
1
3
8
0
69
57
0
0
0
2
7
0
15
7
0
1
0
0
7
9
15
0
0
0
0
10
0
13
0
16
0
3
0
0
0
5
13
2
0
0
15
5
0
0
2
4
0
4
0
0
12
0
9
27
0
0
18
0
0
0
0
6
0
0
8
5
19
4
0
0
5
0
18
0
8
0
5
5
3
0
0
4
0
0
20
0
0
20
0
9
2
15
0
16
0
6
0
0
0
0
9
0
0
11
0
0
0
17
12
0
6
17
10
3
38
0
52
16
0
0
20
14
17
0
14
0
0
0
0
10
7
0
0
0
15
1
0
0
0
43
0
40
0
0
0
0
40
0
6
47
0
13
0
22
0
11
63
0
0
0
13
21
0
0
15
5
0
0
0
11
0
0
7
28
12
0
0
29
0
19
17
0
0
0
6
0
0
0
1
26
0
3
6
0
0
2
0
6
0
0
11
0
0
10
4
3
0
8
5
0
0
14
0
0
10
0
5
12
0
0
0
7
0
0
0
12
0
9
0
5
0
5
6
0
7
6
0
0
3
0
0
9
5
0
9
9
4
0
3
0
3
0
0
8
15
0
4
4
10
4
0
1
0
0
0
8
14
0
11
0
6
4
0
10
0
0
8
4
3
0
0
9
0
0
8
3
11
0
5
0
190
102
0
15
0
0
0
0
0
4
0
1
0
11
13
0
28
0
0
2
0
1
0
11
3
1
0
0
0
21
0
0
12
7
0
0
2
8
0
0
5
0
0
12
0
5
0
1
4
0
6
2
0
15
1
0
12
6
4
0
0
14
0
12
0
0
0
0
3
0
0
3
0
0
5
0
13
0
1
0
0
1
0
0
31
0
0
0
0
0
0
7
109
0
12
45
32
16
0
0
0
0
44
89
70
0
0
0
0
0
0
0
0
30
73
0
0
0
1
0
8
9
0
22
0
0
23
0
0
22
59
82
0
6
25
29
30
0
0
24
81
17
0
9
30
0
0
0
84
0
0
0
0
49
30
6
0
0
70
38
0
0
53
0
35
6
84
4
0
53
28
0
0
0
0
0
6
31
25
0
0
17
14
4
3
7
0
0
29
0
16
0
13
21
9
0
0
21
0
0
0
2
0
0
0
37
43
66
0
0
0
0
70
0
0
0
12
0
5
0
4
0
15
0
6
68
64
0
0
0
6
0
11
11
0
21
1
1
0
5
0
0
2
0
8
22
0
4
0
2
20
0
8
0
0
0
0
4
0
19
2
0
24
7
9
6
2
0
9
5
0
23
8
0
16
0
21
0
3
0
21
0
6
0
0
0
4
26
0
1
0
0
0
4
0
12
2
0
13
0
0
1
0
2
0
0
24
0
0
0
0
0
7
15
10
2
0
0
0
9
0
0
4
0
20
0
8
4
2
6
11
0
0
0
19
21
1
0
7
33
0
8
25
0
6
0
17
19
6
2
0
22
0
0
0
0
10
0
0
1
5
0
9
36
0
0
0
0
67
0
0
49
13
0
0
15
0
0
78
0
35
0
0
22
0
0
2
0
12
0
0
22
31
15
0
0
0
1
5
0
0
7
0
10
0
9
0
0
0
2
2
0
10
25
0
17
0
4
0
0
16
0
0
0
7
0
13
0
1
10
0
2
0
0
10
0
0
6
4
0
22
2
0
9
0
0
11
0
0
0
9
0
2
0
11
0
3
1
12
1
0
2
2
0
7
8
0
4
4
4
0
0
0
6
14
0
3
0
19
0
10
0
0
0
0
0
12
0
1
6
0
0
8
5
0
0
0
6
0
9
0
8
10
0
4
8
0
0
0
4
0
0
198
101
0
2
0
0
0
6
0
0
16
0
0
9
0
16
0
2
0
1
26
0
1
0
0
0
3
11
0
0
0
0
0
5
3
3
0
7
14
5
0
0
11
0
14
0
7
5
2
0
0
3
9
0
0
20
5
0
2
5
0
0
0
4
8
0
12
0
1
0
6
0
3
0
0
1
0
0
8
0
0
8
0
3
0
0
7
0
8
0
0
0
34
47
0
0
4
15
7
21
68
46
13
0
0
8
0
13
43
29
0
0
6
51
0
38
0
0
8
33
0
0
26
12
0
0
15
0
0
0
0
68
19
16
53
0
4
23
20
46
72
0
0
5
1
0
0
0
35
32
16
0
0
39
34
8
0
0
72
0
9
0
7
34
0
0
0
4
29
7
45
31
0
0
26
0
0
0
0
0
31
0
0
0
0
4
21
0
0
19
0
0
0
0
6
0
19
0
4
28
6
0
0
0
30
1
85
0
0
0
0
25
68
0
0
8
6
7
2
0
5
4
0
0
52
83
0
0
6
9
0
11
15
0
13
0
0
12
0
0
13
6
0
0
13
0
12
15
0
0
0
0
1
8
2
0
0
0
8
0
0
23
0
0
8
0
3
8
0
1
0
9
3
1
0
0
0
0
0
4
5
15
0
4
11
10
13
6
0
0
3
0
22
0
12
0
0
15
0
11
0
9
0
2
0
0
0
1
2
13
5
3
5
5
8
0
11
0
6
6
0
8
0
8
0
12
0
2
0
0
3
19
0
0
19
0
9
0
7
1
0
9
1
0
11
0
7
5
4
0
0
12
10
0
0
0
8
2
22
0
0
0
31
0
0
0
0
0
55
0
0
37
0
0
35
3
0
0
39
24
0
33
0
19
0
5
24
9
0
4
0
18
14
0
0
22
4
7
0
0
32
18
14
1
0
8
0
0
0
7
0
16
0
0
0
9
0
0
12
0
0
5
18
0
0
15
0
0
3
0
14
0
4
12
3
0
0
0
0
5
0
1
1
0
14
3
0
0
0
4
0
18
0
2
2
0
10
0
3
0
1
0
3
1
0
14
0
6
0
0
0
9
3
0
8
0
12
15
0
0
19
0
0
0
0
11
0
14
0
4
8
0
3
8
0
0
6
5
0
10
0
0
0
2
0
0
0
11
0
0
0
0
186
95
0
9
3
0
3
6
17
0
0
8
8
0
8
0
0
13
0
0
0
0
13
0
23
0
0
18
1
13
0
12
0
6
0
0
19
1
0
0
0
12
1
14
0
3
0
0
0
8
4
0
0
3
0
5
1
0
10
0
0
6
0
18
0
0
11
3
0
3
4
0
10
24
0
0
7
0
8
0
25
0
4
0
0
3
7
0
10
0
0
0
0
84
0
0
0
24
32
28
34
0
0
0
0
0
25
0
0
0
0
0
30
0
5
0
24
0
0
0
0
0
68
0
0
0
24
0
0
0
0
43
41
17
0
0
16
10
38
0
0
4
0
33
0
0
0
0
38
0
2
13
0
0
96
42
5
0
0
0
0
4
0
0
34
0
0
50
77
0
0
14
51
0
70
55
79
0
0
13
0
4
13
6
20
0
0
4
7
15
12
9
0
2
0
2
0
0
0
0
2
0
0
0
26
68
16
0
0
0
6
88
0
0
0
0
0
0
5
0
9
6
13
38
114
0
0
2
12
0
0
2
0
19
0
0
0
16
0
12
3
0
12
7
4
0
0
0
0
27
0
6
0
11
0
12
7
0
7
0
0
0
0
5
0
0
0
0
0
0
14
0
6
0
7
0
21
10
11
0
0
10
0
2
0
15
10
0
0
0
13
2
0
0
1
12
0
3
0
6
0
16
0
0
0
0
23
4
0
9
8
3
0
6
7
11
0
0
7
13
0
2
0
14
0
0
5
9
0
14
0
0
0
0
0
2
0
9
0
30
0
0
0
7
10
7
24
0
14
0
0
25
10
0
0
0
25
9
0
30
2
0
0
55
0
18
0
0
60
0
8
37
6
0
41
0
0
0
67
0
0
13
0
20
23
0
21
11
0
4
0
18
0
10
4
0
0
0
21
0
12
3
5
0
4
0
14
0
0
16
0
7
0
3
0
0
8
0
0
0
0
0
1
7
18
0
20
0
4
0
0
18
0
3
0
0
9
0
1
0
0
0
4
0
0
1
1
10
10
0
3
0
5
14
0
11
0
3
0
0
9
0
11
0
5
0
0
0
0
5
1
0
16
0
0
0
0
5
4
8
0
0
26
3
7
7
1
0
9
0
0
11
0
0
8
1
0
0
3
0
0
3
2
0
9
0
10
0
0
0
0
8
194
112
13
0
0
3
11
0
8
3
2
0
10
4
10
11
0
0
6
12
0
8
0
0
0
0
0
0
0
0
2
25
0
0
6
0
18
0
0
10
0
0
0
0
29
0
0
12
0
0
2
0
6
2
16
0
6
0
0
7
9
0
3
1
17
0
0
0
8
18
0
0
12
0
11
0
1
0
0
14
0
9
0
11
0
14
0
9
0
15
0
0
0
23
37
7
53
31
0
19
0
0
10
10
24
0
0
2
0
0
0
60
25
34
28
0
0
0
9
0
46
0
77
0
0
7
8
0
0
0
22
0
1
6
49
17
41
0
15
0
0
0
0
0
17
0
0
35
0
29
0
1
0
0
0
60
53
20
0
0
0
8
1
13
12
0
0
127
20
0
0
0
58
0
56
0
0
3
12
0
0
0
0
5
0
0
2
15
0
10
5
0
0
13
0
2
20
0
1
0
3
0
0
24
32
81
0
0
0
0
16
46
0
28
0
0
3
0
1
4
3
0
33
97
0
0
12
0
0
0
12
0
12
0
0
5
10
0
0
2
0
18
0
6
0
6
0
0
1
0
13
18
0
12
1
2
0
0
0
0
0
0
0
0
13
0
2
18
0
3
0
24
0
1
0
0
0
15
0
3
0
0
0
11
0
18
6
0
9
0
0
0
0
5
6
0
14
0
0
0
14
0
8
2
11
0
10
0
0
0
1
0
11
2
4
9
0
0
0
10
0
5
0
10
26
0
1
8
1
5
0
0
7
0
0
0
10
1
7
0
27
0
19
2
0
0
0
28
8
0
0
8
0
23
0
1
12
0
0
0
18
0
3
48
0
0
0
0
49
27
0
41
33
0
37
0
0
0
55
5
0
35
0
0
15
0
3
0
4
0
6
1
14
0
0
0
32
0
0
27
5
0
25
0
5
0
24
0
12
0
9
4
6
3
8
0
0
0
0
0
8
0
0
18
0
0
0
13
0
0
1
0
2
0
6
0
6
0
10
0
23
0
4
2
8
0
3
4
0
6
0
0
2
0
0
6
0
0
1
0
0
0
0
8
5
0
13
4
7
0
0
3
0
0
0
9
0
0
4
0
0
0
0
5
0
8
10
4
6
4
0
0
6
2
3
0
4
5
0
3
0
2
0
0
0
0
0
7
0
1
0
0
191
94
0
0
15
7
0
14
0
4
0
7
0
0
4
0
8
5
0
1
0
13
0
8
0
0
0
11
0
14
9
0
3
0
14
0
1
0
13
0
0
4
2
0
0
13
0
0
9
12
0
0
0
8
0
20
0
0
3
0
0
1
15
0
1
0
0
9
0
7
0
27
0
0
0
0
0
8
1
1
0
7
0
2
5
0
9
0
0
1
0
0
0
0
0
29
30
16
0
0
0
0
35
32
12
0
0
0
0
2
49
20
10
0
0
22
16
0
0
13
0
31
38
0
0
0
17
19
0
60
0
81
0
0
0
0
0
38
35
0
52
0
9
8
0
0
16
11
0
0
29
34
0
0
0
0
45
26
13
6
27
13
20
60
0
0
45
50
0
0
0
154
0
0
0
11
0
0
0
0
1
4
0
0
0
22
0
0
0
0
10
11
0
11
10
3
0
22
0
3
0
0
0
43
78
0
0
0
0
0
67
0
5
0
0
11
0
14
0
1
12
17
94
9
0
0
4
16
0
24
1
0
0
0
7
16
0
3
0
18
0
9
0
0
16
2
1
2
2
19
0
0
1
7
0
21
0
0
5
0
0
11
0
14
7
0
0
0
19
0
23
8
0
0
29
0
23
0
0
15
15
0
0
14
0
18
0
0
10
0
0
0
0
11
10
0
4
0
9
0
12
0
0
1
0
3
0
0
0
0
0
15
2
10
17
5
0
0
0
7
3
12
0
0
0
13
5
0
0
12
0
5
0
19
0
14
6
5
5
0
14
0
9
11
7
21
19
0
5
23
0
44
0
6
0
0
6
15
0
27
0
0
56
17
0
0
0
0
56
13
0
28
26
0
39
23
0
0
12
80
0
0
37
0
32
0
0
0
0
8
0
31
0
0
10
0
10
0
7
1
16
7
14
0
0
0
0
16
0
4
1
1
0
0
4
8
0
4
10
0
18
2
0
0
5
4
9
0
0
1
0
1
3
13
0
5
0
7
0
4
0
0
17
0
3
0
0
0
0
0
20
2
0
20
0
4
0
7
6
8
7
0
5
0
6
0
0
4
0
0
13
13
0
10
9
0
12
0
13
0
6
4
5
9
4
0
5
3
0
3
2
8
1
3
0
1
4
0
6
1
0
0
7
2
1
0
8
0
2
6
7
0
189
107
13
0
1
0
5
0
12
0
27
0
19
6
3
2
0
0
2
12
16
0
0
17
2
0
7
0
0
0
0
7
4
0
12
3
0
10
0
0
12
11
0
0
11
0
13
0
4
0
3
0
0
0
14
0
0
0
18
5
0
11
0
8
0
0
0
11
0
0
0
0
20
7
1
6
7
0
0
28
0
18
5
0
0
0
0
20
0
0
0
0
11
0
8
0
12
0
0
0
17
7
46
0
0
0
0
0
0
0
56
27
0
0
0
28
0
0
0
0
2
30
0
0
0
0
21
0
51
0
49
29
0
2
0
0
0
35
6
36
0
0
0
10
0
8
67
0
0
0
43
0
1
0
0
0
0
92
27
32
30
13
60
23
0
0
113
0
0
7
110
104
0
0
0
0
14
0
17
0
2
7
1
0
20
5
0
20
6
8
0
46
0
0
0
0
13
0
3
0
0
0
25
35
54
0
0
0
0
30
49
0
2
0
5
5
0
13
4
15
7
83
32
0
0
5
6
2
4
8
0
6
0
0
0
13
0
5
0
0
0
16
0
3
0
5
23
0
11
1
0
10
0
13
0
1
3
7
15
12
1
10
0
8
10
0
22
0
2
0
0
6
0
0
23
9
0
0
0
7
29
0
3
29
9
0
0
0
15
0
0
19
2
0
0
0
9
7
0
0
7
0
7
0
0
0
6
18
26
0
0
4
10
2
3
4
2
0
0
0
11
1
0
2
0
0
7
3
18
0
9
0
0
0
12
0
0
12
0
2
0
0
0
0
0
11
0
8
7
0
0
6
0
20
0
9
17
0
12
7
0
0
11
0
0
0
17
0
27
29
0
41
13
0
27
0
0
0
19
40
0
6
10
0
1
8
14
0
2
2
1
0
20
0
0
5
0
0
0
5
0
13
0
3
0
10
0
0
12
0
20
0
0
0
10
0
7
2
8
0
0
0
5
1
12
1
0
10
3
7
0
8
0
0
0
0
8
0
0
0
9
14
0
8
0
8
4
5
0
4
0
0
0
0
0
11
0
0
0
10
1
0
26
0
0
10
0
5
0
1
7
0
8
0
0
4
5
2
0
0
18
2
0
0
0
5
2
4
3
0
8
0
5
0
4
3
0
13
0
5
1
3
4
0
0
0
0
7
0
2
0
1
197
98
5
0
6
5
0
10
0
0
4
12
0
0
0
0
0
0
9
0
0
0
13
0
5
0
0
0
0
4
5
15
0
5
2
0
0
15
0
2
0
0
13
0
1
8
12
0
15
2
3
0
11
1
0
19
1
0
5
0
5
8
3
3
11
0
6
15
0
0
16
9
0
6
0
0
15
0
14
0
13
0
23
0
12
13
1
11
0
0
0
71
0
4
32
10
0
0
0
0
6
0
0
0
0
0
38
42
27
50
0
0
0
0
17
0
13
0
29
0
0
27
8
18
0
6
30
24
7
0
79
0
7
0
0
0
27
60
0
21
0
0
0
0
10
20
0
0
42
0
10
47
0
0
0
0
0
15
88
83
47
9
0
0
0
0
42
0
0
92
128
0
0
9
0
0
0
12
6
0
0
3
5
8
0
2
0
1
0
0
0
4
0
15
15
1
5
26
0
17
0
0
20
94
0
0
0
0
0
83
0
14
1
11
0
0
0
0
2
1
66
113
0
0
1
0
8
0
7
0
1
0
8
2
23
0
9
16
0
4
0
6
4
5
2
0
0
10
3
0
14
4
3
0
12
0
9
4
0
17
0
0
11
0
0
20
0
7
0
10
13
6
6
8
0
3
0
2
0
0
0
2
0
12
0
21
1
0
0
1
0
0
14
12
2
0
1
1
3
17
0
8
0
0
9
0
16
0
0
14
0
3
6
0
10
6
6
0
8
0
1
2
1
6
6
0
0
1
0
7
2
1
6
7
0
0
6
1
0
0
11
0
17
0
0
0
0
18
22
0
0
0
0
8
0
24
0
0
0
28
0
0
12
0
10
0
0
0
61
16
10
12
6
16
24
23
0
0
41
6
0
0
4
0
70
0
0
0
0
9
2
8
0
0
0
0
0
0
0
27
12
10
0
0
0
5
0
0
9
9
0
3
12
0
0
17
0
15
0
1
9
2
0
0
0
2
1
0
0
3
0
0
14
0
10
8
5
0
15
0
10
0
2
0
0
0
0
0
22
0
12
0
19
0
6
0
18
0
10
13
0
0
0
0
12
17
0
0
10
3
0
1
0
0
1
0
0
0
1
0
8
1
9
4
2
0
0
0
1
2
0
0
0
10
0
1
2
0
4
0
0
0
1
3
1
5
9
1
10
0
3
0
192
101
7
1
4
8
7
0
4
25
0
0
2
17
2
0
16
13
0
8
19
0
0
19
0
1
0
11
24
0
0
0
12
0
5
13
0
0
14
0
0
4
0
6
0
0
2
11
0
6
6
0
0
5
7
0
0
4
0
24
0
0
7
2
0
0
5
0
0
0
4
0
6
2
28
3
10
0
1
9
0
2
0
7
0
0
0
0
19
0
0
0
5
19
0
0
0
0
0
34
0
0
0
4
24
54
13
34
24
37
13
0
0
0
8
0
0
0
0
0
11
50
8
0
0
0
53
15
0
52
0
22
0
0
0
29
75
15
15
0
0
0
2
0
14
2
0
0
23
35
26
61
0
0
34
0
0
0
0
0
0
61
16
0
0
5
0
0
96
112
2
0
0
0
5
0
0
0
0
18
0
4
9
15
3
0
18
0
0
6
8
0
13
3
0
0
6
5
0
0
0
17
39
65
0
5
0
0
34
65
0
14
0
10
11
0
9
0
0
50
131
0
0
4
0
15
4
0
16
0
9
15
0
0
0
0
0
15
1
0
0
13
0
0
0
0
6
0
1
0
9
6
9
0
0
0
6
0
3
19
0
1
2
0
0
0
5
0
0
1
1
0
4
6
0
0
11
0
0
12
0
11
0
3
16
0
0
0
0
0
6
0
0
0
0
0
16
0
0
0
14
0
14
1
0
7
0
0
0
3
15
0
0
11
9
5
0
8
0
0
0
8
9
9
0
23
0
0
0
11
2
0
11
1
0
19
0
0
0
0
8
0
0
24
0
12
2
7
0
0
6
5
16
1
0
0
0
0
7
6
0
0
31
34
0
0
0
0
4
28
0
24
12
8
23
4
0
0
0
53
0
0
13
0
0
0
32
2
3
12
7
5
7
0
0
0
0
0
24
0
7
9
13
0
13
0
0
0
0
8
0
12
0
28
0
3
0
0
0
8
0
3
5
0
0
8
0
13
0
8
5
2
0
0
12
0
0
0
8
0
11
0
7
0
7
0
22
0
0
12
2
8
0
0
0
8
0
0
13
0
0
6
0
0
5
0
0
9
0
5
0
0
8
10
0
0
0
0
11
7
7
0
0
3
2
4
4
5
0
16
0
2
0
2
1
0
0
6
0
10
0
0
0
0
3
0
0
0
0
2
7
0
185
88
0
0
5
0
19
0
6
0
0
0
7
0
17
0
0
6
0
4
3
5
7
6
0
2
0
3
0
0
21
9
15
1
0
14
0
4
0
2
3
0
18
0
21
0
1
0
0
2
1
4
8
0
10
0
17
0
5
2
0
16
0
9
10
13
0
0
0
1
0
0
0
6
0
0
1
0
12
0
19
0
7
11
5
0
0
0
0
11
0
0
8
0
0
0
0
1
64
55
0
7
29
19
52
49
40
67
36
0
0
11
0
11
0
0
20
16
14
0
0
60
21
0
0
43
42
0
57
29
0
0
12
0
9
93
17
13
5
0
0
0
0
18
0
19
0
19
0
9
10
46
71
0
0
18
10
0
0
0
11
38
50
21
4
8
28
56
73
43
0
0
1
10
0
0
1
8
0
0
5
0
13
0
0
10
0
5
0
14
13
0
17
0
36
0
0
24
1
0
0
42
93
0
0
0
0
0
88
0
0
0
6
5
0
1
0
5
24
132
0
0
0
2
23
0
1
10
2
5
0
3
15
0
18
2
0
11
5
0
2
0
0
0
15
0
22
0
4
0
0
11
6
0
0
0
0
8
0
10
0
2
2
0
6
0
3
8
0
0
0
5
0
4
0
0
0
15
13
0
0
23
0
0
0
8
0
13
0
0
7
0
32
0
10
14
0
1
2
0
0
0
31
0
0
4
0
0
5
0
19
5
0
0
7
7
1
0
0
4
7
0
5
0
8
0
0
9
8
4
0
0
0
0
6
0
0
0
18
0
0
0
6
3
0
0
13
0
17
0
3
0
5
6
0
0
13
20
33
0
16
0
29
0
3
14
0
0
38
31
8
0
32
2
0
39
0
0
27
43
0
0
1
34
12
4
6
0
0
2
0
0
0
9
11
0
1
11
16
0
20
3
1
1
0
0
0
0
6
0
22
1
0
2
0
13
0
8
6
0
2
0
8
0
11
0
0
2
2
0
1
0
5
0
0
2
6
0
0
0
4
0
11
0
6
0
4
2
0
0
0
0
0
16
0
0
16
0
8
0
17
2
0
14
0
0
9
1
0
1
0
6
4
0
0
0
3
11
4
0
0
10
2
2
0
0
0
0
8
0
8
2
9
0
1
1
0
0
4
0
0
1
4
0
0
1
1
10
0
1
0
1
199
79
0
8
0
0
0
0
14
0
0
5
1
5
0
9
0
27
0
11
0
0
0
0
0
0
2
0
12
0
1
0
0
0
6
0
6
8
0
13
0
6
4
0
6
0
2
0
5
0
5
0
0
11
0
2
0
6
0
0
13
0
3
5
0
0
0
19
0
2
0
0
0
12
4
11
0
0
10
0
0
15
0
0
0
0
0
0
0
0
0
5
0
0
0
6
11
10
3
30
38
72
70
76
33
65
1
0
0
0
16
0
16
0
17
18
9
11
0
0
17
81
0
0
0
18
8
6
81
0
0
51
0
0
44
13
0
28
0
8
0
7
7
0
0
7
0
0
0
0
0
0
17
69
0
2
23
24
2
0
0
0
0
119
62
49
44
69
27
0
0
72
0
7
0
10
30
6
18
0
0
0
13
0
25
0
0
14
0
0
0
10
0
0
0
0
0
0
0
0
25
52
52
0
0
0
0
21
57
0
0
15
7
0
0
2
9
22
100
2
0
0
3
3
0
0
25
1
9
0
4
0
5
0
9
0
0
0
0
4
13
0
5
2
12
0
0
2
0
0
12
0
3
0
14
0
15
0
0
2
0
4
2
5
3
8
0
5
0
0
1
8
2
0
9
11
10
7
0
19
5
0
3
0
5
0
0
0
6
0
5
0
13
5
0
0
0
19
0
0
22
0
5
0
1
0
0
20
0
8
0
0
0
16
6
18
0
5
0
0
0
5
0
12
7
0
0
0
0
0
0
10
6
0
0
16
7
0
0
0
0
14
0
11
0
7
0
21
4
3
28
0
15
5
16
2
0
0
0
0
37
0
67
4
0
0
0
0
32
33
0
0
21
13
12
19
0
0
33
2
0
0
0
38
0
0
0
0
0
12
16
0
0
0
0
0
0
7
0
13
13
3
0
3
0
3
0
0
14
3
0
0
0
5
7
0
0
9
0
1
1
11
0
18
0
0
6
16
1
10
0
0
8
5
16
0
0
5
8
2
6
8
4
0
16
0
0
0
3
9
0
0
5
0
1
2
5
0
1
0
0
12
0
0
18
0
0
4
0
8
2
1
0
0
15
0
0
0
4
21
0
7
0
0
10
7
2
0
0
5
0
0
6
4
0
0
8
0
0
3
0
4
0
2
0
2
12
0
5
0
0
4
183
104
10
4
0
40
9
10
0
3
29
0
6
6
0
18
0
0
1
9
10
22
0
18
4
0
0
0
3
0
0
3
14
0
3
0
3
7
0
5
0
0
6
0
0
5
0
2
8
0
8
2
0
10
0
1
5
6
0
5
4
5
5
0
0
2
5
0
4
0
0
14
8
0
8
0
16
0
0
0
2
0
13
0
0
0
0
0
15
8
46
39
5
54
43
45
47
5
0
54
38
22
0
0
0
0
0
4
41
0
0
0
0
0
0
1
11
0
0
0
20
16
0
0
19
0
31
52
0
0
0
32
0
55
25
8
0
0
0
0
0
6
0
0
1
41
2
17
0
0
0
10
0
42
36
58
17
21
44
1
4
0
0
0
70
84
79
20
0
0
42
35
38
16
11
0
0
15
56
0
0
4
0
18
0
0
21
8
0
6
27
4
0
0
6
0
0
0
0
0
65
72
0
0
0
0
0
76
0
0
12
0
10
0
0
6
13
77
70
0
0
0
0
12
2
26
0
13
0
5
13
0
0
0
15
0
8
0
1
0
0
2
0
5
4
0
6
0
6
0
0
10
2
0
17
0
0
23
0
14
0
0
0
12
20
13
0
3
5
0
0
0
0
0
3
13
0
12
0
1
0
2
0
5
0
0
2
14
0
0
0
3
0
0
0
6
3
0
0
15
11
0
0
4
0
0
4
0
0
0
9
0
21
0
10
2
0
6
0
5
0
0
5
1
16
16
0
0
0
14
3
0
0
0
18
0
4
2
13
0
14
0
0
9
0
11
13
7
7
0
0
0
10
0
0
0
0
17
0
0
41
0
51
0
10
0
0
0
33
50
0
24
11
0
32
0
0
0
19
0
0
0
0
42
24
0
0
11
26
0
10
17
0
4
13
0
0
21
5
0
14
5
4
0
0
1
0
21
3
8
0
0
12
0
0
1
0
3
8
0
6
0
0
0
1
9
0
0
7
0
0
2
0
3
7
0
17
0
0
1
6
0
0
9
0
2
26
11
0
3
5
0
3
0
0
16
0
6
3
0
1
0
0
0
0
0
19
0
0
0
5
3
12
0
0
14
12
0
2
0
10
0
2
9
0
7
0
2
1
7
11
5
0
0
0
1
11
0
0
3
0
1
0
1
5
0
0
1
0
3
6
1
200
89
0
5
0
22
23
0
8
0
0
16
0
6
5
3
0
0
0
0
0
0
0
0
0
0
0
9
0
19
0
8
11
2
2
0
10
0
12
0
10
4
0
6
0
6
0
0
0
5
0
7
4
0
20
0
4
0
0
1
14
0
2
21
0
10
0
3
0
0
0
7
7
14
0
0
0
10
0
7
3
0
0
0
3
24
49
61
31
19
32
17
7
21
0
12
51
0
82
66
0
0
15
0
0
0
62
41
0
0
0
3
3
2
0
8
16
25
0
2
49
9
1
0
0
42
46
0
0
0
18
16
17
38
0
23
0
0
0
0
27
0
12
0
0
0
6
0
0
10
0
0
50
0
0
0
61
6
10
30
13
12
46
49
0
0
0
0
0
0
2
46
4
12
0
0
2
34
8
0
0
15
13
8
0
49
0
0
0
6
1
0
0
17
0
0
2
0
0
16
56
32
0
0
5
0
37
63
0
0
11
0
13
0
1
17
45
119
0
0
0
8
0
0
1
0
5
11
6
0
0
5
6
3
3
0
0
6
1
6
0
7
0
0
3
7
0
14
0
10
0
0
0
20
0
10
0
0
0
13
14
0
0
0
0
1
1
2
0
22
7
5
10
13
0
0
0
1
5
12
0
10
0
5
10
2
0
0
10
9
4
0
12
0
0
7
0
7
3
0
14
0
1
6
0
0
0
0
3
0
5
0
17
0
8
12
1
3
0
1
0
9
0
0
0
8
4
4
24
0
11
0
0
1
0
0
6
0
2
0
6
2
15
0
0
0
0
13
0
0
0
0
17
6
0
0
17
43
0
3
16
0
54
0
0
32
0
0
0
53
0
28
6
0
37
52
0
0
30
31
5
19
0
18
14
0
0
0
0
16
5
0
6
3
0
0
18
3
0
19
11
0
0
22
0
0
9
9
0
0
2
4
0
6
0
0
10
0
0
5
0
17
0
0
0
0
13
0
1
0
0
4
0
0
3
0
0
9
19
0
1
0
9
0
1
0
17
0
17
0
2
0
0
18
19
0
11
0
8
0
8
0
3
3
0
15
0
12
0
41
0
0
0
0
2
17
0
10
4
5
1
0
0
1
2
2
0
0
0
0
0
0
4
0
6
0
0
3
3
0
7
7
0
0
0
0
0
0
0
0
0
0
195
82
0
0
0
0
0
1
0
15
3
0
25
0
0
16
4
0
6
5
0
18
0
4
4
0
0
0
0
5
29
6
0
0
6
0
0
12
0
15
0
0
10
7
0
0
5
11
0
5
7
0
4
0
0
4
8
0
5
2
0
0
2
0
6
0
0
0
0
2
7
0
0
0
3
0
0
0
11
1
0
0
19
32
37
53
35
0
0
21
3
0
0
0
24
0
4
35
27
0
0
8
0
0
33
15
19
0
0
0
2
4
22
0
28
0
0
0
0
0
43
19
0
0
0
95
0
0
0
101
0
0
45
0
0
0
0
2
5
26
9
3
3
0
0
0
2
0
23
0
3
0
0
31
12
0
0
61
60
16
79
99
25
2
0
0
0
0
0
0
13
27
33
18
2
22
21
11
0
0
4
0
0
0
0
0
0
2
11
0
0
0
0
12
18
0
0
0
0
36
106
0
0
3
0
0
64
4
0
8
3
10
0
0
12
23
133
0
0
0
11
0
7
0
0
0
4
0
12
0
0
0
0
0
0
27
0
0
20
0
0
10
0
12
7
0
3
0
2
5
0
0
2
0
0
5
5
0
0
5
0
16
3
0
0
13
4
0
0
0
5
2
0
0
0
10
0
7
0
1
1
3
10
10
0
10
0
0
4
0
17
9
0
12
0
11
0
0
14
0
0
0
11
1
3
5
0
0
2
0
1
8
3
0
16
0
0
9
0
0
0
0
0
2
0
0
1
0
0
5
0
8
1
0
3
1
6
0
4
12
0
4
0
12
0
29
0
0
24
8
0
15
3
0
0
40
0
10
21
0
0
0
44
0
0
0
0
0
0
23
14
33
1
0
42
9
9
0
31
0
0
0
0
13
0
0
21
15
11
24
0
23
0
0
0
0
14
5
10
28
0
20
0
5
0
0
22
0
17
0
10
6
0
10
0
11
0
0
15
0
2
0
2
0
0
0
2
0
8
0
9
0
24
0
0
3
0
17
0
0
0
0
3
0
0
3
0
3
8
0
10
0
0
0
0
14
0
14
0
9
0
0
8
0
3
0
0
0
8
0
0
0
0
0
23
0
0
11
0
7
0
2
4
2
1
0
0
2
2
4
11
0
1
0
1
0
7
0
1
4
2
0
4
0
4
9
4
0
5
0
1
4
194
96
12
0
0
5
25
0
1
0
1
0
0
0
56
0
0
2
18
0
0
13
0
2
0
13
0
3
3
0
0
2
1
16
5
0
0
3
10
6
0
4
0
0
19
0
10
0
5
0
0
7
0
17
0
20
0
3
3
10
0
15
11
0
0
0
0
11
0
6
0
21
0
0
0
0
0
14
0
7
30
30
36
15
0
0
0
0
0
0
0
14
1
0
7
0
0
0
0
0
0
0
0
77
34
0
4
0
25
7
11
2
0
47
0
0
0
0
0
58
18
0
0
0
37
26
0
0
69
10
0
83
35
0
0
6
0
5
3
10
1
0
4
9
24
0
29
0
0
14
0
0
0
0
82
32
0
0
0
0
0
27
0
0
0
2
10
28
0
0
0
21
21
8
3
6
30
0
0
17
0
5
8
11
1
0
0
0
0
9
0
8
30
0
0
0
0
0
7
41
44
0
0
13
0
0
75
0
1
20
0
7
0
8
22
111
8
0
0
0
0
0
10
12
17
0
8
0
0
18
4
0
6
6
6
0
20
0
11
0
4
11
5
0
0
5
0
11
0
0
11
1
2
0
0
9
1
0
4
0
5
0
18
0
3
13
0
24
12
0
0
0
17
14
0
5
3
12
0
0
1
4
0
7
0
10
0
18
0
0
0
9
0
18
0
8
12
0
0
12
5
2
0
9
0
0
0
0
13
0
8
17
0
0
7
3
0
5
10
0
1
3
3
0
5
4
3
14
0
4
0
7
0
5
0
6
1
11
0
7
6
0
10
0
7
3
17
4
4
0
0
17
31
0
0
0
32
0
0
0
50
0
54
0
19
0
0
0
0
48
0
12
12
0
32
41
5
0
18
0
1
0
20
0
35
0
0
7
0
0
24
0
0
5
0
17
0
20
5
0
8
3
6
0
0
0
0
0
0
5
1
0
0
2
0
6
3
14
0
4
0
3
18
0
1
6
0
18
0
0
0
1
0
14
2
0
25
0
2
0
0
0
1
31
5
0
3
0
0
4
0
13
10
0
0
5
0
8
7
3
8
0
0
6
0
0
19
0
0
0
0
3
0
13
5
13
8
0
0
10
0
0
0
0
2
6
2
0
0
0
4
0
1
0
9
0
0
4
0
0
5
4
0
10
0
0
3
0
12
0
14
1
206
83
0
0
21
0
11
5
0
3
0
19
1
0
7
0
0
0
0
0
0
0
28
0
9
0
0
0
0
6
0
10
0
4
5
2
0
0
0
0
0
0
8
16
0
0
8
5
0
2
0
10
11
0
12
0
0
0
0
0
13
0
0
5
11
0
0
4
0
17
4
0
6
17
6
0
4
12
0
21
27
25
0
0
0
0
0
5
12
0
0
0
0
44
36
17
0
12
10
0
0
17
17
0
0
35
13
0
0
0
24
1
0
6
0
21
8
0
73
13
0
0
46
0
73
0
0
71
27
0
61
30
32
0
0
0
0
14
0
0
0
11
0
10
0
2
0
0
13
0
0
14
0
5
0
71
82
0
0
0
3
20
37
0
7
0
0
0
0
28
0
0
28
12
0
7
0
0
42
0
0
11
0
29
0
8
23
0
9
0
8
0
0
0
0
0
0
4
38
61
0
0
18
0
0
48
19
0
14
0
8
0
4
17
74
83
0
0
0
3
0
10
0
2
10
0
8
0
16
0
6
3
0
8
0
0
17
0
2
0
0
0
12
0
5
0
11
0
0
0
17
0
3
0
5
0
0
0
4
5
2
6
0
6
0
0
1
0
0
0
10
4
0
0
5
8
4
0
0
0
0
0
1
0
0
0
6
17
0
0
0
0
0
7
0
0
0
0
3
0
0
12
0
0
0
0
9
0
9
0
12
0
6
5
0
6
15
0
4
0
5
0
0
0
18
0
0
19
3
0
9
0
14
4
0
0
7
0
0
0
0
0
10
0
0
14
0
28
5
0
0
0
0
0
0
0
23
17
0
0
45
0
40
0
0
0
0
0
5
45
14
20
0
0
26
50
25
0
0
6
0
1
0
0
0
14
0
0
22
21
0
0
0
0
0
0
16
0
20
0
4
0
0
0
6
0
0
13
1
0
3
6
0
16
0
8
0
0
0
27
0
8
0
0
0
0
1
8
0
0
32
0
0
0
0
0
0
12
0
10
0
8
0
0
0
0
6
6
0
0
10
3
0
0
19
0
1
0
5
0
0
7
3
7
0
0
9
0
0
15
0
0
0
0
4
0
8
0
9
0
0
0
0
11
0
0
1
0
5
8
0
3
0
1
7
1
0
0
2
0
0
3
0
0
0
7
0
0
1
0
0
5
196
69
0
13
0
0
10
5
7
0
6
0
0
3
0
5
11
0
0
7
0
17
0
0
0
17
0
0
3
0
2
2
0
4
6
0
0
8
6
1
12
1
5
0
0
6
0
0
1
1
22
0
0
24
0
3
20
0
9
11
0
2
0
1
2
18
0
11
0
0
0
3
1
0
0
13
0
0
13
0
25
0
0
0
0
9
5
0
13
9
17
6
0
0
0
36
0
45
0
33
10
6
0
16
29
47
0
0
0
37
0
0
4
0
0
0
12
36
77
0
0
19
0
15
0
0
64
47
18
0
0
0
24
44
0
0
0
39
0
0
0
12
0
1
0
9
0
2
16
0
2
26
0
0
0
0
42
94
0
0
0
65
0
0
0
18
0
0
0
58
0
0
19
16
0
0
0
33
59
0
1
0
0
0
6
11
0
0
0
15
16
23
0
0
15
0
0
33
36
37
0
0
38
0
11
95
0
0
15
0
0
0
1
57
122
0
0
0
2
34
2
0
5
11
4
9
0
9
0
8
0
6
0
0
0
0
9
0
0
0
10
9
0
0
10
1
1
0
9
1
0
0
6
0
13
4
1
0
7
0
3
0
8
1
0
5
0
0
0
0
25
0
7
5
12
0
11
0
0
22
0
8
5
0
1
0
3
0
21
18
0
0
12
5
5
0
6
10
0
22
0
3
0
2
9
0
0
0
3
0
0
4
4
18
3
10
0
6
6
0
1
0
3
0
0
0
15
0
3
15
0
8
0
2
9
1
0
12
2
7
0
17
0
9
19
0
16
0
6
0
0
4
11
0
0
10
5
0
0
0
0
20
23
0
24
0
0
0
0
38
21
17
29
0
0
38
12
0
0
43
0
0
11
1
0
20
0
0
0
1
0
0
27
0
0
2
14
0
27
3
1
0
45
0
0
0
0
13
0
0
3
0
3
0
0
0
0
11
1
0
9
0
0
0
19
0
3
1
0
14
0
0
0
0
20
0
3
17
2
0
10
1
4
0
0
2
3
2
1
0
9
0
1
0
0
0
6
0
0
10
0
4
10
0
1
4
0
18
0
0
0
0
19
5
0
11
1
7
0
6
6
5
0
3
2
0
4
0
0
3
1
0
5
0
0
0
0
0
8
0
14
0
4
0
4
0
1
0
0
0
7
0
199
97
11
11
0
25
0
0
0
0
28
0
0
0
6
0
0
0
2
2
12
0
1
0
0
8
0
0
0
0
7
10
6
1
0
18
0
2
0
0
3
0
0
0
14
0
2
0
0
0
0
0
0
0
0
7
0
0
7
0
1
10
5
0
0
0
8
4
0
0
8
0
14
8
0
0
0
19
0
16
0
0
2
0
3
0
0
0
4
0
19
26
0
0
11
0
0
7
31
3
0
0
49
35
0
6
0
10
46
0
0
0
9
0
8
2
20
60
15
0
0
0
0
49
2
33
43
0
3
0
0
0
0
93
0
0
7
0
0
9
11
0
8
0
2
0
0
0
0
30
7
1
0
38
0
62
0
37
93
0
0
48
8
0
4
0
0
14
0
37
0
0
61
12
39
0
25
40
7
0
0
39
20
45
0
0
7
7
0
17
0
0
17
0
0
0
7
49
83
0
0
18
0
0
58
53
0
14
8
10
0
0
46
112
0
0
0
0
0
0
0
24
0
0
0
0
18
0
6
4
0
0
12
3
7
0
0
2
0
8
4
5
0
0
8
2
3
0
9
0
0
3
0
0
10
0
10
1
0
11
9
6
0
15
0
16
8
1
9
0
17
0
0
0
9
1
0
0
23
0
0
14
0
7
13
0
0
0
0
0
0
4
4
19
0
8
2
9
0
8
1
0
6
1
2
0
0
25
0
0
0
19
0
6
6
3
8
1
4
3
0
4
2
0
0
3
0
3
20
0
1
1
7
9
0
0
6
0
0
12
0
5
6
0
14
0
14
6
7
0
2
14
17
0
0
26
0
0
2
0
0
53
6
0
0
3
0
0
0
22
16
14
38
0
3
56
56
0
0
11
0
0
12
0
0
60
0
5
12
0
0
20
0
0
0
18
0
17
0
24
2
7
0
0
0
10
18
0
1
6
8
10
0
2
7
0
0
1
0
14
0
9
9
0
0
7
0
2
9
0
13
0
13
0
2
3
8
0
0
0
0
0
2
1
8
0
2
3
0
0
9
0
9
28
0
5
0
8
0
1
9
0
0
0
0
22
0
0
10
0
9
10
0
17
0
0
0
1
9
0
0
0
1
0
1
2
2
0
0
0
0
11
0
0
0
0
8
0
0
0
0
0
6
6
0
2
6
3
0
0
4
0
205
85
4
0
0
0
13
13
0
6
0
8
0
3
0
21
0
0
14
3
0
5
0
61
0
0
15
20
0
0
3
10
0
0
0
1
0
0
4
4
0
5
8
3
0
1
5
0
15
0
0
5
8
6
0
4
0
5
1
0
0
1
0
27
17
0
0
1
0
12
0
33
0
3
17
0
11
0
0
21
0
0
13
4
0
0
23
0
8
26
1
11
0
32
18
0
0
0
11
0
0
13
21
0
0
0
39
0
29
0
0
0
0
0
0
20
66
0
0
0
4
0
25
58
48
0
0
0
43
0
38
0
0
132
0
19
24
1
0
0
0
0
0
29
9
0
0
15
3
0
0
30
0
0
4
11
0
0
0
17
0
42
29
0
0
0
2
0
0
24
39
0
44
0
15
0
68
50
0
0
25
0
0
0
3
5
6
0
0
19
0
26
0
0
0
0
34
35
46
0
6
13
0
0
77
0
0
11
4
0
0
20
81
70
0
0
0
3
0
0
0
12
0
8
0
0
20
0
14
0
11
3
0
9
14
0
12
0
5
0
0
0
0
7
8
2
3
0
0
4
12
0
12
2
0
1
6
0
21
0
0
0
0
2
2
1
26
4
5
0
0
10
0
0
0
0
4
0
19
8
0
0
15
0
0
15
10
0
0
16
0
12
0
0
0
3
4
0
4
14
0
10
0
8
0
18
0
0
0
1
5
6
0
14
3
5
0
10
11
0
15
0
0
1
4
6
5
5
0
1
4
11
8
0
11
1
0
12
0
0
0
0
7
7
10
10
0
11
0
0
0
11
9
0
3
33
0
2
0
0
0
38
0
0
0
0
0
0
0
28
4
32
20
0
0
30
55
0
0
19
0
9
0
0
0
63
0
0
5
15
16
0
10
0
1
0
11
17
0
6
0
3
0
7
0
0
10
0
5
0
3
4
0
2
0
0
0
0
8
0
9
0
0
3
3
0
0
2
0
0
7
3
16
0
0
21
0
6
0
2
9
0
11
6
0
9
5
0
0
3
18
0
0
0
0
0
5
0
2
17
0
0
10
7
13
0
7
0
7
0
5
7
0
0
11
0
0
4
1
0
6
1
0
4
0
0
0
0
3
1
0
0
3
0
3
5
1
8
3
0
0
7
0
0
0
12
1
0
0
4
0
7
201
73
0
6
0
0
4
0
5
3
4
7
20
0
0
0
0
4
5
9
5
0
0
0
7
12
0
0
0
19
0
0
12
0
9
0
0
12
5
0
0
0
0
0
15
4
0
1
0
10
0
0
6
4
5
2
13
0
0
0
1
28
0
3
0
5
0
13
0
0
28
0
10
0
0
19
10
0
0
8
2
16
6
0
21
0
0
7
0
9
34
8
0
0
6
0
21
0
0
10
43
45
18
0
28
93
0
10
0
0
0
0
0
27
35
86
13
0
0
13
0
0
43
8
41
0
0
14
70
0
0
0
150
0
0
16
0
0
7
0
25
0
21
5
0
11
8
0
0
12
21
0
6
0
0
46
7
1
8
4
0
15
43
0
0
0
0
10
0
0
8
0
19
39
0
29
24
22
0
0
0
0
0
5
22
1
0
0
0
42
0
0
6
0
0
14
37
50
0
0
0
0
0
80
28
0
0
24
0
0
0
61
116
0
0
3
2
19
0
0
0
0
9
0
9
6
5
0
0
0
10
0
14
6
0
3
18
0
10
3
0
4
8
0
0
8
0
0
2
0
0
0
4
8
14
0
0
6
0
6
3
7
16
0
0
0
0
7
0
0
5
3
0
13
5
11
0
16
0
0
9
0
0
6
0
0
0
0
9
0
0
0
13
0
25
0
3
0
13
0
9
0
4
4
1
0
0
0
0
19
0
0
33
0
0
1
0
9
13
0
0
0
0
0
6
0
9
0
0
0
0
0
0
4
3
2
0
0
24
0
12
0
7
0
3
0
0
30
0
0
0
0
0
0
0
5
14
0
3
0
0
54
8
0
0
3
0
0
0
50
25
4
19
0
20
31
37
0
0
9
0
0
68
0
0
0
11
0
0
0
0
1
0
0
0
0
8
0
16
0
0
11
0
0
12
0
7
0
0
5
0
0
6
14
0
19
0
16
5
0
0
6
2
0
15
0
14
0
3
0
0
5
0
14
1
0
21
0
0
0
0
0
4
0
0
0
5
13
0
9
0
1
6
3
11
1
0
0
0
0
0
7
5
0
0
17
2
0
0
12
6
0
3
15
0
12
9
6
0
10
2
0
0
0
0
6
0
0
1
1
6
3
0
4
0
0
0
3
0
5
2
4
0
4
4
0
0
4
0
3
13
0
209
89
5
14
11
0
0
0
37
0
0
0
0
15
0
0
0
17
0
0
17
0
1
3
0
0
0
13
7
0
0
28
3
0
6
0
12
8
0
12
11
0
0
12
0
0
16
0
0
14
0
1
0
1
0
0
2
0
23
2
8
0
7
17
0
0
2
0
0
0
0
0
2
10
0
0
0
31
20
0
0
0
6
5
0
6
3
3
0
0
4
31
0
0
0
65
0
0
44
49
63
4
0
0
0
71
0
29
0
2
0
1
5
44
43
0
0
0
0
0
0
63
0
0
103
14
0
0
30
63
0
0
23
0
30
15
0
0
0
0
0
35
0
0
12
0
5
0
0
3
0
5
12
0
0
78
0
0
0
0
0
0
79
0
0
0
0
0
40
5
0
0
49
0
0
51
37
13
8
4
0
0
1
0
0
0
9
5
0
0
0
0
0
0
0
21
67
19
0
2
0
0
0
63
0
0
0
3
0
0
26
109
0
0
12
0
0
22
0
25
0
0
5
4
11
9
3
4
7
2
0
0
2
6
16
0
1
0
1
0
0
5
2
14
5
0
4
0
0
0
10
14
0
9
1
0
9
0
8
7
4
0
0
28
0
6
6
1
12
0
0
2
16
0
16
0
0
0
0
14
0
11
14
0
0
11
0
3
7
0
0
18
5
4
0
12
0
8
0
3
7
0
14
0
14
0
9
7
0
0
0
0
11
16
4
0
7
5
0
15
0
0
7
2
13
0
3
18
2
2
14
0
15
0
3
2
0
0
0
0
0
0
0
13
0
13
25
0
0
0
51
0
0
0
0
9
0
7
0
0
15
36
0
0
0
3
0
0
0
63
26
5
20
0
2
15
51
5
0
0
0
5
0
0
5
13
23
0
30
3
0
0
0
0
18
1
25
0
8
0
0
16
0
8
0
0
0
11
12
0
5
13
0
1
1
0
0
5
0
0
7
0
0
0
0
2
8
2
13
1
4
0
5
0
3
18
0
8
0
0
11
6
12
12
5
0
0
0
22
0
7
0
0
5
0
4
2
11
0
0
7
0
0
8
0
2
2
0
9
0
0
15
0
0
6
0
1
0
1
0
0
0
2
0
9
0
11
3
1
6
0
0
2
0
0
0
4
0
3
7
0
5
0
0
0
2
11
0
0
6
0
4
195
84
9
0
15
0
21
0
0
5
0
27
0
0
0
18
0
0
37
0
0
0
7
17
0
0
6
0
0
0
2
0
3
5
0
0
6
0
16
0
7
0
2
0
6
0
3
0
0
0
5
0
3
0
0
3
5
0
0
0
3
15
0
0
19
0
6
0
6
1
16
0
0
0
16
1
0
0
0
12
6
0
0
0
0
12
0
0
0
11
17
0
0
0
33
14
6
34
71
30
0
0
0
30
0
14
0
18
0
0
23
3
74
39
0
0
0
0
25
0
4
0
0
0
54
48
0
0
0
65
0
0
0
25
0
0
4
0
31
0
0
26
0
9
11
0
45
0
0
19
4
0
0
49
16
0
0
0
4
0
6
0
34
30
0
0
0
41
0
47
0
0
32
0
0
3
105
0
9
36
0
0
0
19
26
11
0
0
0
23
11
0
0
0
0
33
87
0
0
0
6
0
54
36
0
0
8
0
0
21
74
88
0
0
0
0
12
51
0
0
19
0
0
0
0
0
2
0
27
0
0
0
0
0
4
0
27
0
0
0
3
0
7
0
5
0
6
5
3
2
14
0
11
0
0
5
10
0
0
0
0
16
0
6
0
3
0
0
21
0
0
7
0
0
11
10
0
0
0
1
0
0
0
27
0
2
0
0
8
0
0
0
10
0
0
0
13
0
3
0
0
33
0
0
0
11
6
0
0
1
0
23
0
0
12
8
4
0
23
0
0
0
0
21
0
0
0
6
0
0
8
0
6
0
2
0
11
7
0
7
5
11
20
0
13
3
3
0
1
2
0
10
0
0
49
0
4
0
0
0
0
39
12
0
9
4
0
0
0
0
54
23
35
0
0
24
37
27
0
0
3
0
0
0
0
22
8
31
0
0
25
4
3
0
0
17
8
24
0
17
7
0
7
0
73
0
123
0
0
15
0
0
3
4
0
0
12
0
3
0
16
1
0
9
9
0
0
0
6
0
0
3
0
0
2
0
0
0
0
3
0
0
0
0
0
2
6
0
0
0
0
12
16
0
18
0
0
0
15
6
0
0
8
0
4
0
0
0
0
0
17
0
24
0
2
11
0
1
1
1
4
0
2
2
0
0
0
0
0
0
4
0
0
4
0
0
4
1
6
0
0
1
3
5
9
0
0
8
0
0
5
4
211
61
0
13
0
6
5
0
16
0
5
0
22
2
7
0
8
2
0
5
6
12
3
0
0
5
8
11
0
0
1
3
0
13
6
0
2
0
8
1
0
14
0
8
0
2
9
0
0
3
0
9
0
0
10
0
0
27
0
10
0
0
0
18
0
0
0
0
0
0
42
0
4
28
0
0
0
0
4
0
9
0
8
2
0
0
15
3
4
6
0
0
0
30
51
24
40
109
20
0
0
0
0
27
0
27
52
0
0
0
10
101
36
0
0
2
0
13
0
24
0
11
0
0
6
61
20
0
0
91
0
0
24
0
11
0
13
0
0
2
0
26
15
0
0
0
10
0
8
0
0
11
0
0
0
0
15
16
125
0
0
0
0
30
0
3
0
0
0
0
27
10
0
0
0
0
61
5
65
48
0
0
0
0
9
2
0
15
0
0
0
11
0
0
47
33
40
0
0
0
0
0
79
0
0
7
0
1
2
42
118
0
0
0
0
0
0
20
0
6
7
7
22
0
16
4
0
0
8
1
8
0
0
0
1
0
15
0
0
0
10
0
0
0
0
2
12
0
9
0
9
0
0
5
0
0
2
0
0
18
0
3
4
2
0
4
18
0
0
0
0
0
0
3
0
6
8
0
7
5
1
12
3
3
0
0
12
0
0
0
0
0
20
0
23
0
0
5
0
19
0
0
0
10
0
0
0
0
18
0
1
0
0
10
0
11
5
8
17
0
0
0
7
0
0
0
0
6
0
14
0
2
16
0
0
1
0
0
0
16
0
0
3
0
17
0
5
0
0
18
0
0
0
6
6
0
5
0
0
0
3
48
15
0
0
0
9
0
0
19
42
9
24
0
0
9
17
76
0
0
12
2
19
0
0
32
0
0
18
0
8
0
0
0
11
2
16
11
0
2
0
1
0
0
13
22
6
44
0
0
2
1
0
10
0
0
13
14
0
0
0
7
0
0
1
7
3
1
0
0
0
0
10
0
8
2
17
0
3
1
11
0
9
0
6
0
1
0
3
0
18
0
4
8
0
2
12
3
0
10
0
7
9
0
21
0
0
0
0
4
1
1
3
0
8
0
0
9
0
2
1
2
0
1
0
4
3
0
15
0
0
4
0
2
0
5
0
5
1
0
10
4
0
4
0
0
1
1
0
7
2
0
199
87
11
0
0
0
3
11
0
27
0
0
0
1
0
13
0
0
0
0
8
0
0
0
1
0
0
3
4
0
11
9
6
9
4
0
8
2
0
0
14
0
0
0
8
0
0
0
2
0
13
7
0
5
0
14
0
5
0
0
8
0
6
2
0
0
8
0
0
0
0
0
20
0
9
12
9
0
0
8
0
0
2
0
17
0
0
0
0
0
0
0
7
99
58
42
5
5
0
1
0
0
25
46
0
59
0
0
0
61
72
0
0
0
0
0
0
45
0
66
0
0
0
0
0
44
7
15
0
83
4
0
0
0
34
0
0
0
4
11
0
35
0
5
3
0
0
14
1
0
9
12
11
0
4
0
0
102
33
0
0
0
0
48
0
0
17
0
0
0
39
0
18
19
0
0
0
110
36
6
40
7
0
0
0
0
0
0
10
0
17
9
0
0
27
63
0
0
1
18
0
25
54
0
7
1
3
3
25
94
0
0
0
0
3
0
42
22
0
0
0
0
0
0
22
3
0
0
2
6
0
12
7
0
0
8
0
3
12
13
7
0
0
17
5
0
19
0
12
0
0
0
0
7
2
7
3
11
0
13
0
0
14
0
3
0
0
0
0
0
21
0
0
0
11
0
0
6
0
3
0
0
1
0
15
6
6
11
0
10
7
1
0
8
0
0
4
0
7
0
0
17
0
17
0
0
0
10
0
1
0
0
0
16
3
3
9
0
3
9
0
0
8
0
0
17
18
0
11
0
8
0
38
0
8
0
12
13
0
0
8
6
2
0
5
10
2
20
0
32
0
0
12
0
27
0
0
8
19
0
0
17
0
0
0
0
11
0
0
14
32
27
0
0
0
21
3
44
0
0
39
0
0
0
24
0
26
4
0
26
5
5
0
0
0
15
9
0
0
4
0
0
12
0
0
1
0
0
2
0
1
4
0
0
5
0
9
0
12
0
7
0
10
0
2
4
15
1
0
6
0
10
0
0
0
0
0
2
7
0
0
6
0
0
11
0
0
0
0
0
4
5
0
9
3
4
0
0
6
0
0
5
0
0
0
0
0
10
8
13
0
10
0
6
0
0
5
0
11
0
0
5
0
2
0
0
0
0
3
0
0
0
0
0
7
2
4
0
0
4
0
0
2
0
0
8
0
1
4
0
0
5
198
65
0
0
12
26
5
3
4
1
0
16
1
0
30
0
0
21
6
20
2
0
18
15
0
5
0
0
0
4
0
2
0
6
0
22
2
0
0
23
0
11
8
3
0
15
0
0
0
0
0
0
4
8
9
0
0
5
0
0
7
5
0
12
0
21
0
0
27
0
17
22
0
0
14
33
48
0
0
9
0
11
12
0
0
0
0
0
0
0
32
50
77
64
26
0
0
0
0
0
0
4
36
25
23
0
0
0
66
102
0
0
0
5
0
0
84
0
0
40
37
15
0
0
17
45
0
12
0
76
67
0
0
0
26
0
33
4
26
0
0
51
0
6
0
14
34
0
6
0
0
0
18
0
0
0
51
0
54
0
0
0
0
10
19
0
0
0
0
38
16
0
25
27
6
0
0
89
0
7
83
35
27
0
0
49
0
0
14
21
0
0
0
0
50
61
0
0
4
0
0
63
13
0
1
2
3
1
66
117
0
0
0
2
2
15
0
31
0
5
5
19
20
0
1
0
21
0
20
0
3
12
0
13
7
0
9
0
0
0
3
5
0
0
0
24
0
13
0
0
0
7
1
0
0
0
5
14
0
18
2
0
17
0
0
4
6
0
14
2
0
0
0
10
5
0
7
0
3
0
11
6
1
9
0
1
0
0
0
0
0
0
0
0
36
0
5
0
3
12
0
4
0
0
9
15
0
5
0
0
3
0
5
5
13
2
11
0
12
17
0
0
0
3
0
0
0
0
6
1
0
10
0
0
9
2
0
0
3
13
0
5
5
0
11
3
1
0
0
0
0
18
0
14
0
0
26
0
0
4
6
37
0
0
0
2
0
0
0
7
41
12
12
18
0
24
6
47
16
0
64
0
52
0
0
20
0
30
0
0
0
0
0
19
30
5
5
17
2
0
4
0
0
18
15
0
4
5
0
1
1
5
0
5
0
7
0
0
0
0
0
0
6
6
0
0
0
0
0
6
4
0
10
9
0
0
0
7
0
4
6
0
0
9
0
0
18
17
0
12
0
0
7
0
0
0
3
7
0
8
1
0
16
0
17
0
3
0
6
0
8
0
6
0
8
0
0
4
0
0
2
0
10
0
6
0
9
1
3
0
5
3
0
1
3
0
0
0
0
9
0
7
0
3
0
7
0
0
0
5
8
0
214
79
3
0
0
0
0
5
0
0
0
0
0
19
0
0
2
0
0
0
2
2
12
0
0
15
0
0
0
0
8
8
0
10
9
0
2
0
0
0
1
0
6
8
6
0
10
0
5
3
7
0
5
0
3
0
11
0
0
9
0
10
0
2
4
0
0
26
0
0
0
0
0
0
13
36
20
1
0
3
0
8
0
0
0
0
0
31
36
61
39
55
0
0
0
0
0
0
3
0
0
42
38
7
0
0
0
55
125
0
0
0
0
0
0
38
88
0
0
50
0
0
0
43
13
8
37
33
0
0
113
0
9
4
0
2
0
0
0
9
0
1
43
0
0
0
3
0
0
38
0
0
51
0
0
0
2
0
0
0
42
30
0
0
0
0
0
0
15
17
0
13
13
28
0
0
0
2
0
0
94
47
36
0
0
0
0
14
0
0
20
0
0
40
67
0
0
17
0
0
0
76
0
0
0
0
0
28
120
0
0
0
9
0
0
0
16
34
0
0
0
0
12
0
0
0
0
0
0
0
5
0
4
0
15
0
18
0
4
0
0
13
12
0
0
0
1
5
13
1
0
5
5
0
4
0
18
0
13
0
6
5
14
0
1
0
10
3
0
0
3
11
0
0
6
0
0
13
0
1
0
0
0
0
5
3
0
2
0
12
0
0
2
0
0
24
0
0
6
0
20
0
0
0
0
0
11
0
1
0
11
3
0
0
6
0
0
13
5
18
0
0
3
13
0
18
0
6
7
0
0
0
22
0
0
4
4
13
0
16
0
0
19
0
20
11
5
0
10
0
21
0
7
0
20
0
11
0
0
0
0
52
17
0
6
0
3
0
0
3
38
9
9
13
0
32
0
0
15
0
7
0
0
2
14
28
0
3
22
6
4
0
0
0
20
0
14
1
0
10
0
0
26
0
11
0
0
0
5
0
0
0
4
6
0
0
0
8
0
2
13
7
0
15
0
1
0
0
18
0
4
0
0
3
0
6
0
2
11
0
0
4
12
0
4
0
0
8
0
1
0
12
0
14
14
0
0
6
0
14
4
0
0
3
0
0
7
3
0
9
0
1
2
7
0
3
0
0
6
8
0
2
5
4
0
1
0
0
0
9
0
6
0
4
0
4
8
0
6
0
7
0
1
6
0
0
3
0
0
6
0
4
202
93
15
0
28
0
19
3
0
2
0
22
0
0
10
5
27
0
0
0
4
0
0
0
9
0
0
10
0
8
8
0
2
11
0
0
13
0
7
6
0
0
11
0
0
4
0
0
0
0
0
7
0
15
3
25
0
4
5
0
12
0
22
0
2
22
12
0
0
13
3
1
0
0
21
18
0
0
0
3
0
0
0
0
3
61
57
66
19
0
11
0
0
0
0
0
21
0
0
11
5
43
69
23
0
0
77
84
0
0
7
0
5
0
0
76
34
0
0
34
0
0
0
111
0
0
27
36
0
0
113
29
0
3
0
0
14
0
78
0
0
34
0
0
5
0
25
0
0
1
0
0
5
0
0
0
0
28
0
15
0
0
38
2
0
0
3
2
33
0
0
43
25
0
25
0
0
0
1
0
23
65
65
53
0
0
0
1
7
0
0
0
0
43
48
0
0
0
0
0
20
36
0
10
10
0
5
86
50
0
0
16
8
0
29
0
20
51
0
0
0
0
13
14
0
14
0
13
2
2
0
18
0
16
11
0
0
3
0
0
5
0
2
0
7
11
0
2
5
0
2
0
17
0
7
25
0
0
0
0
15
0
3
21
0
6
0
8
0
8
17
0
0
8
11
0
9
0
8
12
0
11
0
10
0
13
1
0
3
0
5
0
9
0
0
6
0
3
0
0
0
0
0
0
11
0
0
0
0
8
6
0
0
14
13
16
4
0
11
14
0
0
0
1
0
0
0
13
0
0
0
0
0
0
8
0
0
2
10
0
4
0
8
3
23
0
0
0
0
3
0
0
0
9
3
0
29
0
0
1
0
2
48
0
0
1
0
11
0
6
30
7
11
20
0
20
7
26
9
0
0
12
0
7
7
0
14
0
0
2
0
0
12
12
7
5
0
0
0
6
0
0
0
2
9
13
0
12
0
6
8
0
0
8
3
0
8
7
0
0
0
0
11
2
4
16
4
11
0
10
0
0
7
0
0
0
19
0
0
12
0
0
0
5
0
7
5
0
8
5
0
13
0
0
0
0
4
15
0
0
0
4
0
1
0
0
11
0
10
5
10
3
0
12
0
3
4
0
5
0
2
0
0
5
5
0
3
0
5
0
9
0
4
0
11
0
0
6
0
2
0
6
0
0
4
6
0
0
7
0
0
0
207
73
0
0
0
6
7
0
25
2
11
0
0
0
0
0
0
11
11
0
27
14
0
12
0
0
0
9
0
22
0
8
0
0
3
4
0
11
0
0
6
10
0
19
0
0
7
8
0
1
29
0
0
5
3
0
11
0
17
0
1
1
0
11
0
0
0
0
1
0
26
0
10
0
37
38
0
0
17
0
0
0
0
38
46
43
17
0
0
0
0
21
2
0
0
26
0
0
49
12
6
58
41
0
0
65
95
0
0
0
12
27
0
0
0
83
6
0
38
17
0
0
0
79
33
0
0
52
0
0
34
75
0
0
0
14
0
0
12
9
0
0
28
0
9
0
0
11
4
9
0
11
14
0
0
3
10
0
18
0
0
37
31
0
0
6
66
17
0
0
18
24
0
16
42
3
0
0
0
2
2
26
0
26
0
0
0
21
0
0
0
0
64
70
0
0
0
0
0
4
54
0
3
1
0
4
59
122
0
0
0
0
0
0
0
0
0
52
0
3
0
2
0
0
9
2
0
0
0
1
0
6
0
2
0
0
0
6
5
12
0
0
0
20
0
8
0
3
0
0
0
7
0
17
0
0
18
3
0
12
0
2
1
1
15
0
0
5
9
5
0
0
7
1
0
14
1
7
0
14
0
0
16
0
11
0
0
0
0
5
0
10
0
10
0
0
6
11
4
0
0
0
12
0
0
11
0
6
0
5
0
0
6
16
0
4
0
6
3
25
0
0
6
32
4
0
10
0
16
0
0
16
2
0
9
0
19
0
0
11
13
0
0
4
11
4
0
0
2
0
0
0
1
21
0
19
17
0
0
0
7
6
43
0
0
8
0
14
0
4
19
16
36
8
0
58
13
12
6
0
0
0
0
0
19
0
0
1
0
11
0
21
5
0
7
9
19
1
3
0
0
0
8
0
5
4
0
0
0
11
6
9
0
0
7
0
12
1
0
0
8
13
0
6
0
0
0
0
17
0
6
0
11
0
1
10
0
0
15
0
7
0
15
0
0
0
0
11
6
0
0
0
0
6
26
0
0
0
22
22
10
0
0
0
0
14
0
5
5
0
0
0
6
0
8
0
0
5
0
3
0
1
8
0
0
0
0
1
0
7
0
0
7
0
1
0
1
0
9
0
4
4
0
0
7
0
6
0
0
9
1
3
203
94
18
0
18
0
1
12
0
0
0
11
0
1
22
13
2
0
0
21
0
0
0
0
0
0
0
0
20
0
0
9
8
6
0
0
9
0
5
8
2
0
0
1
0
0
0
0
0
0
0
0
8
0
10
5
0
12
0
22
0
0
13
1
18
0
0
0
1
0
0
0
0
0
0
65
31
0
0
0
0
19
55
52
33
0
0
0
0
27
57
0
0
0
17
0
0
0
45
0
33
55
0
0
69
86
0
0
10
0
23
4
0
0
43
35
10
0
153
38
0
0
28
48
0
0
0
55
34
0
12
107
0
0
6
23
20
0
55
0
0
3
21
0
0
0
4
0
0
0
0
0
0
16
38
0
11
13
0
0
11
0
30
0
0
42
37
0
0
41
6
4
26
11
43
25
0
0
0
11
0
43
7
31
0
0
3
0
0
0
0
1
48
78
0
0
0
0
0
0
26
2
8
0
0
38
144
0
0
0
0
0
28
7
0
0
17
38
0
5
0
0
0
25
0
29
0
3
0
14
0
6
0
24
0
0
10
0
0
0
0
0
0
8
0
6
0
0
0
27
0
8
10
0
22
0
2
8
1
2
9
0
21
0
3
0
0
8
8
0
4
9
0
0
7
0
7
0
8
0
0
3
0
3
0
9
0
0
12
0
0
0
0
7
0
0
6
0
12
3
7
0
0
12
0
0
0
5
11
0
3
0
3
0
6
0
0
17
0
16
22
0
0
0
7
0
0
4
0
5
4
0
0
0
25
0
0
0
0
14
0
5
16
9
0
13
0
42
0
0
45
0
9
4
1
0
44
0
0
34
0
15
68
0
0
7
5
0
0
0
30
17
16
30
0
3
33
0
65
0
0
0
9
0
21
18
0
11
7
0
0
0
10
2
7
10
16
0
18
9
0
0
18
0
17
0
0
6
0
0
0
5
9
0
3
1
0
0
10
0
7
0
0
0
0
0
14
17
3
0
0
6
8
0
0
11
0
14
8
2
0
0
3
0
6
0
3
0
3
0
5
3
0
0
0
0
0
11
0
0
13
0
6
0
2
0
0
5
5
0
4
6
0
14
0
0
4
2
0
0
0
5
0
0
13
0
0
5
0
6
0
5
2
0
2
7
0
1
0
0
0
0
3
3
0
11
0
0
0
0
6
0
206
63
0
24
0
0
6
0
17
3
27
0
31
5
0
1
0
3
0
13
0
25
7
0
16
18
0
8
0
0
0
8
0
0
27
0
0
7
0
0
12
0
11
2
2
3
0
8
0
6
0
0
6
2
10
0
0
0
10
0
7
7
4
4
0
5
0
3
0
12
27
0
0
6
0
0
66
19
0
0
25
66
51
0
0
0
0
27
42
20
0
0
0
0
3
0
37
83
0
9
42
0
0
27
85
0
0
0
0
31
0
0
0
31
40
28
0
0
106
0
0
0
84
10
0
0
0
44
19
0
0
121
26
0
1
15
0
9
1
2
0
17
0
4
2
0
6
13
0
5
0
0
15
0
0
0
58
64
29
2
12
0
0
0
0
24
0
5
37
11
0
77
0
3
36
28
4
0
12
0
0
71
73
0
0
0
0
0
0
0
0
13
94
8
0
45
0
0
0
53
0
4
0
0
19
130
0
0
0
0
3
14
0
0
5
0
25
19
0
0
0
11
5
2
0
22
5
0
4
0
19
1
0
0
8
8
0
12
0
0
15
8
7
0
0
1
3
16
0
3
0
1
1
0
0
14
0
8
6
0
0
0
0
0
17
10
16
2
0
0
3
0
9
0
6
3
0
0
8
1
3
3
0
18
0
0
3
9
0
7
0
1
7
6
7
4
0
2
7
1
0
5
2
1
0
0
0
0
0
0
1
0
0
11
0
1
14
2
8
5
30
0
0
0
4
0
5
0
8
0
6
0
5
6
0
7
0
12
0
1
0
0
7
0
1
7
0
0
0
0
0
0
0
1
0
0
9
0
0
21
0
1
43
0
7
0
0
0
0
0
32
14
9
24
0
0
65
0
20
0
0
0
0
0
17
0
0
0
0
1
0
0
18
0
30
0
3
0
3
0
0
21
6
0
1
0
8
0
7
0
0
0
0
1
1
0
4
2
0
13
0
0
13
0
5
0
0
0
0
12
0
2
0
3
7
0
0
0
0
9
2
3
1
0
2
0
8
12
7
19
0
0
4
0
13
0
6
0
7
16
0
0
0
0
11
0
0
17
0
8
0
1
9
0
0
4
1
0
0
6
0
3
0
4
0
6
0
1
0
0
1
0
3
0
0
0
2
5
0
1
1
0
9
0
5
0
2
0
1
2
0
3
208
82
3
0
0
0
6
0
0
0
17
0
0
3
6
0
1
15
2
0
8
0
2
9
0
0
0
0
0
1
0
27
0
8
5
5
8
4
0
10
0
0
0
21
0
0
4
0
8
0
10
0
0
8
0
0
12
0
0
22
0
0
4
0
15
0
0
8
0
0
0
3
6
0
0
0
59
62
31
12
0
25
0
0
17
0
34
36
0
0
26
0
0
0
17
0
42
83
0
0
33
0
0
63
0
0
89
16
181
0
0
0
13
63
0
0
0
48
77
0
0
0
66
0
33
0
0
44
29
0
0
69
106
0
0
20
0
0
11
0
0
0
11
0
0
1
0
2
7
0
0
43
65
0
0
0
21
20
61
28
0
0
0
0
0
0
23
28
9
5
0
86
19
0
25
20
4
0
0
0
0
96
0
0
0
13
1
2
0
0
0
40
50
0
0
13
0
0
5
36
0
9
10
1
111
42
0
0
7
0
12
0
0
25
0
0
7
36
0
0
0
4
3
0
12
0
0
1
7
9
0
20
16
0
0
0
5
15
0
5
0
0
1
7
0
0
0
26
0
0
10
0
8
5
0
18
11
0
7
7
0
4
0
2
0
0
0
6
0
0
5
8
4
0
0
15
0
14
8
0
10
1
4
0
9
0
7
4
0
0
7
0
3
0
0
2
0
0
0
0
0
0
0
1
1
0
0
9
0
1
8
0
0
1
0
3
7
13
7
11
24
0
0
13
7
0
8
0
13
0
0
0
14
0
0
10
9
0
7
0
15
4
1
0
16
2
0
0
0
0
0
0
35
0
0
7
9
15
0
15
6
0
66
0
0
6
3
0
2
0
23
20
2
21
1
0
65
0
60
0
0
0
8
0
37
0
0
0
14
0
0
15
0
18
13
16
0
4
0
0
1
16
0
10
0
0
0
0
2
0
12
6
0
0
0
1
7
2
6
6
0
7
8
0
17
0
0
12
11
0
5
0
0
6
0
7
0
6
1
7
0
1
0
1
5
0
10
0
0
0
3
0
0
0
3
11
7
0
0
5
0
3
0
2
0
9
11
0
7
0
2
2
0
1
0
4
0
0
4
0
1
0
3
0
3
0
3
0
6
0
5
2
2
0
1
2
0
0
0
1
0
0
0
12
0
7
0
4
8
0
0
0
215
80
0
1
0
0
14
0
0
0
0
12
10
0
0
0
0
4
0
7
13
0
4
6
1
0
0
0
0
26
0
9
14
0
0
0
3
4
0
2
14
1
9
0
0
14
0
0
3
3
0
3
2
9
0
6
0
1
13
0
12
0
14
6
0
3
0
0
0
1
39
0
0
10
0
0
0
11
48
23
9
0
0
0
0
0
0
0
7
0
10
24
0
0
28
0
26
43
0
45
0
0
81
2
11
0
0
52
19
0
0
0
41
10
16
0
34
50
0
0
0
27
67
0
0
0
0
67
55
0
0
0
115
0
0
3
0
0
25
10
45
0
20
0
12
0
7
8
11
0
0
0
10
0
20
0
0
0
21
32
0
0
0
0
51
0
8
7
31
5
0
26
109
35
46
29
53
0
0
1
0
27
0
0
3
0
1
0
0
0
28
46
6
0
0
0
0
0
42
20
0
7
0
66
111
0
0
0
0
12
0
7
13
0
0
0
13
65
0
0
10
6
0
0
0
3
2
2
4
0
9
4
14
0
3
2
0
3
0
7
6
4
0
0
14
0
0
2
6
0
0
6
16
0
0
0
0
1
14
0
1
0
6
1
0
0
0
3
12
0
6
0
6
1
0
2
9
0
19
0
6
7
0
10
0
22
0
1
6
8
0
3
0
11
0
9
10
0
11
2
0
0
7
0
8
0
4
0
2
0
5
0
0
0
5
5
8
6
2
0
31
0
0
19
11
0
5
5
0
1
0
11
0
5
0
0
0
16
0
4
0
0
0
5
7
12
12
0
8
0
7
33
0
2
0
21
0
0
0
32
0
30
38
0
1
0
0
0
0
0
0
27
17
10
19
0
58
10
5
8
0
0
0
37
14
0
0
35
0
8
0
5
26
0
6
0
3
2
0
11
0
0
0
14
4
4
0
4
9
0
14
0
4
0
0
17
0
4
2
0
10
0
0
14
0
0
0
0
0
16
0
8
10
0
0
0
3
0
15
0
9
0
9
8
2
0
16
0
7
0
0
0
0
14
0
0
0
16
14
0
11
0
0
0
4
3
2
0
11
0
9
1
0
7
0
3
6
0
2
0
5
0
0
2
0
0
0
4
0
1
3
1
3
0
1
0
1
0
7
0
0
9
0
0
5
0
18
0
0
2
0
2
208
84
0
22
0
27
0
1
0
20
0
0
0
16
0
14
15
0
2
18
0
12
0
0
0
12
8
0
0
0
10
7
0
3
10
5
0
0
8
0
6
0
0
4
6
0
15
11
0
5
0
5
0
6
7
5
0
0
0
11
0
0
7
0
0
12
0
0
0
6
0
0
16
0
20
0
12
1
0
3
28
0
2
29
0
0
0
4
18
10
33
18
0
0
0
0
6
27
6
25
0
0
27
0
2
0
48
0
0
0
27
10
0
15
0
0
65
36
0
5
0
0
39
0
0
16
0
40
61
0
0
0
86
0
0
14
0
0
0
0
1
0
16
0
0
20
0
11
0
0
0
30
0
0
65
0
0
2
0
12
24
0
0
0
123
0
0
0
27
0
0
0
25
82
73
86
49
0
0
0
5
0
0
30
0
0
12
0
0
0
54
82
0
0
12
0
0
2
62
1
16
3
42
126
0
0
0
20
0
0
29
0
0
5
0
0
33
15
12
0
5
13
4
10
17
3
10
0
3
6
0
1
0
11
3
0
12
0
0
13
0
0
0
8
0
45
0
10
0
0
9
7
0
12
3
3
0
1
0
7
0
0
11
0
1
1
0
0
5
11
0
4
0
0
0
0
6
0
0
1
0
0
0
12
0
0
8
1
0
9
2
0
0
7
2
6
0
0
0
0
10
13
0
0
0
19
0
15
0
8
10
2
14
0
3
11
2
11
2
7
8
29
0
2
5
0
0
0
15
0
7
28
0
2
0
27
0
9
0
5
0
0
25
0
16
0
0
0
0
4
0
0
8
4
0
0
37
0
0
12
2
0
38
0
0
0
0
0
0
0
8
34
16
29
0
0
63
0
27
48
0
0
0
5
5
0
10
0
0
1
0
20
0
37
1
0
12
4
0
0
4
19
0
4
0
2
0
0
8
0
0
8
3
0
6
11
2
0
6
1
4
2
9
0
0
7
0
0
1
0
2
2
0
8
2
3
0
7
3
4
0
0
0
0
0
0
8
0
14
4
10
0
0
11
6
0
13
0
0
11
0
7
0
14
8
4
0
0
0
5
0
0
7
0
11
0
0
0
1
3
0
0
0
0
6
0
10
0
0
7
0
0
0
5
0
0
5
2
0
0
0
3
0
4
0
3
0
6
0
0
10
0
206
72
0
0
0
13
0
4
8
0
17
0
7
0
0
8
0
3
14
6
0
0
2
7
12
0
1
0
17
0
8
11
10
0
9
4
0
7
0
0
12
0
5
5
1
6
0
3
6
1
6
0
7
0
0
8
0
2
7
0
0
16
0
2
0
0
0
0
0
0
25
3
1
0
0
2
0
0
0
0
0
0
29
4
46
35
28
10
0
38
25
0
9
0
0
0
70
0
22
14
0
35
18
4
0
52
53
0
0
0
70
31
0
0
0
46
96
0
23
57
0
1
76
0
0
24
0
13
43
9
0
0
88
72
0
0
0
0
12
0
0
0
33
6
6
0
20
0
6
0
48
0
10
0
86
0
100
0
0
41
0
0
0
0
104
36
0
36
30
31
0
0
0
0
0
0
1
0
14
0
0
30
15
0
1
60
0
0
0
14
53
26
0
2
0
0
0
45
9
9
32
1
99
19
0
0
0
0
15
4
0
13
0
3
2
0
24
22
18
0
0
19
0
10
0
0
0
0
11
2
5
0
11
6
3
0
19
3
2
0
6
0
13
0
9
8
0
11
0
0
0
13
0
2
0
7
0
0
4
13
0
4
0
0
0
12
6
0
7
0
3
0
9
6
2
14
0
0
0
16
0
0
6
0
8
0
5
0
4
0
0
0
0
1
0
22
1
0
7
0
1
7
0
0
4
0
5
0
0
0
0
0
0
3
0
10
10
7
8
5
10
13
0
10
7
7
4
1
0
1
2
0
4
0
3
2
12
2
0
1
13
13
0
2
0
18
0
0
11
0
14
0
14
0
48
25
0
29
2
0
9
0
26
0
46
0
0
0
2
0
0
18
27
8
15
0
42
0
9
28
0
40
4
0
8
0
0
22
0
64
0
5
19
1
5
7
0
0
6
0
0
12
1
11
0
19
0
10
0
15
0
9
0
0
15
0
0
7
0
2
2
0
0
12
4
25
0
56
0
7
0
0
0
0
5
0
0
0
0
5
15
0
0
18
7
8
0
0
0
0
2
0
0
0
14
12
0
12
0
0
0
0
11
9
1
2
14
0
12
0
0
2
3
2
0
10
0
0
5
3
0
0
2
0
8
4
2
0
8
0
0
3
3
1
5
0
0
1
9
0
6
0
0
0
0
4
1
0
8
0
0
0
202
93
12
0
6
1
0
0
0
0
0
15
0
15
0
23
0
3
0
1
9
9
4
0
6
14
0
0
10
20
2
0
0
3
2
0
0
4
1
8
0
25
0
3
3
5
1
0
0
0
0
0
0
18
0
0
3
0
0
11
10
0
13
0
11
0
13
9
3
6
0
0
17
3
0
6
0
0
0
0
19
51
0
0
0
31
0
45
0
0
32
27
0
0
0
0
20
0
5
0
0
0
17
0
2
78
0
0
43
25
26
2
0
0
0
16
88
0
0
35
0
0
37
0
0
0
28
0
81
0
0
0
24
120
0
0
0
22
0
0
26
0
0
0
0
0
0
36
10
15
0
14
0
0
21
65
0
0
0
6
0
0
0
14
0
0
0
12
8
0
0
0
0
15
0
0
0
0
0
44
0
24
9
0
0
0
0
50
0
8
43
0
0
41
4
0
0
52
6
63
0
0
110
0
0
0
0
9
0
12
4
0
20
0
0
0
28
34
23
0
21
0
14
0
13
0
11
8
0
11
0
0
2
3
0
3
0
0
7
4
0
25
0
0
0
0
0
0
17
0
11
2
0
10
0
0
1
5
0
0
9
0
9
7
13
0
0
0
0
7
7
0
3
7
0
0
0
0
0
0
0
10
0
0
12
8
5
0
0
0
4
1
6
9
1
12
3
3
1
0
0
0
0
11
0
0
2
6
0
13
0
4
0
4
0
9
14
7
4
6
6
30
0
9
1
6
1
4
0
4
20
0
0
0
0
0
0
0
7
0
0
30
0
21
8
0
0
0
0
0
8
0
8
0
0
0
11
0
0
41
0
0
0
54
0
10
0
0
0
11
0
21
8
5
15
0
26
0
20
62
0
0
0
18
1
3
0
0
0
1
0
0
8
12
2
4
14
0
0
0
11
0
12
0
10
0
9
0
2
0
0
0
18
7
0
6
0
0
5
0
8
0
0
10
0
9
0
0
6
0
0
5
0
1
0
0
6
7
0
0
7
2
0
0
0
0
7
0
8
12
0
11
7
0
0
0
10
0
11
0
2
7
0
0
0
7
0
9
0
0
2
0
1
0
8
0
0
12
3
0
0
0
6
0
0
1
0
6
0
6
0
0
1
0
0
3
0
7
0
4
0
2
6
1
0
0
0
0
5
0
3
4
203
74
0
0
0
7
0
3
15
12
0
8
12
20
0
0
30
0
0
16
0
2
0
0
31
0
0
0
0
0
0
23
8
0
3
0
9
0
0
6
0
0
13
6
0
3
2
0
1
19
0
0
15
0
10
7
0
15
7
0
0
1
13
0
0
25
0
0
0
0
9
1
0
0
0
0
0
0
6
24
35
3
0
0
0
0
4
0
12
18
34
0
0
31
22
60
0
35
0
0
26
21
15
3
32
0
0
18
72
25
0
0
5
0
0
107
18
0
0
0
0
26
35
2
0
8
26
1
65
0
0
0
0
136
0
0
8
0
4
68
0
0
9
0
58
2
41
0
4
0
5
0
0
0
0
92
0
0
25
0
4
22
0
108
0
0
0
0
0
0
0
61
121
60
5
0
3
0
0
0
16
4
14
0
9
0
17
10
0
37
43
0
5
0
0
7
56
50
48
0
0
35
0
0
0
0
0
0
0
12
0
0
13
0
13
0
39
33
12
0
0
10
0
0
0
0
19
0
0
5
2
0
0
0
5
1
12
3
2
0
10
0
7
0
0
10
0
0
0
0
0
0
1
4
12
3
0
1
0
5
4
0
0
1
2
0
15
9
0
2
18
0
1
1
4
9
4
0
7
0
7
8
4
8
4
1
0
5
4
0
0
0
6
1
0
0
0
0
0
0
0
24
0
0
0
6
9
0
12
0
0
12
4
7
0
0
10
8
5
8
3
42
0
0
0
0
0
7
0
4
0
7
3
17
0
0
9
0
0
4
1
0
30
15
5
0
0
8
0
14
0
11
21
0
0
0
16
0
25
30
0
22
0
0
0
0
0
0
15
0
0
27
20
29
0
0
0
40
0
14
36
0
14
0
4
0
10
0
0
12
0
18
9
28
0
0
2
0
1
0
0
30
4
6
2
2
8
0
5
4
0
13
0
14
1
0
1
4
0
3
0
0
2
0
0
0
0
3
0
0
10
13
0
8
6
0
0
0
4
0
6
0
18
6
0
20
0
7
0
0
4
4
0
9
22
8
0
1
1
0
7
0
4
8
17
0
4
0
1
6
0
0
0
0
3
0
12
0
0
0
0
7
0
7
3
0
1
3
6
0
0
0
1
0
3
0
2
0
0
0
3
5
0
0
7
0
1
0
0
5
2
0
210
82
4
0
0
0
0
2
0
0
0
13
0
0
23
0
14
0
0
0
0
0
2
3
0
4
0
10
0
23
0
14
0
0
9
7
0
0
3
1
0
16
0
0
13
0
6
0
0
0
0
0
0
2
5
2
1
0
8
2
6
2
0
0
2
0
4
0
3
0
0
0
8
0
0
0
39
0
9
20
17
0
0
11
0
0
0
0
0
17
0
0
7
0
24
0
0
24
0
0
14
42
19
16
0
0
46
37
0
0
0
0
0
0
45
93
0
0
5
11
0
26
51
0
0
17
28
0
51
47
0
0
0
122
47
0
0
0
0
0
0
0
0
61
35
21
0
0
0
0
1
0
11
0
0
51
0
0
67
39
0
0
78
119
72
65
0
0
5
24
59
57
12
27
2
0
0
0
0
0
34
0
0
0
0
0
40
29
0
0
1
0
0
0
0
25
91
12
0
0
0
30
61
49
64
4
0
0
31
0
12
7
0
0
0
0
26
35
1
0
0
20
16
6
0
22
0
2
19
0
5
0
11
3
0
0
9
0
1
1
3
0
0
6
16
0
0
0
13
6
13
0
0
12
0
0
11
2
0
8
4
0
0
1
0
13
0
16
1
0
3
0
5
8
6
0
8
0
0
4
15
0
0
0
26
0
0
0
0
0
10
0
11
0
14
0
9
0
1
30
0
0
5
0
0
0
7
2
16
0
0
1
6
0
0
10
11
9
13
0
7
31
0
8
0
0
2
3
5
8
9
0
0
0
0
10
0
23
0
10
0
8
2
28
0
0
0
12
0
0
11
21
0
0
0
36
0
5
0
0
3
0
31
0
29
0
2
0
5
0
0
23
8
35
0
18
0
19
3
30
8
0
49
0
0
0
29
10
0
15
14
0
1
7
14
10
8
0
16
0
19
0
6
1
0
5
3
1
0
0
8
0
0
0
16
0
4
1
0
12
0
1
0
0
8
10
0
0
0
2
0
0
18
0
2
1
3
9
1
0
17
0
0
0
0
0
0
0
0
0
0
0
0
12
0
0
0
12
0
0
9
0
0
10
10
0
2
7
1
0
3
1
3
1
1
4
0
0
12
5
1
0
0
2
0
1
4
0
0
0
6
0
3
0
3
0
0
5
3
9
5
0
15
0
0
1
12
0
2
1
0
4
209
84
0
20
0
16
0
0
2
10
0
8
3
0
0
0
0
4
0
12
2
16
15
0
12
4
0
0
0
0
0
14
1
9
0
2
11
9
0
0
0
0
0
13
7
0
3
1
2
2
0
0
7
6
4
0
3
20
0
0
0
4
8
0
15
9
0
1
0
9
0
0
0
0
28
0
25
43
34
0
0
0
0
2
0
33
0
7
13
4
0
3
26
21
0
19
26
51
0
5
21
0
52
0
0
0
21
2
0
18
11
0
0
8
87
31
0
0
0
0
17
27
72
0
0
0
60
0
33
36
0
0
0
13
109
0
0
14
0
0
0
0
58
10
0
6
0
0
19
0
0
0
65
66
0
39
3
0
5
142
0
0
0
0
0
83
115
76
64
16
0
0
13
0
0
0
6
0
0
26
6
0
0
0
0
92
33
17
26
0
0
0
0
0
0
0
0
0
0
0
53
42
0
0
0
0
9
0
0
0
27
0
3
122
0
0
6
52
0
0
4
0
0
0
16
0
2
0
24
0
2
5
0
24
0
0
9
0
0
0
9
4
0
16
0
16
2
4
3
0
0
0
0
28
0
13
0
0
0
0
2
7
0
11
0
9
0
0
0
0
0
9
0
0
0
2
0
2
6
0
1
0
0
9
3
0
0
0
0
0
4
2
2
1
7
1
0
0
16
0
19
0
5
0
10
0
0
6
0
0
4
0
7
17
0
5
0
13
16
18
0
33
0
0
7
11
0
3
0
0
5
0
1
1
6
0
0
8
0
9
0
7
24
0
0
9
0
0
25
23
0
21
6
0
7
15
2
10
17
14
0
28
8
0
17
0
2
0
18
0
0
73
0
42
0
11
0
26
8
43
0
0
23
31
0
0
0
0
0
20
17
6
13
0
23
0
19
0
0
12
0
7
8
0
14
0
0
0
0
0
0
13
5
5
0
0
15
0
0
10
14
0
0
3
0
4
6
11
5
0
0
10
2
0
0
24
0
0
7
0
5
0
13
0
0
61
0
13
9
6
0
0
21
0
1
0
0
5
0
0
7
8
3
0
7
0
2
9
0
4
0
0
3
0
4
1
4
0
0
0
5
0
5
0
0
2
0
3
0
1
0
4
0
4
0
0
0
0
0
0
0
0
0
1
0
0
4
2
0
0
0
0
208
90
5
0
7
0
15
0
1
0
16
7
0
3
6
7
0
0
0
6
0
0
0
0
0
2
0
0
1
0
5
17
1
0
0
6
0
0
2
0
0
0
0
0
0
6
1
0
2
0
2
8
0
1
0
15
0
0
12
0
7
7
9
0
23
0
0
0
7
0
0
0
0
0
25
26
27
38
0
3
0
8
16
0
0
0
3
16
0
29
4
0
20
0
0
28
24
0
0
68
0
52
38
0
2
43
47
0
0
46
9
0
0
53
76
0
14
0
0
0
6
0
75
0
0
0
50
31
16
46
0
0
0
0
123
0
0
11
0
0
31
50
0
0
0
0
0
9
29
0
0
0
8
0
6
0
22
178
53
146
49
0
0
0
0
0
0
0
0
0
0
0
0
0
1
0
17
0
0
33
2
0
0
0
38
92
0
20
28
3
6
15
0
0
0
0
0
19
2
76
58
53
35
0
0
3
0
13
0
44
0
0
0
0
0
0
37
41
0
22
0
0
22
0
25
0
17
1
0
3
4
4
15
0
0
0
6
0
0
13
0
0
10
0
2
0
0
16
0
7
1
1
0
0
6
3
0
0
14
0
0
24
0
4
11
0
7
6
2
3
0
3
0
0
5
0
8
3
1
0
0
0
9
0
14
0
17
0
3
0
0
13
0
10
1
14
0
5
0
0
8
6
6
0
0
0
5
0
0
3
0
0
12
0
3
0
5
9
11
0
19
30
0
0
0
3
8
0
1
0
6
0
6
0
4
0
0
13
0
1
21
25
5
0
0
0
4
0
0
0
11
0
9
0
1
5
0
0
13
1
4
24
0
0
32
0
0
0
24
0
0
23
8
42
0
9
0
0
5
22
22
0
0
17
0
0
17
0
0
29
8
0
9
6
0
7
3
1
0
0
25
1
0
17
0
7
4
8
1
8
37
0
0
5
0
18
0
16
0
0
12
0
1
0
0
0
0
9
0
3
0
0
3
0
17
0
0
0
0
0
3
0
0
1
0
0
0
2
0
0
16
0
4
0
9
0
3
1
0
0
13
0
2
3
6
0
0
3
3
1
7
0
0
5
4
0
5
0
2
0
0
1
2
3
5
0
7
0
0
6
0
0
9
0
0
4
0
7
10
0
0
10
0
3
1
0
0
0
2
0
3
0
205
78
0
11
3
11
0
5
0
12
0
0
0
0
0
0
26
13
19
0
15
3
16
0
21
0
0
0
0
0
10
7
0
0
14
0
0
15
1
0
18
13
1
9
6
0
0
10
0
1
13
0
4
0
4
0
0
3
0
0
0
0
0
3
0
8
0
0
0
0
0
7
44
41
60
26
0
0
0
13
8
9
0
18
13
12
0
0
28
0
0
35
0
38
0
32
0
0
42
34
0
35
0
0
46
0
0
0
46
0
64
0
0
56
67
0
33
0
0
0
1
31
72
0
0
0
0
47
10
42
0
0
9
0
128
11
0
0
34
48
7
21
0
0
0
0
17
38
12
0
8
18
0
0
0
9
0
65
0
0
0
0
0
5
0
0
0
17
28
0
0
11
0
0
0
0
0
0
5
2
0
0
0
0
130
3
0
4
0
0
14
43
18
11
5
12
14
51
41
22
13
0
0
0
0
0
0
0
52
0
20
0
1
4
0
0
25
12
26
11
0
13
0
22
0
1
7
10
1
1
0
0
31
0
0
20
0
0
0
2
2
7
0
1
0
4
1
0
10
0
7
0
17
0
0
0
21
1
0
5
9
1
14
0
1
2
1
0
10
0
0
23
0
0
5
0
19
0
0
3
0
29
0
16
8
10
0
0
1
0
0
0
26
6
3
0
0
0
30
0
6
19
8
0
3
0
0
0
0
6
8
0
3
10
0
6
0
0
8
12
13
26
0
0
23
10
0
13
12
10
0
3
0
16
0
8
0
0
4
22
0
22
0
0
0
0
0
13
11
0
20
0
2
0
5
8
7
2
0
0
14
7
7
0
13
4
0
0
32
3
0
37
12
15
8
0
0
0
34
0
17
13
0
0
0
0
0
0
0
0
56
0
20
0
0
14
0
0
0
10
7
2
4
0
11
0
0
13
0
0
0
11
2
0
0
0
5
0
4
0
0
10
0
13
0
0
1
0
12
0
0
0
0
30
0
0
0
6
11
0
12
0
3
1
0
13
0
3
14
0
20
0
0
11
8
7
0
4
0
1
0
0
8
6
0
6
7
0
0
4
0
6
0
12
0
4
3
0
3
0
3
0
2
8
0
7
0
0
0
1
0
2
6
0
1
0
1
0
0
0
5
0
0
0
4
0
1
0
4
0
4
0
211
90
4
4
0
4
0
0
20
0
0
0
15
1
0
2
0
2
0
6
2
3
18
0
0
0
0
2
19
0
9
0
14
0
8
6
0
0
10
0
1
0
6
0
0
0
0
0
0
8
0
0
4
7
11
0
4
32
0
0
20
0
0
0
0
18
0
0
0
38
73
50
11
45
0
0
0
0
5
0
0
0
5
1
0
0
14
10
4
0
0
21
0
0
0
18
8
0
37
0
33
3
0
19
0
0
3
0
0
0
20
0
0
104
0
0
0
0
0
0
0
29
43
0
0
0
0
13
29
58
0
0
0
0
87
87
0
0
0
0
17
2
0
11
0
2
0
26
13
0
0
0
1
0
0
40
0
0
0
0
0
0
0
0
0
0
20
87
25
111
27
0
0
0
0
15
0
27
9
0
0
0
0
0
83
0
25
4
0
26
0
4
0
22
26
20
15
30
24
0
38
4
0
0
0
12
10
2
0
0
16
22
19
0
0
0
10
24
0
9
0
0
4
11
0
5
0
2
9
0
0
18
0
2
21
0
13
0
0
7
0
6
2
0
6
16
1
0
1
0
32
0
0
29
0
6
8
0
4
0
0
0
0
14
4
0
16
0
0
0
13
0
3
0
0
0
0
0
4
0
0
0
0
0
44
0
0
0
5
6
0
7
4
0
0
4
14
10
0
26
5
0
22
0
1
0
0
0
0
0
19
0
4
0
11
4
0
0
9
3
42
0
0
2
4
0
5
0
0
0
3
13
0
0
17
0
1
0
11
0
19
0
6
0
0
6
0
3
0
0
17
20
0
0
0
19
0
5
55
0
4
38
0
0
6
1
0
0
25
0
0
25
24
24
0
20
17
0
36
0
27
0
0
12
7
4
6
0
0
0
13
16
0
0
7
5
0
0
2
12
7
0
2
0
5
0
0
0
6
3
8
0
2
7
14
4
0
12
0
5
1
0
2
0
0
12
3
0
0
7
12
0
10
0
8
3
13
0
0
10
0
0
0
16
0
0
19
0
0
0
0
6
0
14
0
0
8
0
0
15
5
0
3
6
1
10
0
0
6
0
2
5
0
0
0
0
0
0
9
0
1
11
0
0
2
0
0
5
0
8
0
0
0
1
0
7
0
3
0
0
0
1
0
4
3
0
0
11
2
0
2
7
204
95
14
0
0
13
0
0
43
0
0
20
18
0
0
13
15
0
12
0
0
3
12
23
0
0
0
0
0
0
0
28
0
0
0
4
0
0
0
13
0
11
0
12
0
9
3
0
0
0
0
16
0
0
0
2
1
0
8
0
16
0
0
0
22
0
0
6
44
0
14
0
0
0
0
0
8
0
0
5
0
0
3
0
9
25
0
14
0
0
22
15
0
0
7
21
1
32
0
0
27
0
42
1
0
0
56
0
0
0
1
0
79
46
0
22
0
24
0
0
0
14
39
17
0
0
0
0
27
59
28
0
0
0
37
140
0
0
0
0
6
0
0
0
0
0
0
78
12
0
0
12
11
0
15
51
3
0
14
0
0
0
0
0
0
0
59
2
0
4
0
0
2
3
0
0
0
14
14
0
15
0
0
89
43
0
0
0
16
17
0
3
0
0
20
0
17
35
45
63
0
0
0
5
0
0
0
0
24
1
0
0
0
8
0
0
39
33
18
21
0
24
0
1
7
0
4
2
9
0
12
0
1
12
0
0
18
0
0
11
5
0
11
0
8
0
20
3
0
2
0
0
7
0
0
2
6
0
16
5
0
0
0
0
0
2
0
15
0
4
0
0
0
7
1
11
5
0
14
0
11
0
19
0
0
14
0
0
0
17
0
18
0
0
14
51
41
24
39
46
28
21
7
25
5
0
5
0
0
4
0
12
0
11
0
11
4
9
0
29
18
0
0
18
0
0
12
16
0
0
11
7
0
1
21
4
10
0
0
13
21
0
0
0
0
0
3
0
5
1
0
0
0
0
0
0
0
10
0
0
0
24
7
0
0
26
0
0
25
0
0
0
15
21
10
11
15
0
0
10
17
9
0
0
24
0
0
0
0
7
1
31
0
16
0
4
0
0
0
4
4
0
7
0
0
7
5
0
0
0
0
2
0
3
0
0
0
14
0
0
15
1
2
0
12
0
2
0
17
0
8
14
0
1
0
0
1
5
0
0
6
21
0
5
0
10
0
5
0
7
0
15
2
0
0
13
0
0
0
4
4
4
5
0
0
3
6
3
1
0
2
0
3
0
6
2
5
0
5
0
3
0
0
0
1
0
0
0
0
2
1
0
0
2
4
0
5
0
4
2
6
0
0
0
9
0
0
0
0
0
0
0
203
94
3
33
0
0
0
23
0
4
7
0
0
10
16
12
0
6
0
3
20
0
0
0
2
9
0
0
6
0
1
0
9
21
0
6
0
7
11
1
0
0
3
2
0
0
5
0
11
3
0
6
2
6
0
7
0
0
5
0
7
0
27
0
0
0
4
23
0
3
0
0
0
13
0
5
0
5
0
8
0
0
0
0
15
0
10
118
0
36
0
0
4
0
0
0
34
0
0
0
19
14
0
0
0
0
26
0
0
0
0
71
74
0
19
24
0
54
0
0
0
0
76
0
4
0
0
0
37
65
42
0
2
0
11
105
20
0
0
17
0
0
0
77
0
0
0
66
44
0
0
0
0
45
0
8
16
62
3
0
0
9
0
2
52
59
16
0
0
0
0
0
12
0
6
9
5
0
0
0
0
0
0
100
35
0
9
0
36
0
1
3
23
2
0
0
0
90
0
0
0
0
2
0
0
0
6
9
0
0
15
0
0
4
0
0
37
41
0
18
0
23
0
0
2
9
0
0
27
0
12
0
12
0
0
0
6
0
0
0
1
3
0
4
9
6
0
0
15
0
5
5
0
0
24
0
0
20
0
0
5
14
0
6
0
10
0
14
0
7
0
3
0
0
0
0
0
12
0
14
1
0
15
0
0
4
18
0
0
30
1
0
0
36
22
0
0
0
0
0
0
0
13
5
10
29
0
7
0
2
12
0
0
0
12
2
4
0
21
17
0
0
0
5
0
0
0
0
12
0
7
0
8
0
0
0
0
8
13
16
21
0
14
0
10
0
13
7
3
0
11
18
11
0
16
15
0
15
31
0
0
31
0
0
0
7
12
0
0
0
0
9
59
0
21
0
12
0
8
27
16
31
0
0
30
0
17
0
21
0
43
0
0
5
0
0
6
0
0
0
0
8
5
1
2
0
0
2
9
5
0
20
0
0
0
0
0
2
5
0
0
2
4
0
2
13
0
0
0
10
0
0
6
5
0
0
29
0
3
0
4
5
0
8
0
9
2
7
0
0
14
0
11
5
0
0
0
0
7
8
0
0
8
7
0
7
0
1
0
5
0
2
11
0
0
0
0
9
0
9
6
0
0
1
6
0
0
12
0
0
0
2
0
0
5
0
0
2
0
4
0
8
0
3
0
5
4
0
9
0
5
1
201
61
0
2
0
1
0
0
24
21
0
23
0
0
0
0
0
0
2
10
0
22
16
0
18
0
0
0
8
2
0
12
0
0
3
0
0
0
2
0
8
0
0
0
21
5
0
14
0
3
5
0
8
0
0
5
17
9
4
0
3
0
23
0
8
0
4
8
0
0
24
0
0
0
0
16
0
8
0
16
9
0
9
0
0
9
0
0
18
0
0
21
4
0
6
49
0
0
1
0
61
17
0
5
3
53
0
0
0
0
0
119
18
0
40
0
0
57
0
0
0
0
46
0
0
29
0
0
17
31
68
0
0
0
0
111
40
0
0
1
0
9
0
13
9
0
0
31
0
0
0
0
18
0
0
0
0
0
1
68
0
0
0
0
125
77
49
0
0
0
0
0
4
0
6
0
9
0
12
11
0
0
0
101
16
0
5
16
30
0
0
10
0
14
1
2
90
41
0
0
0
0
0
11
6
1
0
0
0
37
0
0
16
3
8
0
13
20
0
11
0
0
0
31
0
0
0
7
0
0
0
7
0
1
0
0
5
3
5
0
3
0
0
8
0
0
0
4
0
4
0
0
0
27
0
2
0
8
11
0
8
10
6
0
6
2
0
0
2
0
10
5
0
5
4
0
14
0
14
0
0
2
0
0
12
5
2
0
0
6
1
4
15
20
0
0
0
0
0
0
0
0
0
0
0
21
19
8
22
0
0
0
4
18
0
13
0
11
30
0
0
4
0
0
12
0
18
4
1
14
3
4
4
0
0
2
5
0
1
21
0
0
0
0
2
26
0
4
0
5
14
0
3
0
0
5
0
29
6
0
0
36
0
0
3
4
4
0
9
0
0
0
55
0
26
7
25
0
0
29
0
13
0
0
5
30
0
0
22
34
0
25
15
7
0
17
0
0
12
16
10
0
0
5
0
12
7
4
0
0
21
0
0
0
8
24
0
0
0
0
0
0
0
0
0
0
3
6
6
0
0
0
6
0
2
12
0
0
13
16
0
0
23
0
7
4
0
0
0
34
0
0
0
4
5
0
0
4
1
0
0
12
0
0
12
0
2
4
0
1
0
6
0
0
0
5
0
0
10
0
0
7
1
0
0
0
1
0
0
5
0
0
0
6
0
2
0
0
5
0
1
0
1
0
0
0
0
8
0
3
0
5
210
94
12
0
0
22
0
25
0
0
18
0
27
0
28
0
0
2
0
5
1
10
0
0
0
0
5
0
5
6
7
7
0
0
11
1
0
7
0
0
0
0
9
0
0
0
0
1
0
1
0
10
0
13
9
0
0
0
5
5
0
7
0
0
17
0
0
0
0
13
0
7
0
12
22
4
0
0
0
7
0
11
0
16
0
4
0
25
0
0
2
16
27
0
38
4
0
0
0
56
60
10
0
0
12
11
0
0
22
0
33
97
0
0
0
0
0
96
0
0
41
0
61
6
0
31
0
6
0
13
77
2
0
0
0
77
51
0
0
0
40
0
29
0
102
74
0
23
0
0
0
0
0
12
0
0
0
10
0
22
95
13
0
0
113
68
35
0
0
18
0
0
0
0
4
25
6
0
0
0
0
0
71
37
0
2
17
0
35
0
13
0
4
0
17
71
0
0
0
0
6
3
17
0
0
0
12
0
25
0
19
3
0
0
0
0
23
21
24
40
0
9
5
0
4
5
0
0
0
15
0
7
14
0
22
0
0
0
6
2
0
0
4
0
0
0
8
0
0
14
5
14
0
3
0
13
4
0
0
0
6
0
0
0
0
5
0
11
7
0
4
0
5
0
3
0
0
1
22
0
1
13
3
11
0
2
1
0
0
0
17
0
2
28
0
0
0
0
0
0
17
0
0
0
0
0
0
26
1
0
9
0
0
5
0
18
0
25
13
0
0
18
21
0
0
13
0
4
3
0
6
1
4
1
15
0
4
0
30
18
0
0
10
8
11
0
2
0
10
0
14
0
0
0
0
1
0
3
0
11
10
33
0
0
4
0
1
13
0
0
0
0
29
0
29
19
15
0
0
59
3
15
0
0
0
57
0
0
3
0
23
4
0
0
7
0
0
6
4
0
0
0
4
3
6
0
0
5
0
15
0
11
6
0
5
0
1
0
4
0
14
5
0
8
1
3
3
1
4
0
13
0
10
0
10
0
2
6
1
0
16
0
2
5
0
16
0
9
3
0
0
7
0
0
0
11
0
8
0
0
9
3
0
0
10
5
0
6
0
5
0
0
4
8
0
0
3
0
2
0
0
1
0
4
2
3
0
6
0
0
2
2
0
0
4
1
0
1
0
1
0
3
0
8
0
5
5
5
0
6
0
0
195
72
0
21
0
7
0
9
3
0
16
0
0
10
0
0
10
11
0
3
0
0
19
28
0
0
0
2
0
0
13
0
12
7
0
0
12
0
11
4
0
15
0
12
4
9
0
2
14
0
1
0
0
3
0
6
1
1
7
0
0
4
1
4
3
2
3
0
0
0
0
0
10
0
0
0
0
15
0
0
0
0
0
11
0
0
0
17
0
0
39
18
0
0
30
3
28
0
43
52
8
0
12
0
19
0
0
0
0
17
98
0
1
0
0
0
58
50
0
0
79
0
20
32
0
0
0
37
0
0
64
38
0
0
0
95
63
0
0
0
24
0
0
44
0
0
0
12
0
0
0
0
0
0
0
0
3
0
2
0
6
29
0
5
80
2
0
0
0
0
0
1
0
25
23
0
0
0
0
0
0
0
82
0
6
5
0
0
46
0
11
0
21
30
30
97
0
0
5
0
5
0
0
0
0
0
1
0
2
0
0
8
7
0
0
0
46
2
18
14
0
0
0
4
15
0
7
0
0
0
20
0
0
0
0
2
0
0
6
0
2
5
0
8
0
10
0
14
4
0
2
0
17
0
0
7
0
9
0
5
0
0
13
0
0
12
1
0
8
0
8
0
0
9
0
6
7
0
0
9
0
0
2
1
9
0
15
0
0
5
2
0
13
0
0
2
2
0
6
2
31
11
6
7
0
18
0
0
9
4
0
0
12
0
0
0
19
17
0
4
7
0
7
10
0
0
8
5
0
10
0
0
11
0
0
1
9
26
5
20
0
5
14
0
0
0
17
0
6
0
22
0
0
0
6
15
0
44
0
0
0
46
0
0
0
0
12
29
0
0
0
0
34
21
19
15
17
0
0
59
13
0
0
0
0
4
32
0
29
3
13
2
8
0
1
0
0
0
0
22
0
12
0
0
0
2
0
8
0
6
0
0
3
4
7
0
4
0
0
14
0
0
6
12
0
2
0
6
0
0
6
0
7
0
0
1
4
0
0
2
0
24
0
4
19
0
7
0
0
19
1
7
0
12
6
0
0
0
7
2
13
0
1
6
0
0
5
0
0
0
8
0
3
0
7
0
4
2
0
7
0
0
3
0
7
0
6
0
2
8
0
10
5
0
2
2
4
0
2
3
0
0
0
0
6
0
1
0
1
0
5
0
230
81
0
7
8
5
3
0
0
2
0
11
1
0
13
4
0
0
2
23
12
0
6
0
3
3
0
9
0
9
1
0
1
2
5
4
0
22
0
8
0
0
6
1
5
0
2
0
0
0
12
0
15
0
1
2
10
5
1
13
4
0
13
4
7
1
0
11
0
1
12
12
6
0
32
0
0
0
11
9
0
24
0
3
0
2
8
22
0
0
40
44
0
0
31
4
0
2
0
0
46
0
0
37
49
0
0
0
0
97
28
0
69
0
0
0
42
41
22
0
0
9
40
20
0
29
0
41
3
0
59
41
0
0
0
68
95
0
0
0
31
0
0
0
0
0
0
17
0
52
30
0
26
0
12
11
0
0
0
0
0
31
0
47
54
0
0
0
0
8
21
30
9
0
0
0
0
0
0
0
0
16
64
0
1
0
6
35
0
9
3
30
20
18
99
84
0
0
7
12
0
0
6
0
0
30
0
0
4
4
18
0
18
0
26
0
32
12
0
8
0
3
0
26
0
0
3
17
23
0
0
0
9
7
0
7
14
2
7
1
0
6
1
10
0
0
3
3
11
0
16
0
0
0
0
3
7
0
9
0
12
28
0
11
9
6
0
2
1
0
0
8
0
4
0
0
0
0
21
0
0
15
0
3
4
0
20
0
0
0
0
3
0
6
27
11
28
11
15
28
0
15
9
9
0
7
0
0
0
16
0
0
0
0
0
8
14
0
6
1
0
5
0
0
0
3
0
0
4
8
7
31
0
0
0
3
20
0
15
0
0
0
4
1
15
28
0
0
10
0
48
0
0
13
0
6
0
40
0
0
0
10
26
0
0
0
0
49
0
17
0
0
0
31
5
14
1
8
0
43
28
31
0
1
0
0
33
0
8
1
19
4
0
6
17
4
7
0
11
0
2
0
2
0
23
0
0
3
1
0
10
0
0
6
0
5
0
12
0
0
10
0
2
0
7
0
2
0
0
4
0
4
0
0
1
0
2
3
5
0
0
0
18
0
0
0
8
0
19
0
3
0
0
0
0
0
0
8
0
0
0
9
7
0
9
0
0
0
0
4
8
0
1
0
0
0
3
5
0
4
1
2
2
0
0
8
1
6
0
0
6
1
0
3
2
0
12
0
2
0
1
9
0
0
1
5
0
0
6
0
4
0
206
77
0
24
0
4
1
0
5
3
1
6
14
0
0
0
6
21
0
0
2
15
0
4
7
0
0
0
0
2
12
0
0
12
0
6
0
0
6
2
0
10
2
2
4
0
0
14
13
4
0
18
0
0
9
0
0
0
0
0
11
10
0
0
2
0
0
2
0
0
0
3
3
12
0
22
1
24
0
0
6
1
4
0
12
14
21
38
0
0
27
20
0
0
65
0
0
0
0
0
37
4
0
13
0
11
0
0
86
54
0
0
0
6
0
27
10
27
3
0
0
0
58
30
9
25
0
27
0
0
48
71
0
0
0
0
132
7
0
0
0
0
2
0
13
0
0
44
68
62
36
0
0
0
7
6
0
9
0
0
0
0
112
28
0
0
0
0
0
0
9
0
0
50
0
0
52
16
0
30
0
22
0
0
11
18
11
0
0
0
0
0
0
79
0
0
0
9
0
0
1
0
0
22
0
0
0
0
0
0
20
0
3
0
0
0
48
27
10
15
0
0
0
3
8
19
0
20
0
0
3
0
16
0
20
0
0
0
3
0
3
0
0
7
0
10
0
0
0
10
0
21
7
1
10
0
3
3
0
1
0
9
4
0
0
2
0
0
15
0
0
6
0
11
1
0
0
15
0
0
16
0
2
0
2
0
2
4
0
1
0
0
6
0
5
5
5
22
0
7
8
3
14
10
4
10
16
14
0
0
0
0
0
0
3
32
9
0
0
0
1
0
0
7
1
15
0
13
0
0
0
0
0
5
0
34
0
8
38
0
0
17
0
0
13
0
15
0
0
0
26
2
0
29
0
14
0
34
0
3
4
9
3
0
0
0
6
12
0
0
0
0
7
26
14
29
0
19
0
20
40
0
37
0
0
0
12
0
5
22
1
0
8
0
0
0
3
0
0
7
2
1
3
0
1
0
2
0
11
0
0
15
15
0
10
8
0
5
4
12
0
31
0
14
0
0
0
22
0
0
9
14
0
15
0
9
0
19
0
3
13
4
11
1
9
16
0
16
0
19
0
0
29
15
0
0
0
9
7
0
0
7
0
7
0
9
0
6
0
0
3
0
9
5
0
0
0
4
7
0
0
0
6
6
1
0
0
0
4
4
1
0
2
9
0
0
2
0
0
4
0
0
1
1
0
0
0
0
0
0
0
4
207
77
0
0
0
0
0
16
3
0
0
1
0
1
0
15
0
0
0
0
0
0
20
0
20
8
0
0
12
0
4
0
10
0
5
0
6
3
1
0
0
5
0
0
9
4
10
0
0
0
0
0
0
8
4
7
0
2
0
4
0
0
22
0
1
5
15
0
5
0
6
4
0
0
19
0
0
0
12
0
9
0
0
19
27
0
0
0
0
53
34
0
0
0
1
13
0
30
0
8
29
0
0
0
0
0
1
35
66
0
39
0
0
63
0
26
12
0
0
0
0
0
42
54
7
0
0
0
29
0
0
80
36
0
0
17
48
68
0
0
0
18
1
19
18
0
0
20
47
40
40
0
30
11
0
0
18
17
3
0
0
66
44
43
0
0
28
0
0
47
58
0
0
39
47
0
1
38
0
0
36
0
0
13
8
13
13
0
0
0
14
0
122
0
0
0
0
0
0
0
0
8
71
5
21
35
62
0
3
9
0
0
17
43
16
0
0
3
35
0
4
5
0
7
0
0
0
0
22
7
0
0
10
0
5
4
0
1
0
31
0
18
0
4
0
0
0
13
0
0
17
0
0
1
0
22
0
6
0
10
1
4
0
0
5
6
5
0
0
0
8
0
1
0
0
25
0
0
3
7
0
0
0
1
17
0
8
0
0
1
12
0
0
0
0
2
3
0
16
0
3
4
0
0
0
2
0
0
0
0
0
0
11
19
11
13
6
4
0
4
0
9
0
10
0
0
23
0
0
5
0
5
0
10
14
0
12
43
0
0
0
0
27
0
26
14
0
5
23
0
25
0
20
0
0
15
51
0
0
0
34
34
9
0
0
0
28
0
0
0
0
0
0
44
18
23
0
0
0
24
65
0
15
10
0
0
7
18
8
10
7
6
4
11
3
0
0
5
10
0
0
0
3
2
0
0
0
10
9
2
2
0
0
4
0
7
0
0
0
0
0
0
0
2
0
0
16
16
0
13
0
0
12
0
0
0
8
0
17
0
9
0
0
8
1
0
20
0
8
0
8
5
0
0
0
7
0
0
0
8
7
0
0
6
0
0
3
0
5
0
7
0
0
1
0
2
0
5
0
9
2
0
5
0
0
7
0
0
2
0
0
10
0
0
7
5
3
0
0
1
0
4
8
0
20
0
1
3
0
3
3
0
209
85
1
15
2
22
0
10
0
22
0
0
11
2
9
5
0
0
0
0
11
0
8
0
0
0
3
1
0
5
0
25
0
0
1
0
0
3
0
0
1
0
5
5
0
0
3
0
0
2
0
0
21
0
0
12
1
1
7
6
0
3
11
1
8
0
0
0
0
0
0
17
0
4
1
7
0
13
0
6
0
3
16
8
7
0
25
0
0
22
0
14
1
0
18
25
0
14
0
13
0
16
0
0
0
0
24
80
16
37
0
0
0
56
0
5
0
24
0
47
0
0
11
51
0
11
0
0
61
2
0
85
46
0
0
16
0
57
0
0
0
0
0
31
13
0
0
52
0
97
6
0
81
0
0
0
0
0
0
0
19
94
8
0
65
68
0
0
0
0
38
10
13
0
28
0
0
0
2
38
104
0
0
27
0
0
0
0
0
43
38
92
111
0
0
0
30
0
13
0
13
7
0
19
90
0
0
8
0
0
24
0
2
0
2
0
28
53
2
0
25
0
0
0
19
19
7
0
0
0
9
4
0
9
0
5
12
6
0
0
18
0
0
5
0
0
10
10
0
2
9
6
0
10
0
6
6
4
0
6
0
0
19
0
0
14
11
0
8
0
2
16
5
0
5
0
8
2
0
12
0
16
0
3
0
0
0
18
0
7
0
24
10
0
0
0
0
0
0
0
0
0
0
0
0
0
0
3
10
29
23
30
22
14
0
0
0
7
0
2
0
0
3
9
1
0
0
7
0
0
10
0
12
0
20
0
39
1
0
0
6
0
0
11
0
0
23
0
0
0
13
0
0
5
0
0
17
65
0
0
2
0
0
0
0
0
25
0
0
25
0
0
0
29
16
37
5
0
0
10
43
0
51
0
0
0
4
34
0
9
2
6
0
0
0
0
4
1
5
2
3
0
7
0
0
12
0
0
3
6
0
18
0
0
12
0
4
0
2
0
11
0
12
0
3
6
0
0
0
0
0
21
0
0
8
7
0
11
0
7
0
1
0
0
0
0
2
0
11
0
0
0
0
0
22
0
17
4
5
3
5
3
3
0
8
0
0
0
0
3
0
0
8
0
5
0
0
0
4
0
5
0
0
0
3
0
7
0
0
4
0
0
4
0
6
0
3
7
0
0
6
0
2
0
0
1
0
5
0
0
2
0
215
62
0
0
0
9
0
25
0
0
0
35
0
24
0
0
20
0
0
0
0
5
10
10
0
13
0
0
0
22
0
9
0
5
5
0
23
0
0
9
6
0
0
5
0
3
1
0
0
9
3
0
0
4
2
0
0
0
6
0
0
0
11
1
0
15
2
0
0
6
0
0
8
0
2
11
0
6
3
0
1
0
15
9
0
0
7
0
6
0
0
0
0
0
0
39
0
37
0
31
0
9
1
0
0
1
60
28
1
0
0
0
12
0
62
35
0
0
0
67
0
0
25
0
0
0
0
37
49
0
0
17
100
0
0
43
0
60
7
0
0
0
0
47
0
0
0
25
45
7
54
69
41
0
0
0
0
2
0
0
141
40
0
0
63
0
0
0
0
25
0
32
14
0
0
0
16
10
48
112
0
0
54
0
0
0
0
0
0
68
47
145
0
0
0
13
0
0
0
0
0
0
0
0
0
0
0
0
0
3
11
0
0
4
0
0
49
4
34
0
30
0
5
0
14
0
16
8
0
0
0
0
6
0
6
3
0
7
2
8
0
0
8
3
18
0
0
0
0
0
0
0
19
0
0
4
0
0
4
2
0
7
8
0
0
2
0
0
0
0
14
0
0
0
2
0
2
17
0
0
5
0
13
0
0
23
0
0
10
0
24
0
6
0
0
32
0
0
0
0
2
0
12
0
0
0
11
25
7
18
21
15
1
0
11
0
13
0
1
0
7
10
0
0
2
0
4
5
0
8
0
5
6
0
0
8
46
0
0
0
7
1
5
14
1
0
0
0
9
0
22
0
0
15
0
17
7
0
26
7
33
0
29
0
11
0
36
0
22
0
0
0
0
57
15
12
24
0
0
28
28
0
51
0
0
0
0
23
16
0
0
0
6
0
2
0
6
3
5
0
7
0
3
16
0
9
0
0
6
0
10
1
0
4
6
16
0
0
0
0
8
0
0
0
12
0
0
6
24
0
0
0
10
4
0
7
0
1
0
12
2
3
4
0
14
0
7
0
4
0
12
0
19
0
0
1
0
0
0
5
4
0
4
2
0
8
10
0
7
0
0
0
0
4
0
0
6
0
1
7
0
0
5
0
1
9
0
0
4
0
0
1
0
8
0
0
0
0
3
1
0
28
0
1
1
2
0
3
5
2
0
2
211
93
12
6
6
2
0
0
24
0
0
0
9
0
0
0
4
0
4
0
18
0
0
0
0
5
0
0
7
0
2
7
0
0
10
0
0
13
0
11
2
0
7
0
0
0
0
7
0
0
6
0
0
0
10
1
13
8
0
0
8
9
0
4
0
0
0
0
18
0
0
21
0
6
0
0
0
22
0
0
1
10
1
14
1
0
0
25
37
0
0
24
0
0
36
0
0
4
0
0
0
0
0
0
0
78
54
0
0
1
0
0
2
0
3
21
0
0
25
88
0
0
63
20
0
0
0
26
28
22
0
0
60
26
0
30
19
2
61
0
0
0
0
0
20
0
0
0
9
46
0
76
82
0
0
0
0
0
0
69
68
0
0
6
0
0
20
0
37
0
0
0
0
0
0
23
5
39
69
13
0
0
18
0
0
9
0
0
45
30
105
0
0
0
3
0
5
0
12
0
5
0
0
0
43
28
0
2
10
0
3
20
0
0
2
0
33
18
28
0
40
0
10
0
0
20
0
6
0
15
2
0
19
0
2
0
8
0
16
0
19
0
0
6
0
0
15
0
0
0
21
0
0
22
0
1
0
10
0
0
11
0
1
3
0
23
0
0
7
5
0
0
0
7
7
1
0
0
17
0
8
0
0
13
0
0
2
0
11
0
0
9
0
0
0
0
0
0
11
0
11
0
20
15
0
2
0
0
0
24
3
6
1
3
2
9
0
13
0
13
5
0
0
2
0
17
0
0
15
4
2
4
0
1
6
23
0
0
0
0
0
0
0
0
16
3
18
0
0
1
12
0
8
0
0
42
22
0
0
0
17
0
4
1
0
3
60
0
0
20
2
0
0
17
8
23
25
8
0
51
23
0
52
0
0
0
18
23
8
0
32
0
0
28
11
0
2
0
11
0
0
0
0
0
2
0
14
0
2
0
0
10
0
0
6
0
0
2
11
0
2
7
3
10
0
18
11
0
0
3
7
11
0
2
2
20
0
7
0
0
2
2
6
0
0
0
0
5
2
0
0
14
0
1
22
0
0
9
7
10
7
0
12
0
0
0
11
0
0
0
2
6
1
0
0
11
0
4
4
0
3
0
0
6
5
0
6
1
0
8
0
10
0
7
0
2
2
3
0
0
7
0
4
2
2
0
8
0
0
0
4
0
216
65
0
0
1
0
0
0
0
34
13
0
0
4
7
3
0
0
22
2
0
1
6
2
10
3
5
0
0
11
4
0
13
16
0
1
0
0
14
0
6
3
0
9
15
0
17
0
0
0
0
2
0
1
0
0
0
0
6
4
0
1
0
9
0
13
0
20
0
0
18
0
25
0
0
37
0
9
0
14
0
0
0
0
0
0
39
19
35
36
0
0
0
0
13
27
29
0
0
1
0
12
0
0
68
81
3
0
0
0
0
0
0
44
0
32
0
0
0
94
0
39
46
0
7
3
12
25
0
0
0
0
86
28
0
6
51
0
55
5
0
11
0
6
38
0
0
0
5
24
0
0
22
28
12
0
0
0
22
79
0
0
5
68
0
13
21
0
22
15
0
0
0
12
8
44
0
49
74
0
0
48
0
0
9
0
0
3
45
82
96
0
2
0
0
18
20
12
12
0
30
5
24
36
0
0
7
0
17
0
10
0
5
14
0
0
17
17
67
0
30
0
0
0
10
11
0
3
1
1
0
0
0
0
6
0
0
0
0
0
2
18
1
0
5
0
0
20
0
7
0
0
16
0
4
0
3
0
3
0
0
16
0
0
3
0
7
0
0
4
0
11
3
0
0
17
0
1
0
0
3
2
0
0
27
0
0
11
1
11
13
0
21
4
0
12
0
0
0
0
3
0
14
30
0
0
0
5
2
0
16
0
0
3
7
0
5
5
4
0
0
4
1
1
5
0
0
0
0
0
0
0
16
0
25
48
0
0
0
13
0
19
0
2
0
0
14
5
27
0
0
9
10
0
0
14
44
0
0
26
40
21
0
0
0
0
58
0
1
9
0
0
0
26
7
16
23
21
0
45
45
0
31
0
0
0
0
16
25
6
0
0
5
0
0
0
6
11
0
0
0
0
9
0
0
6
0
2
0
0
21
0
3
15
0
0
0
6
3
7
0
6
0
4
0
0
0
14
9
0
0
0
8
0
0
0
0
4
12
0
0
5
19
0
12
14
0
10
0
0
0
14
0
0
0
0
0
6
8
0
0
6
0
2
11
0
0
0
1
0
0
1
0
3
0
0
3
7
0
2
0
3
5
1
0
3
0
0
10
0
0
0
5
0
3
3
0
0
0
0
0
0
0
0
0
9
0
3
4
1
0
0
214
88
5
9
24
4
15
14
25
3
0
2
18
0
7
8
0
3
0
13
4
0
0
0
0
0
3
0
0
11
0
3
14
0
13
1
5
2
0
21
0
0
4
0
0
11
0
0
11
3
0
2
2
0
0
17
0
11
0
1
0
20
0
7
18
2
1
0
0
0
4
7
0
0
0
0
0
0
0
0
0
10
0
1
0
0
6
41
61
0
0
0
0
0
4
2
0
0
0
29
0
0
0
38
99
0
0
0
0
18
0
0
5
0
9
0
22
0
24
0
0
8
10
0
3
28
0
34
6
0
0
0
69
52
0
0
53
0
17
31
0
0
0
0
30
0
0
0
0
67
23
0
0
0
32
0
0
29
39
0
0
0
0
0
13
57
15
1
0
0
3
0
0
26
0
0
41
92
0
0
52
13
0
6
21
0
0
30
50
133
0
0
0
0
0
0
0
0
0
0
0
2
0
0
32
0
4
1
3
0
4
0
0
0
3
0
15
23
9
0
27
0
0
31
0
0
14
0
6
0
4
9
9
10
0
6
5
7
0
10
0
5
0
0
15
6
0
3
0
1
14
0
4
5
0
10
0
13
14
0
0
0
0
5
2
5
0
21
0
5
6
4
0
10
19
0
0
0
0
0
6
0
4
0
0
3
6
0
0
0
10
0
0
0
5
0
0
15
0
0
0
15
2
22
4
0
0
0
0
0
8
15
0
5
0
21
0
0
8
0
0
11
0
0
1
0
5
3
0
0
0
0
3
0
13
23
0
0
9
0
10
0
1
2
0
0
0
0
0
0
15
30
0
0
0
51
12
2
0
0
37
0
0
31
0
8
15
0
23
0
7
0
0
22
30
0
51
14
0
26
44
0
26
13
0
21
0
4
1
4
6
0
0
8
0
4
13
7
0
0
9
12
0
17
0
0
6
9
19
0
0
3
13
0
1
27
0
0
8
0
9
0
19
0
11
0
15
12
0
0
15
0
0
8
9
2
0
0
3
5
0
0
0
3
0
0
7
0
8
0
0
9
0
17
0
16
15
0
0
4
0
1
4
0
0
0
2
1
0
9
0
0
5
0
0
6
0
2
0
5
5
3
0
1
0
0
7
0
5
0
11
0
2
0
0
5
1
0
2
3
3
0
1
6
2
0
8
0
0
1
14
2
212
86
8
0
0
4
0
0
0
5
15
14
0
14
0
0
13
0
15
0
0
0
0
0
0
2
14
0
0
6
0
0
15
0
9
0
2
0
0
0
2
6
2
4
0
0
2
1
6
0
16
0
3
2
11
0
0
12
2
2
0
0
0
18
2
0
2
0
5
0
11
0
13
0
17
22
3
12
1
0
22
0
0
0
13
0
52
49
0
0
6
0
2
0
7
47
33
17
0
12
0
7
0
104
21
3
0
0
0
0
16
0
20
22
0
48
9
2
0
0
13
6
31
36
0
40
0
42
12
27
0
0
65
81
0
0
6
51
0
55
0
22
5
12
0
24
22
0
63
0
19
67
0
0
28
6
42
43
0
0
18
0
5
0
0
20
38
10
0
0
16
17
35
11
15
5
69
32
0
11
15
0
0
6
31
0
50
33
127
0
0
17
23
16
7
45
27
21
0
6
0
0
10
0
0
5
0
0
0
0
0
10
0
0
0
0
15
13
13
0
44
0
0
0
0
0
2
8
0
0
1
0
0
20
0
5
0
0
0
5
0
8
0
0
0
12
0
0
4
7
0
9
2
0
0
1
18
0
4
3
5
13
3
14
0
17
0
0
0
0
0
0
5
0
6
0
12
0
0
0
5
0
0
0
11
0
4
2
3
0
5
15
0
5
4
9
0
0
15
0
0
8
6
16
14
0
0
0
14
0
25
1
0
5
0
1
0
7
0
0
2
0
0
0
7
0
9
3
0
0
0
21
0
26
60
0
0
6
0
7
6
7
0
20
0
27
0
14
4
0
0
15
1
0
0
23
24
0
0
0
48
0
5
9
0
30
8
0
31
0
0
0
0
0
34
0
53
4
0
27
51
0
0
27
0
24
0
24
10
0
0
5
0
6
0
0
8
0
3
0
0
15
0
0
9
0
0
7
0
8
0
0
9
1
0
4
0
3
0
1
0
0
2
5
0
9
15
0
0
8
0
14
0
2
0
0
13
5
0
0
0
8
0
1
0
14
0
5
2
0
0
0
12
0
0
15
0
4
3
6
4
0
13
0
6
0
5
0
0
1
3
6
0
2
10
0
0
8
0
0
1
0
9
0
5
0
0
6
0
0
0
0
0
0
2
0
0
1
0
3
0
1
0
0
5
0
0
2
8
1
0
0
214
76
0
19
7
0
3
0
16
1
0
4
22
0
5
0
0
1
0
14
0
0
0
5
0
5
19
2
0
2
16
0
0
2
1
2
0
13
0
7
0
0
0
5
5
0
0
6
3
0
2
0
13
0
2
4
3
0
0
0
12
0
16
0
13
0
27
0
0
2
0
0
0
16
0
0
8
0
0
0
6
0
0
16
6
36
42
0
0
18
0
0
23
0
0
46
0
0
0
0
33
4
43
42
16
0
0
55
0
0
3
0
0
0
0
0
5
0
1
0
0
10
2
0
0
21
13
0
25
41
0
0
15
99
5
0
19
51
0
19
0
0
0
18
0
43
0
0
0
0
0
45
0
40
12
0
0
28
0
0
0
8
0
0
9
27
0
3
0
11
0
7
12
0
20
10
90
0
0
55
0
0
0
0
23
18
28
115
0
0
0
0
0
0
0
0
0
10
5
17
8
36
10
33
11
45
1
19
27
26
18
30
0
35
33
0
32
25
24
0
35
0
5
3
14
0
0
0
13
6
12
11
10
0
9
7
16
13
8
8
22
0
4
10
4
0
17
0
11
11
0
0
0
1
2
0
3
0
0
7
0
12
0
12
4
1
4
1
13
0
0
7
0
0
0
10
4
0
11
2
0
8
1
5
0
7
0
0
9
5
0
0
1
0
0
0
8
1
7
0
0
2
14
8
12
0
0
9
0
1
8
0
4
0
10
10
20
0
1
0
2
10
0
0
8
0
10
4
0
0
9
6
12
21
7
0
0
0
2
0
0
0
10
5
0
0
0
0
3
0
60
2
0
0
28
30
7
0
0
2
0
17
0
0
5
5
0
0
27
0
15
21
0
0
36
17
26
3
0
8
67
0
3
27
0
39
0
9
0
27
0
0
0
14
0
0
7
0
24
0
0
0
19
0
0
5
19
2
0
6
3
9
0
0
11
0
5
1
0
7
7
6
0
6
22
0
9
7
0
0
6
2
0
0
22
0
1
1
0
7
0
3
7
0
0
0
0
6
0
11
0
0
0
4
0
0
0
10
0
0
5
0
0
0
0
0
4
0
5
0
1
1
0
1
11
0
0
3
2
1
0
0
0
0
0
3
0
0
2
0
0
4
2
0
1
0
1
0
0
2
2
0
0
0
12
8
0
0
9
0
3
0
216
80
4
0
0
0
0
0
0
0
12
0
0
11
2
4
4
4
0
0
0
4
0
0
0
6
0
0
3
9
7
0
15
0
0
9
0
0
0
9
2
0
2
0
13
0
7
0
0
0
0
3
0
0
12
0
7
0
14
0
5
0
7
0
12
0
0
8
0
8
9
0
2
17
4
2
0
0
10
0
0
0
11
8
47
29
0
0
13
11
0
0
0
0
9
35
0
0
15
11
36
53
34
35
0
0
0
0
0
0
0
0
1
36
0
0
0
20
14
0
15
36
2
0
0
0
60
0
10
59
0
4
0
69
33
0
0
67
0
0
39
0
0
0
18
6
1
0
27
32
25
19
9
3
0
0
16
18
0
0
0
0
0
30
69
66
0
0
25
20
0
14
0
0
29
27
18
0
3
48
0
0
14
0
0
64
87
66
0
0
39
0
0
24
0
26
4
0
0
0
0
0
0
0
0
0
0
0
0
0
0
0
0
0
0
0
0
30
1
14
0
19
0
3
23
0
5
0
0
0
15
0
0
22
0
0
0
0
0
0
0
5
1
0
0
0
10
0
0
20
0
3
5
10
0
0
0
1
7
0
3
0
0
0
0
0
1
0
0
0
11
5
0
0
0
8
0
10
0
0
5
0
0
0
0
16
6
0
0
0
6
0
5
0
0
3
3
0
0
4
0
12
13
5
0
7
0
0
0
6
8
0
0
0
1
9
15
0
0
10
0
0
8
0
0
20
5
1
0
4
4
10
0
50
0
3
0
22
0
0
10
0
0
5
0
0
6
0
0
0
28
0
0
0
11
13
2
10
0
8
23
0
19
0
0
24
0
0
13
0
1
0
0
0
4
3
42
20
0
0
64
0
0
60
0
0
1
6
8
0
2
0
0
11
0
0
16
0
0
0
10
0
0
0
0
0
9
0
3
0
0
23
0
0
1
1
0
0
9
0
0
0
5
0
0
0
4
0
16
0
0
13
0
7
0
0
0
0
0
4
13
0
12
0
8
3
8
0
14
6
0
0
0
0
0
10
0
0
0
3
8
0
1
0
0
0
0
2
0
0
0
2
4
0
0
3
0
0
0
0
3
1
7
0
0
0
5
0
0
0
10
0
0
0
4
0
0
3
0
1
0
0
0
21
0
0
1
0
5
0
0
1
201
56
0
4
8
12
0
0
14
5
0
0
14
3
0
2
19
0
7
0
0
0
7
9
11
0
3
1
6
7
0
11
0
2
6
0
7
15
0
8
4
8
4
0
0
12
0
0
3
10
0
0
11
0
0
0
0
0
9
2
0
0
1
0
0
20
0
0
11
0
0
29
3
0
0
0
2
8
0
0
0
0
22
40
21
0
0
51
0
0
0
84
6
0
18
19
0
8
27
38
68
0
0
0
0
24
43
0
0
48
0
0
0
18
29
0
73
0
0
0
0
2
0
48
0
10
84
0
5
0
15
28
0
0
79
0
0
64
43
0
15
18
0
0
20
9
26
0
0
0
0
26
23
0
0
0
13
51
0
0
0
0
0
58
87
27
0
0
33
0
8
14
0
35
12
95
0
0
27
0
0
16
0
0
0
96
127
0
0
0
0
0
24
0
1
0
0
9
12
5
1
6
16
17
9
39
0
0
36
20
0
6
0
17
20
0
0
68
0
22
0
29
0
7
0
0
18
1
3
0
13
0
4
12
0
8
1
11
0
8
3
13
0
15
0
14
0
18
0
0
4
13
1
0
0
7
0
0
2
0
0
13
0
5
2
6
12
0
0
11
0
0
17
0
0
13
0
0
0
9
0
0
12
0
4
0
0
0
9
0
0
7
0
10
6
0
5
1
6
0
0
14
3
7
11
1
3
0
0
13
10
2
6
0
11
0
5
0
8
0
0
9
0
2
0
18
0
0
0
0
0
21
0
51
0
0
0
6
0
5
3
0
9
0
8
0
9
0
0
14
3
6
0
0
39
13
9
0
0
19
2
30
0
8
3
23
0
0
0
12
0
0
0
0
33
21
16
39
0
19
39
0
0
54
0
8
5
11
6
7
2
1
0
15
0
2
12
0
5
0
0
1
0
0
10
0
0
13
7
0
29
0
3
21
0
9
0
14
12
0
5
0
4
0
24
7
0
0
16
0
10
0
6
0
9
0
7
4
0
12
0
0
12
0
0
0
9
12
0
2
4
0
10
0
1
0
14
13
0
15
0
0
9
1
9
0
1
7
0
11
0
0
7
0
8
4
6
0
0
7
0
0
0
2
2
1
0
0
0
0
6
0
0
0
0
5
0
5
0
3
6
3
2
0
0
2
2
1
0
5
0
2
214
92
13
18
0
0
0
18
0
0
7
0
8
10
0
6
2
7
9
0
1
0
0
0
0
20
10
0
0
20
0
0
17
0
0
6
0
0
14
0
0
6
0
7
3
0
6
0
0
0
10
0
12
5
8
1
0
8
0
0
11
9
0
10
0
0
16
4
0
0
0
0
0
3
36
0
19
0
13
0
0
17
40
26
0
0
12
20
21
13
0
0
7
0
29
0
0
29
35
47
18
0
0
0
2
0
0
0
0
4
0
11
0
45
0
0
3
20
0
0
0
48
0
0
0
15
0
46
19
0
0
13
0
0
37
32
0
9
74
0
46
1
0
0
0
21
24
33
0
10
0
0
52
0
0
0
0
26
0
10
11
0
6
53
1
0
0
0
0
0
21
0
39
0
81
1
0
56
0
0
4
0
0
0
92
124
0
0
0
0
12
4
8
2
0
13
0
0
3
10
0
0
0
0
0
29
4
0
0
0
0
5
17
0
0
0
0
65
0
11
6
31
0
6
0
9
0
0
0
13
6
0
0
17
2
0
0
14
2
3
6
0
0
0
4
7
0
0
0
11
0
0
0
17
0
0
22
0
6
0
10
0
0
0
0
6
0
5
2
0
0
7
0
11
0
3
1
0
0
18
0
0
0
0
0
0
1
9
8
11
12
0
13
0
0
18
0
14
0
0
6
13
11
4
3
0
0
0
0
17
12
10
0
4
0
20
0
15
0
1
9
0
0
0
0
7
3
0
0
0
5
9
50
0
0
6
11
4
0
27
0
7
0
13
5
0
1
10
13
3
0
20
0
0
31
0
35
0
0
0
56
4
0
34
3
0
0
16
11
0
11
0
0
0
23
8
33
26
0
0
61
0
0
19
0
0
0
15
0
2
5
2
0
9
0
0
5
6
0
4
1
5
0
2
0
8
6
0
0
16
0
16
0
0
0
0
5
0
0
24
0
15
0
11
0
0
16
0
10
0
15
0
9
10
0
6
12
0
23
0
7
0
7
0
8
5
0
0
8
0
3
0
3
0
2
10
0
0
10
0
2
0
0
0
0
2
1
0
9
0
9
5
0
0
0
0
0
7
0
0
0
0
0
0
0
6
2
1
0
2
0
2
0
0
0
1
2
0
0
3
0
6
0
9
1
4
0
0
7
0
0
2
216
65
0
8
13
0
0
0
16
13
0
0
10
4
12
0
0
0
3
14
0
14
0
0
0
1
0
0
10
0
5
8
0
24
1
0
4
18
0
4
0
5
11
0
2
0
0
0
13
4
0
9
2
0
0
17
0
4
11
0
2
0
0
25
0
3
0
23
0
0
24
0
0
1
0
0
13
0
0
0
12
37
70
0
0
0
13
20
0
0
0
29
15
0
12
0
12
6
24
35
0
0
0
0
0
90
94
0
0
31
0
0
0
14
19
0
2
70
0
0
0
4
33
0
4
38
0
67
48
0
7
0
35
0
35
48
0
0
85
0
7
68
0
0
0
61
61
0
0
3
0
0
0
45
0
0
0
0
0
34
0
12
37
0
1
0
9
0
12
6
0
22
8
39
66
0
0
53
2
0
0
0
0
37
146
0
0
3
0
0
0
0
0
31
33
0
17
2
0
1
0
0
7
35
0
48
0
2
9
0
0
20
0
0
0
0
0
46
0
14
0
62
0
2
11
0
3
2
2
0
0
2
12
0
0
6
0
0
12
0
2
11
0
16
0
7
0
6
0
9
4
0
5
3
4
0
0
12
10
0
0
10
0
21
0
15
0
6
0
0
15
1
0
0
0
9
4
10
0
0
22
5
14
0
0
0
14
0
5
3
0
0
5
0
7
0
3
11
0
0
4
21
0
1
12
2
4
0
0
3
20
0
1
0
4
0
5
0
11
5
3
0
0
3
12
0
6
0
0
20
0
6
39
0
0
0
0
0
0
0
0
8
0
8
0
1
0
0
0
1
23
9
0
14
0
29
0
0
1
0
21
0
0
0
19
0
0
0
6
2
14
0
8
0
20
7
15
33
0
0
54
0
0
18
21
0
6
8
9
1
9
0
0
0
0
0
15
0
0
0
0
0
15
0
15
0
0
0
17
0
6
0
6
6
1
6
0
0
19
0
3
0
7
0
15
0
1
9
0
0
0
28
0
0
0
6
0
0
0
10
0
35
0
10
0
4
6
11
0
3
17
0
13
0
0
0
0
8
1
3
4
0
9
0
1
0
2
1
0
13
0
0
10
7
0
3
2
0
10
0
0
4
4
3
0
0
2
0
2
5
2
0
5
0
12
0
0
0
6
0
0
1
4
0
0
0
9
0
0
8
0
0
211
73
3
0
1
1
6
0
0
7
2
0
0
0
0
0
1
2
0
24
0
13
0
0
6
0
0
0
2
11
2
8
6
0
0
1
0
0
0
0
5
7
0
3
0
15
0
6
0
0
2
1
0
0
6
0
5
0
0
8
0
10
0
0
0
10
0
0
16
0
0
8
0
3
42
0
0
0
0
0
31
60
0
3
0
6
33
1
36
0
27
7
0
0
4
46
0
10
24
33
0
0
10
2
0
0
97
0
55
0
0
0
0
11
0
9
0
55
13
0
0
3
13
0
9
0
0
62
43
0
0
18
0
66
1
13
30
0
26
4
0
65
17
0
6
64
82
0
0
24
0
0
0
30
77
0
0
0
7
25
35
0
0
0
0
7
0
24
0
0
0
13
14
107
0
0
0
0
0
0
0
0
0
145
90
0
0
0
13
0
29
9
0
0
42
3
0
0
6
2
17
0
2
9
0
29
0
0
32
0
0
13
3
0
0
0
0
18
0
13
0
67
0
0
0
9
41
0
0
17
2
0
5
1
12
3
0
2
0
28
4
0
0
0
0
13
0
0
1
0
13
0
11
0
0
0
0
0
18
0
0
3
10
0
0
0
0
15
2
0
0
0
0
9
4
10
0
0
0
12
8
0
0
11
10
0
7
0
5
0
0
16
5
0
4
0
0
0
9
0
6
24
10
0
9
21
0
0
0
0
3
2
16
0
0
7
12
0
0
0
0
0
3
6
9
0
2
0
9
3
1
57
0
0
0
37
0
8
0
0
35
0
0
27
10
0
0
0
15
22
6
0
0
46
0
36
0
0
0
0
34
0
0
28
21
0
45
0
20
0
11
0
0
7
9
0
18
51
0
0
61
0
0
35
22
0
0
10
0
0
0
1
0
0
8
13
3
0
0
0
6
0
6
9
0
13
7
0
0
0
20
0
0
0
0
0
13
10
0
2
9
9
0
11
0
2
0
1
4
0
8
0
16
7
18
0
17
21
0
0
12
0
17
0
11
0
10
0
0
0
1
21
0
0
13
11
0
6
1
11
0
10
0
0
0
0
0
2
3
0
0
7
0
3
4
0
0
4
0
1
4
0
0
1
2
3
0
0
0
0
6
0
5
0
0
0
2
0
5
7
0
6
0
2
3
0
3
0
0
0
1
2
216
72
3
0
15
0
0
7
25
0
25
0
7
7
9
15
0
27
0
5
0
0
16
7
12
0
0
0
8
0
0
6
0
0
12
0
0
2
3
2
0
0
4
11
5
0
0
3
6
0
0
0
8
0
0
13
0
5
0
7
5
1
25
0
2
0
0
6
0
7
0
16
0
0
0
0
17
0
11
10
64
0
8
0
0
0
35
6
21
0
0
4
0
3
50
8
0
13
26
35
0
0
0
15
20
0
0
43
20
6
0
8
0
48
0
0
0
33
45
0
25
0
15
30
0
0
0
0
64
7
0
40
0
0
76
17
0
16
0
23
0
34
34
0
24
75
81
0
0
1
43
0
0
0
0
32
18
27
17
0
34
0
0
0
7
10
21
0
0
2
10
25
96
0
0
29
26
2
0
0
0
0
134
111
0
0
17
6
0
0
2
0
0
0
0
3
15
0
0
29
0
4
0
41
0
2
19
24
4
0
17
0
0
21
1
0
0
52
0
2
0
56
14
0
10
0
0
0
18
4
0
5
0
8
0
5
19
0
2
0
0
0
10
4
0
3
10
0
0
6
0
11
6
0
5
0
14
0
16
0
0
0
0
0
14
1
0
6
0
5
8
6
0
0
0
0
4
0
8
0
12
0
13
0
2
0
0
2
3
5
11
0
1
7
0
15
2
13
0
0
11
4
10
0
7
4
0
0
0
0
2
5
0
22
0
0
13
3
0
7
0
0
0
0
11
5
0
0
18
0
19
52
0
13
0
0
0
16
0
0
0
0
2
0
0
21
25
0
0
0
9
0
25
0
2
0
13
18
0
16
17
0
0
34
0
0
25
0
12
0
7
0
0
0
27
18
0
52
0
0
78
0
0
28
18
0
0
13
2
0
5
13
0
0
3
1
0
0
0
13
11
0
4
0
0
6
0
15
0
22
0
2
2
2
0
25
0
0
2
2
0
0
2
0
7
0
6
0
5
5
0
2
0
0
0
7
14
0
12
0
9
1
0
11
3
4
0
10
0
6
0
0
7
0
1
0
6
0
8
0
6
0
0
7
3
0
0
8
0
14
0
1
4
0
0
15
0
0
4
0
4
0
3
0
0
5
0
2
0
9
0
0
3
0
0
3
0
2
0
0
0
0
0
1
0
2
1
0
8
3
0
0
212
90
16
12
0
0
25
0
4
10
0
11
0
0
0
0
10
0
0
0
0
2
0
22
0
10
0
0
20
0
0
0
0
6
0
5
0
3
1
0
4
6
0
0
0
5
0
2
0
15
0
1
0
12
0
0
16
0
0
0
5
0
17
0
0
19
0
0
0
0
0
3
13
15
1
8
0
0
9
81
4
0
0
0
0
46
1
25
0
0
0
0
9
56
39
0
0
31
46
1
1
0
15
11
0
0
0
61
14
0
2
16
4
0
16
0
0
0
66
0
16
14
0
26
0
0
0
13
9
55
0
0
0
0
0
35
48
25
0
0
0
0
31
0
25
65
90
0
0
0
71
0
0
0
5
55
8
0
0
0
0
0
0
20
0
0
12
0
3
8
24
59
28
0
12
12
0
0
0
0
0
97
166
0
0
7
0
7
0
0
5
71
0
0
22
0
29
1
0
9
3
23
0
13
0
0
4
37
0
0
15
0
0
0
7
0
0
54
0
21
0
28
13
0
14
8
6
0
6
0
0
32
1
0
22
7
0
22
0
5
7
0
0
0
5
4
0
0
0
0
4
0
16
0
8
0
10
3
0
3
4
1
11
0
0
0
7
0
20
0
0
1
3
4
1
7
0
0
0
6
0
0
0
7
0
14
0
0
24
0
0
0
10
0
4
0
0
0
2
0
12
20
0
8
16
0
0
0
0
18
19
17
21
9
20
0
8
7
0
1
0
0
21
9
0
3
1
0
17
0
55
0
0
0
1
3
7
0
0
27
0
0
2
3
0
0
0
56
0
14
0
0
0
0
11
0
0
0
0
7
0
0
0
19
0
0
9
0
7
0
0
0
0
0
38
0
14
50
0
0
67
24
0
19
24
0
19
0
3
0
0
0
0
27
0
0
28
0
8
6
0
27
0
3
31
0
0
2
6
0
0
6
5
0
7
1
0
7
0
0
8
1
0
20
0
6
0
0
4
0
0
0
11
0
15
0
0
6
0
2
0
9
19
0
8
0
15
0
0
0
7
5
0
0
15
0
0
10
0
3
8
0
2
0
0
2
0
0
0
6
2
0
1
0
5
0
3
2
1
0
0
4
0
8
3
0
9
0
0
2
5
0
0
0
12
0
0
0
7
0
0
5
0
2
0
0
0
0
0
0
1
2
212
50
0
9
0
12
0
0
29
0
14
5
0
0
12
0
0
0
0
10
0
16
12
0
1
0
25
0
0
22
0
3
18
0
11
1
0
0
0
6
0
6
2
8
0
12
0
0
2
0
0
0
21
0
0
2
0
12
0
21
0
2
1
0
16
0
0
0
0
0
0
11
0
8
0
0
0
3
60
22
0
14
1
0
0
15
3
32
3
0
32
22
49
0
0
0
64
0
13
0
0
22
0
26
0
0
10
0
0
0
6
22
0
0
0
29
2
0
11
23
0
0
0
0
0
7
0
0
17
0
64
0
0
0
0
0
15
60
53
0
0
0
41
4
19
65
0
0
0
0
0
0
0
0
9
9
6
28
0
0
0
0
0
1
0
32
0
0
2
25
28
100
0
0
80
0
0
12
0
0
37
137
0
0
0
2
0
0
0
0
21
1
1
0
0
0
0
0
0
14
0
14
3
0
2
21
4
0
3
10
0
0
30
0
13
0
0
46
24
0
0
32
0
0
0
0
0
0
31
0
0
0
0
0
0
22
0
0
7
0
0
0
26
0
7
0
15
0
6
24
0
0
8
0
8
0
12
0
0
0
0
0
0
5
0
14
0
9
0
6
0
7
0
5
0
2
17
17
0
6
13
0
0
0
5
5
0
0
0
0
0
0
10
0
0
0
14
0
30
11
14
25
17
40
25
15
0
0
2
20
44
17
0
9
10
5
20
3
12
0
3
0
0
0
6
0
0
1
0
4
85
0
0
0
11
0
0
25
0
3
32
0
0
18
0
0
0
0
0
3
0
12
21
0
11
0
41
0
0
16
19
0
1
0
0
34
0
0
7
12
0
2
0
0
54
0
19
37
0
0
46
40
0
21
4
8
0
7
0
20
0
20
0
0
12
0
0
7
0
1
0
4
0
12
0
2
8
0
16
0
2
0
0
5
0
0
2
1
0
0
0
6
14
0
5
0
5
0
25
1
11
0
0
5
0
16
0
0
1
5
7
0
0
0
9
0
0
17
11
0
2
3
0
12
0
0
3
0
1
9
0
2
0
1
7
0
11
0
7
0
0
0
0
7
0
0
1
0
2
0
8
0
2
0
0
11
0
0
2
0
1
0
0
1
2
3
2
0
0
0
0
3
0
6
0
0
8
0
0
9
0
0
212
84
19
0
0
0
0
0
15
0
6
0
9
0
11
22
0
12
8
0
0
9
4
0
0
0
0
0
0
14
9
0
0
0
8
0
0
9
4
0
0
0
16
0
10
2
0
0
10
3
0
0
8
2
0
5
0
6
0
5
0
0
12
1
2
12
21
0
6
0
0
0
10
3
0
0
11
38
40
0
0
0
7
0
0
45
0
1
10
0
2
57
0
0
0
0
68
0
0
17
0
8
11
0
0
26
43
0
0
17
0
29
0
0
0
3
45
0
0
37
0
21
0
0
9
0
0
12
0
0
82
29
0
0
0
0
0
33
89
31
0
0
8
56
6
0
0
0
0
11
0
0
39
25
37
7
0
43
32
0
0
0
0
0
5
18
10
0
18
30
107
0
0
37
9
0
3
0
0
0
116
114
0
0
29
0
21
0
0
8
5
53
0
0
29
0
19
0
0
47
0
4
0
12
0
7
0
27
19
16
0
22
0
9
0
0
0
46
0
26
0
37
0
18
19
0
16
0
30
0
0
0
0
24
0
14
0
5
0
18
0
0
0
7
0
5
0
2
11
0
0
0
6
2
0
0
0
0
6
5
0
13
0
7
5
5
8
0
12
0
4
9
1
0
18
0
0
0
0
0
10
0
0
10
0
2
0
0
0
0
0
11
0
10
11
15
0
12
5
3
6
0
7
12
0
32
57
31
37
0
2
0
6
1
0
26
0
27
16
0
6
4
0
1
0
0
16
13
11
17
0
4
0
0
15
0
1
0
14
0
69
0
0
0
0
3
19
7
0
0
11
3
0
0
12
0
4
0
0
8
0
0
28
15
0
18
3
0
1
0
0
5
0
0
20
0
8
49
21
0
23
35
0
49
0
21
0
15
0
0
9
3
0
10
10
6
0
4
0
3
12
0
6
0
0
12
0
10
0
7
0
11
4
0
8
8
0
4
0
19
0
7
0
0
4
0
0
6
0
0
0
5
11
0
0
0
21
0
0
6
0
6
14
1
4
0
0
0
0
0
15
0
0
0
0
12
4
10
3
0
12
0
4
3
1
1
0
5
0
0
19
6
0
1
0
4
0
0
2
0
0
0
8
0
5
0
3
0
6
1
0
0
8
0
0
1
0
9
0
3
2
0
1
0
0
14
0
1
9
0
4
0
217
69
3
7
0
9
11
0
1
0
2
27
10
14
0
0
0
0
7
0
2
0
0
19
0
14
0
0
0
0
2
0
16
12
0
0
2
0
14
0
5
15
0
6
9
0
4
10
3
0
19
5
0
2
7
0
1
0
7
0
0
7
0
0
7
0
7
0
0
0
9
0
0
0
0
3
30
89
0
0
0
10
0
6
0
0
0
23
0
0
25
0
0
0
0
58
26
0
0
0
0
0
35
0
13
38
0
0
8
0
0
74
3
0
65
0
49
35
0
34
24
0
22
0
5
0
18
0
0
0
0
73
0
0
1
0
7
0
19
28
23
0
0
32
32
15
0
1
26
17
0
0
4
40
59
3
43
0
42
47
15
32
0
13
22
33
0
9
34
94
0
0
0
72
0
0
11
0
0
71
162
0
0
21
2
0
0
8
0
0
27
45
0
0
0
12
0
0
0
15
0
9
9
0
25
11
0
42
1
42
0
0
0
10
0
0
0
19
53
0
0
2
28
0
0
20
0
0
6
5
0
10
0
4
0
0
10
3
0
0
4
5
2
0
0
3
39
0
0
8
1
0
0
4
0
6
0
20
0
0
11
0
0
5
0
0
22
10
2
0
0
0
14
0
24
0
1
0
0
6
0
15
0
0
3
0
4
4
0
19
9
19
12
18
13
0
19
9
0
0
0
8
0
0
0
0
4
33
0
0
0
0
0
0
0
0
12
21
6
7
0
0
0
0
0
22
0
0
2
82
0
0
0
0
3
8
0
5
0
1
0
0
0
0
3
0
12
0
0
26
6
0
22
0
20
0
36
0
0
0
42
24
0
0
0
27
21
0
15
0
12
0
0
0
8
20
16
15
45
0
0
50
0
20
9
7
0
2
0
14
0
12
0
11
0
0
17
0
9
0
3
0
1
7
10
0
0
11
7
0
20
0
0
7
0
4
9
0
13
0
12
0
4
3
0
14
1
0
0
0
6
2
0
5
3
10
0
0
10
1
5
0
0
0
0
0
20
0
20
0
1
13
0
0
1
4
3
0
0
7
3
0
0
0
0
4
0
4
1
3
0
4
0
5
0
0
6
3
0
10
0
0
0
0
7
0
4
0
0
0
6
5
0
0
5
0
3
13
4
0
0
9
0
0
4
0
14
0
4
1
0
0
213
69
8
0
0
0
7
8
0
13
14
0
8
0
29
0
0
7
0
4
14
0
14
0
8
14
0
6
0
26
0
3
0
0
5
2
10
0
0
16
0
0
0
0
9
0
13
0
0
16
0
0
6
1
0
4
6
5
0
1
9
4
19
6
5
0
12
0
0
7
4
4
0
0
0
14
77
0
0
0
4
0
10
0
0
11
35
0
7
9
4
18
0
0
0
62
23
38
51
0
7
0
31
0
6
0
15
4
0
0
0
37
0
0
0
0
7
58
0
0
16
12
0
15
0
3
0
18
0
0
0
44
69
0
0
10
0
0
0
0
0
0
24
0
31
48
25
0
0
0
0
0
47
0
0
0
0
23
0
28
31
16
11
0
34
10
0
41
55
0
0
0
53
0
0
0
3
0
18
174
2
0
0
0
17
0
0
1
0
0
33
70
13
0
0
0
16
0
0
31
0
0
7
0
0
0
1
0
0
0
0
0
31
0
0
0
0
0
31
0
0
32
0
26
0
1
12
6
2
2
0
10
20
1
0
0
13
0
3
10
0
0
0
14
3
0
0
11
0
8
0
1
4
5
8
0
6
6
0
7
0
0
5
5
0
4
0
0
6
11
0
0
0
0
0
0
17
0
13
0
14
0
0
9
6
18
0
14
20
0
15
0
8
0
1
0
0
5
0
3
0
0
3
0
0
0
0
0
0
0
8
0
0
0
4
6
0
27
27
1
0
5
0
2
15
0
15
9
44
0
0
5
11
0
18
0
4
7
24
0
12
0
4
7
0
7
16
0
22
0
18
13
0
0
27
0
34
0
0
0
0
24
0
7
0
15
22
5
0
0
0
0
0
0
0
32
28
6
43
0
0
54
0
14
4
0
0
23
0
1
0
5
0
0
16
0
2
0
0
11
0
0
0
0
10
0
0
13
0
10
0
6
0
3
10
0
0
0
0
1
11
0
0
2
0
0
11
0
14
0
1
1
5
14
0
0
4
6
0
0
4
0
2
2
0
5
0
0
4
8
0
0
0
0
12
0
0
25
4
0
1
0
1
3
0
0
4
0
3
1
0
0
0
8
0
5
0
0
5
0
3
4
4
2
0
0
5
0
0
0
0
0
2
5
0
2
0
0
0
0
5
3
0
5
4
0
0
6
0
6
2
0
216
77
16
0
8
0
2
0
23
1
0
24
0
0
2
0
0
13
10
0
0
6
0
24
14
0
0
0
16
14
0
0
8
0
4
0
7
0
0
0
0
5
0
4
0
2
6
0
10
0
0
0
5
0
14
0
2
0
5
0
1
1
0
0
3
4
1
0
24
0
0
0
0
0
0
60
26
0
0
0
0
0
0
0
0
42
22
26
0
0
0
0
0
0
38
54
0
85
18
0
0
0
19
0
0
0
5
10
0
6
0
0
5
28
11
0
0
73
0
0
14
13
28
6
0
1
33
0
35
0
0
2
73
37
0
0
0
0
0
21
0
0
45
5
0
65
65
0
0
0
0
28
50
0
0
0
0
23
0
23
1
12
17
7
20
0
17
53
22
0
0
20
19
0
0
0
0
0
147
71
0
0
1
3
0
0
6
12
0
0
0
47
0
0
0
0
27
0
0
1
13
0
2
0
13
25
32
0
0
31
0
0
2
4
0
0
0
32
51
0
0
21
0
0
0
7
0
0
7
10
0
0
11
0
1
3
9
0
6
4
3
3
0
9
0
0
17
0
4
0
3
16
0
10
0
9
4
0
1
5
0
0
0
0
6
6
0
23
11
14
13
0
13
9
0
1
0
0
0
10
12
0
0
3
6
0
0
7
5
1
0
6
0
1
0
16
0
8
0
0
2
22
7
0
0
0
7
18
0
3
12
17
20
11
0
20
17
11
0
0
0
0
7
0
9
0
0
16
64
0
0
0
20
0
0
17
0
0
0
0
0
35
0
6
19
0
16
0
0
7
6
9
0
4
26
0
30
4
0
6
44
0
0
11
0
0
36
0
2
0
0
13
6
0
0
38
17
19
36
0
0
43
0
16
7
4
2
2
4
0
0
13
0
7
6
4
1
0
3
5
3
1
20
0
10
0
0
7
0
0
8
0
0
5
0
8
0
0
1
2
3
0
0
4
0
1
0
6
0
12
0
0
0
0
3
0
10
0
0
8
1
1
0
2
7
5
0
0
6
0
11
0
0
0
0
3
16
0
6
3
0
0
7
0
2
0
1
0
0
3
0
2
5
0
0
0
1
4
0
11
0
0
0
3
0
8
0
0
0
3
2
7
0
4
1
0
7
0
3
2
0
0
3
0
3
0
7
0
10
0
0
0
214
66
2
19
0
5
0
7
4
5
0
0
0
8
18
0
25
0
4
0
3
0
0
0
0
6
4
0
0
10
6
13
0
14
0
8
15
0
0
6
0
0
8
5
0
8
4
0
0
5
5
2
8
8
0
7
6
0
16
0
0
3
9
13
3
4
0
12
0
8
0
12
0
0
60
44
0
0
0
0
0
14
0
0
2
17
33
0
0
0
21
4
0
0
63
27
0
71
52
16
0
0
45
0
16
1
0
5
0
12
20
0
6
0
0
0
1
30
37
0
0
37
0
4
12
0
0
0
0
0
0
0
0
90
35
0
0
0
0
59
0
6
7
40
0
0
64
96
34
0
0
39
42
0
8
0
0
0
53
0
6
15
4
0
21
13
29
79
0
0
10
37
0
0
0
1
0
81
146
0
0
0
1
0
7
3
0
9
0
0
1
17
11
0
25
0
0
12
0
21
7
0
17
0
24
0
35
0
3
21
0
0
0
0
11
0
0
31
69
0
23
0
17
0
0
11
9
11
0
13
0
2
0
0
16
0
0
0
0
0
0
0
0
0
0
15
0
0
12
0
0
0
9
0
5
6
0
15
0
0
12
0
7
23
0
13
0
4
2
9
3
33
5
13
15
16
7
11
3
12
8
0
4
13
3
13
0
4
0
4
1
0
6
27
2
27
1
0
21
3
0
0
5
19
0
36
0
11
21
26
12
0
0
0
16
3
0
0
0
0
0
0
18
0
7
12
0
31
0
0
17
2
0
0
7
0
0
22
7
0
4
0
25
0
0
17
10
0
0
45
38
0
0
0
55
0
41
0
18
0
42
0
18
0
0
34
0
35
0
0
0
19
0
0
0
11
25
9
39
0
0
51
0
5
21
11
0
0
3
9
0
0
0
24
0
9
0
1
3
0
11
0
0
0
0
13
0
0
0
2
14
8
0
0
0
3
0
0
6
0
0
0
24
0
7
2
4
6
0
0
5
6
0
6
0
0
0
9
0
0
13
3
0
2
0
4
1
6
0
6
0
0
0
8
6
7
0
3
4
1
0
3
3
4
0
0
4
0
10
0
2
0
1
8
3
0
3
3
0
0
1
0
1
0
1
0
0
0
0
1
2
0
0
4
3
0
1
1
0
0
9
0
0
1
4
0
0
11
0
0
5
0
212
39
0
0
0
12
2
0
0
0
0
0
7
0
0
10
0
0
4
9
7
0
8
0
1
0
0
0
0
0
8
0
7
0
5
3
0
7
0
11
0
2
3
0
3
1
5
0
8
0
2
0
0
0
10
0
20
0
0
12
0
8
0
0
2
1
14
0
0
0
0
0
0
40
35
0
0
0
0
19
0
0
0
9
8
41
9
0
0
0
0
0
0
0
68
0
0
0
33
0
14
5
0
0
0
0
36
19
17
0
0
0
0
0
10
0
7
29
21
0
0
0
12
0
25
20
0
0
18
2
0
0
0
0
91
31
0
0
10
29
0
0
0
36
37
0
0
0
41
57
30
82
52
82
0
0
0
0
20
0
0
35
0
10
7
20
71
0
0
15
45
0
0
2
0
0
29
129
12
0
0
17
15
0
0
15
0
12
0
0
5
27
32
0
0
0
14
3
8
0
0
0
10
3
23
0
21
0
0
31
18
0
1
9
0
5
0
0
102
0
6
0
57
0
8
0
10
12
0
4
0
15
0
0
0
9
17
0
21
14
0
0
19
0
13
0
0
4
0
0
0
1
2
0
12
0
18
4
4
0
2
0
6
9
3
12
1
0
0
0
0
0
13
27
17
8
30
6
25
3
4
33
0
5
0
0
15
2
0
18
0
11
15
1
2
6
0
26
4
2
4
0
14
0
0
26
0
43
0
0
0
0
0
0
0
0
0
0
0
5
0
2
0
14
11
0
11
63
0
0
0
8
0
0
3
0
10
0
11
0
3
0
5
0
2
16
0
10
0
1
9
0
0
0
36
0
31
0
0
12
10
0
41
0
0
0
0
10
0
11
0
0
0
0
0
0
40
19
38
0
0
80
0
0
0
17
0
6
0
16
8
0
0
0
0
2
7
0
0
0
14
0
0
23
0
0
6
0
21
9
0
2
6
0
19
0
0
0
29
0
0
9
2
0
0
10
0
2
11
0
9
0
0
6
6
1
8
0
7
11
0
0
4
14
0
13
0
7
8
0
7
0
0
1
0
0
4
11
0
8
4
0
4
0
4
0
5
3
0
3
0
9
0
0
4
0
8
1
5
4
0
0
0
0
14
0
9
0
0
1
0
2
3
0
1
2
0
5
0
2
0
4
0
3
0
10
0
0
0
3
0
16
209
59
2
9
0
0
24
5
5
7
0
10
0
35
0
0
4
0
0
0
0
21
0
11
0
10
0
0
0
25
0
9
5
6
0
0
0
0
4
2
10
4
3
0
13
0
0
5
2
0
0
0
7
0
0
14
0
2
11
0
17
1
3
0
12
2
1
0
0
1
0
0
51
68
12
0
0
0
0
0
0
0
30
12
0
78
0
1
0
18
0
12
0
89
26
0
0
0
15
20
0
0
0
15
0
23
1
22
0
11
11
0
0
28
0
0
0
56
0
24
0
23
23
0
6
5
17
4
0
0
23
0
0
1
0
76
49
0
31
55
0
0
0
0
70
33
0
0
0
53
46
23
6
0
0
5
46
10
13
0
0
0
1
22
0
49
0
0
6
20
16
0
0
0
0
0
106
140
0
0
0
9
6
10
0
27
12
0
0
3
0
21
26
0
4
0
0
31
0
0
10
0
13
0
23
0
20
0
9
0
29
0
5
0
0
0
0
2
71
0
0
0
51
0
0
0
4
0
11
0
7
4
0
5
0
5
0
8
8
1
1
0
1
0
11
0
5
0
15
8
2
1
4
2
0
1
0
0
1
0
12
0
1
0
22
0
0
0
2
0
4
0
0
0
0
0
0
0
6
0
0
0
2
0
18
0
11
0
0
0
0
0
0
0
0
0
0
0
0
0
0
0
1
0
0
3
0
0
0
0
0
0
0
0
0
0
3
0
1
0
0
30
0
1
11
0
55
10
0
0
35
0
5
0
20
0
0
30
0
0
24
13
2
0
0
24
0
0
10
13
48
0
34
7
19
0
14
0
19
9
12
13
10
0
0
5
49
0
5
5
0
0
3
0
0
10
17
4
18
0
0
38
0
0
21
0
0
0
2
0
1
7
0
6
6
0
0
23
14
0
0
2
3
0
4
4
7
0
0
0
0
4
8
0
0
12
0
0
0
0
14
1
0
0
0
2
0
0
13
5
3
6
11
0
2
0
0
1
10
0
12
4
13
0
8
0
7
0
0
3
0
2
0
0
23
0
5
5
5
0
1
5
0
2
2
0
0
0
5
0
6
1
0
0
4
0
0
0
0
0
1
1
0
7
0
1
0
3
5
3
2
0
0
3
0
0
0
0
0
8
3
0
0
0
0
1
0
2
11
0
9
0
215
62
8
0
27
0
0
0
21
0
18
0
21
0
16
0
0
6
7
10
5
0
17
4
1
0
29
0
14
2
0
8
5
4
1
0
7
0
0
0
0
1
0
10
0
8
0
0
0
16
0
6
0
7
4
0
0
4
0
0
1
1
0
4
0
9
0
12
3
0
0
7
81
12
0
0
0
10
0
7
0
0
44
0
60
0
7
0
0
0
0
0
67
29
0
0
0
0
0
0
0
0
29
22
0
0
0
61
0
0
28
0
13
0
0
0
24
51
0
44
0
8
5
0
15
17
45
13
0
21
3
0
0
0
0
0
43
30
1
49
0
32
0
59
0
0
0
0
0
0
0
0
0
0
0
3
47
20
4
0
6
11
13
10
21
65
0
0
14
65
0
8
0
0
0
91
121
0
0
0
0
16
0
0
7
0
0
9
0
4
0
0
8
34
0
0
0
0
20
0
12
4
0
0
10
0
25
0
9
15
25
0
0
0
4
0
0
0
77
0
23
0
20
2
0
0
0
11
16
13
0
18
0
1
0
3
8
3
0
11
0
2
25
0
0
8
0
6
0
1
0
17
0
0
20
0
21
0
9
10
0
0
11
0
5
0
0
0
0
31
0
10
0
9
0
0
0
0
0
0
0
0
0
0
0
0
4
0
0
0
6
0
2
1
0
0
0
1
0
0
15
0
0
0
0
0
9
0
0
3
8
0
0
0
0
33
1
12
0
0
22
0
3
10
8
18
52
0
0
0
0
10
0
23
0
6
0
0
4
0
0
0
1
9
24
0
0
2
26
0
0
0
0
20
41
0
28
0
8
0
10
0
4
0
0
0
52
9
7
0
0
17
13
0
0
0
19
34
36
0
0
23
17
0
5
15
4
2
6
0
0
7
0
27
0
0
0
23
0
4
0
19
0
12
0
1
0
7
0
4
10
3
0
5
0
0
11
0
17
6
0
7
0
0
0
0
23
2
0
1
0
0
6
0
0
10
8
0
0
0
0
0
0
3
0
20
0
0
3
0
5
0
9
0
0
22
1
0
3
2
0
0
5
2
0
15
0
0
0
2
0
0
1
1
2
0
0
0
2
9
0
0
4
0
0
2
2
0
0
0
0
8
0
1
0
0
4
0
4
0
4
0
14
0
1
0
3
10
0
0
0
0
211
64
9
0
0
0
5
0
3
0
0
8
0
16
0
1
3
3
0
0
4
0
0
5
0
0
0
0
4
3
0
7
0
0
5
2
1
0
6
3
13
0
0
10
0
18
0
3
0
0
0
0
9
0
0
7
8
10
1
0
0
7
0
6
0
11
5
0
0
0
4
86
15
0
0
6
0
0
10
0
0
29
4
60
0
12
13
0
1
0
0
42
28
0
18
0
19
0
0
9
1
40
12
89
0
1
12
0
0
0
76
0
0
0
0
0
18
40
0
48
0
0
12
0
0
12
0
5
49
2
4
4
0
14
0
0
0
58
79
26
0
0
0
29
0
0
0
0
0
7
2
2
0
7
10
3
0
41
22
15
7
0
13
10
62
0
0
0
42
0
0
0
0
0
36
118
34
0
2
21
0
0
33
9
0
14
0
0
2
0
0
0
27
14
0
0
30
34
0
0
0
0
0
0
22
0
0
0
12
10
37
0
0
2
12
0
0
21
40
0
17
0
35
1
18
0
3
15
0
2
0
2
19
0
15
6
0
1
10
2
11
0
0
4
0
12
0
9
0
12
0
2
0
5
0
21
0
0
16
0
0
6
0
1
3
2
0
14
4
17
30
3
2
6
0
0
0
0
6
0
14
11
0
18
4
0
0
0
0
1
0
0
5
0
7
0
0
7
0
0
0
0
0
0
0
5
0
0
0
0
7
15
5
0
17
0
42
0
0
0
14
13
0
8
0
61
0
0
0
2
18
0
0
0
7
0
0
32
0
0
5
0
0
0
9
0
0
23
13
7
0
0
0
36
0
0
32
0
0
12
13
0
9
0
2
0
0
4
0
6
0
0
20
0
0
0
8
21
24
0
0
0
27
0
0
15
0
0
0
13
0
0
0
10
1
0
4
0
1
0
0
0
5
2
0
10
0
0
5
0
0
0
2
5
0
6
0
0
13
0
8
8
0
10
1
7
0
0
9
0
10
0
0
0
0
13
0
8
0
0
0
8
11
0
0
0
5
0
1
0
10
0
0
0
11
0
0
9
6
0
0
7
0
4
0
3
1
7
0
2
4
0
0
4
4
0
0
0
0
3
0
8
0
2
8
6
0
2
0
4
4
0
4
0
4
1
0
1
0
3
0
3
4
0
0
2
3
0
9
2
0
0
212
41
0
15
4
0
23
0
0
13
0
0
12
4
25
0
0
11
0
7
8
0
0
20
9
0
0
1
0
0
8
0
16
0
0
0
13
0
1
0
0
0
4
0
12
0
0
2
0
6
6
6
0
12
4
10
0
3
0
9
4
0
12
11
0
26
0
0
0
0
92
54
0
0
0
0
5
0
0
0
36
0
17
0
0
18
14
0
0
0
0
64
0
0
7
9
16
0
0
52
4
0
0
0
0
5
45
3
0
0
54
23
0
8
13
0
34
49
0
60
0
14
22
12
8
0
0
0
9
52
16
21
10
0
0
0
12
29
51
50
0
0
26
0
37
0
0
0
12
0
11
17
26
0
2
4
0
26
50
14
18
0
19
27
11
0
0
32
0
0
0
0
13
49
86
95
0
0
0
10
0
14
0
0
18
0
0
31
0
0
0
0
14
0
19
0
0
3
0
6
24
0
2
0
0
19
0
9
0
0
24
2
0
0
27
3
0
4
103
0
24
17
0
10
0
1
0
11
5
7
0
5
0
0
0
0
4
0
25
0
0
0
6
8
0
0
11
3
0
0
24
0
0
0
0
0
0
10
12
0
7
6
0
6
7
1
0
0
0
10
0
21
16
21
0
20
0
0
5
0
0
13
0
0
4
8
0
0
21
4
14
10
5
0
0
0
13
0
0
0
0
0
0
0
0
0
0
1
18
33
0
7
3
1
8
5
0
0
13
0
2
0
11
0
26
64
0
0
1
4
0
26
0
12
0
7
18
0
0
0
2
6
9
0
15
5
0
6
24
0
0
0
0
41
0
18
0
11
0
6
17
4
0
0
13
0
57
55
0
0
0
0
6
0
0
0
21
17
33
0
0
2
56
0
0
7
3
0
16
0
3
9
0
8
3
3
0
0
9
0
24
0
0
0
6
0
5
0
19
0
7
1
0
4
19
0
2
7
0
0
5
0
7
0
4
9
0
2
10
0
0
0
11
4
0
1
0
0
5
11
3
0
13
3
0
0
16
0
0
15
0
17
0
3
5
6
18
0
0
14
0
0
1
1
0
0
0
0
2
0
0
0
8
1
0
0
3
9
5
0
0
3
0
2
0
3
0
0
1
4
0
0
0
5
0
1
0
0
0
1
4
1
0
0
2
0
0
7
0
0
8
0
213
55
1
0
6
0
0
2
7
0
21
0
0
10
0
11
0
0
5
0
0
0
0
27
5
22
0
16
16
0
1
5
0
11
0
14
0
8
3
0
0
15
0
0
12
0
0
4
8
0
0
2
7
0
6
0
7
2
0
0
4
6
0
1
0
0
0
0
0
67
54
0
0
0
0
0
6
14
0
0
6
21
36
0
2
23
0
23
0
0
36
2
0
1
12
0
0
0
32
7
0
6
30
0
0
0
26
0
0
0
0
93
0
3
0
0
44
53
6
26
0
0
0
38
0
16
0
13
0
0
0
15
38
35
15
0
30
0
7
0
56
45
0
0
81
0
37
0
15
34
19
0
7
0
9
0
0
0
68
30
11
15
17
10
0
0
17
40
0
0
0
8
0
77
124
0
0
0
5
0
34
0
0
19
0
0
0
0
0
0
36
0
25
0
27
0
0
9
7
0
15
0
25
0
22
12
0
0
17
6
22
9
0
0
0
0
0
0
63
0
1
0
20
9
0
3
0
0
14
0
0
12
1
0
4
0
17
0
13
0
0
1
0
0
2
5
0
0
0
13
1
0
0
13
0
0
0
8
0
11
0
0
7
7
0
10
0
6
6
0
0
4
0
8
16
0
24
5
1
3
15
0
7
11
0
20
0
20
0
0
0
3
18
0
0
0
0
10
0
1
0
2
11
0
28
0
15
24
9
13
0
0
5
0
0
8
8
14
3
5
0
18
0
19
46
0
0
0
0
0
16
0
9
0
0
16
30
0
0
10
0
15
0
0
7
13
0
50
0
0
13
0
0
58
0
0
0
33
0
3
18
20
26
0
0
0
0
58
0
0
17
21
0
0
0
0
0
23
21
23
0
0
53
0
0
20
3
0
2
0
2
4
0
6
0
0
0
7
0
3
0
0
8
24
0
9
4
5
0
3
4
0
2
0
4
0
0
5
0
3
0
1
0
0
0
0
8
0
0
7
7
8
0
4
0
6
7
4
0
0
0
32
4
0
3
21
0
3
3
0
0
0
9
5
0
0
0
7
0
0
0
0
7
0
10
0
0
6
0
8
1
0
6
0
8
2
0
0
1
0
0
0
15
3
0
8
0
1
0
0
6
5
0
0
2
0
2
0
0
5
0
0
1
0
1
0
0
0
0
0
0
0
210
57
4
0
10
16
0
18
0
21
0
7
0
0
0
2
0
4
1
0
25
5
4
9
0
13
0
0
3
13
6
0
0
0
0
0
24
0
0
0
12
0
6
0
0
16
0
0
0
12
15
0
0
13
2
0
0
0
9
0
10
0
15
0
0
0
0
0
88
46
5
0
0
0
1
0
0
0
15
12
0
56
0
0
0
13
0
5
0
0
5
8
0
16
20
0
0
10
18
0
0
18
0
0
0
0
62
11
0
0
0
57
0
5
0
0
41
73
0
7
18
0
0
36
0
6
4
9
1
27
0
0
5
0
0
19
0
0
0
0
45
78
0
0
34
0
51
1
0
35
10
7
0
0
10
10
0
0
0
45
13
29
0
40
0
0
37
0
0
0
0
45
13
91
6
0
10
0
14
0
5
13
2
0
8
21
0
29
0
0
0
49
0
15
0
0
0
0
3
0
14
14
0
32
0
22
0
3
0
2
20
22
0
17
12
0
0
41
29
0
0
0
1
9
0
2
21
0
28
2
0
10
7
0
4
0
2
9
2
0
7
2
0
7
0
3
2
15
0
0
13
0
13
5
0
7
0
9
0
4
0
4
0
12
0
4
9
0
14
0
21
0
0
0
2
0
9
19
0
1
3
0
7
0
15
16
0
19
0
0
0
0
19
13
14
4
37
6
17
35
0
0
55
7
30
27
0
36
7
7
0
11
0
8
19
5
0
4
9
0
0
14
0
35
20
0
0
8
0
20
0
25
0
23
6
0
0
30
0
8
5
0
0
0
25
0
0
24
0
14
0
0
4
16
0
0
29
0
0
35
0
0
21
18
0
0
24
43
0
0
0
0
10
2
0
20
0
31
25
25
0
0
42
0
0
9
12
0
3
0
14
0
0
20
1
0
3
0
0
0
0
10
0
0
20
7
0
0
19
8
0
0
0
14
0
8
0
2
0
3
2
1
0
0
15
0
2
0
6
0
0
0
0
8
9
0
0
0
0
19
5
0
0
0
0
7
1
0
7
0
5
0
0
0
13
0
11
0
9
0
0
23
0
0
0
0
8
0
1
0
0
2
0
6
0
0
4
2
2
1
4
0
0
0
9
0
5
8
2
11
0
0
13
0
0
2
3
1
5
0
3
0
5
0
0
0
1
0
4
3
2
0
215
62
3
14
0
17
0
0
7
0
12
0
0
5
34
0
34
0
3
0
17
0
4
10
0
16
0
0
0
0
4
2
3
4
6
0
0
0
0
0
1
0
9
0
0
0
4
6
0
0
0
2
7
4
0
6
0
16
0
0
11
7
0
0
0
0
10
18
68
8
0
0
0
0
16
0
0
0
0
0
39
31
0
2
7
17
0
21
31
0
13
1
0
0
34
15
0
41
0
0
0
23
0
0
0
0
51
0
0
18
0
45
58
0
10
0
23
76
0
10
0
0
0
0
0
18
37
13
0
0
13
0
0
0
0
38
23
0
0
0
0
47
65
0
59
0
0
19
0
10
19
11
0
0
16
1
0
0
0
58
23
24
18
0
0
20
0
0
0
0
99
4
63
106
0
0
0
20
0
0
0
6
0
17
0
0
7
0
3
0
0
0
18
0
10
16
0
0
0
13
0
28
22
0
0
18
10
0
0
0
8
0
0
0
0
0
0
0
40
8
0
38
9
0
18
2
0
0
0
13
0
1
12
0
9
5
0
0
22
0
0
0
0
28
0
14
0
0
20
0
0
7
0
9
0
3
0
12
0
17
5
0
3
0
0
19
6
0
8
0
0
15
0
0
0
10
0
0
13
0
0
0
0
0
10
0
0
11
6
0
26
0
0
20
45
35
33
0
31
40
8
15
51
15
10
27
28
26
0
18
0
0
0
0
0
0
15
0
24
0
1
0
0
58
0
0
0
0
0
0
3
0
23
0
0
6
14
0
0
0
0
0
28
0
7
0
0
4
0
0
0
0
0
59
0
0
0
13
0
11
11
0
0
0
0
17
0
28
8
0
0
0
22
0
0
5
0
48
20
22
0
0
31
0
0
6
6
0
7
2
0
0
5
0
0
1
0
13
4
4
7
0
0
12
0
7
8
0
7
0
13
0
17
0
0
0
0
0
0
25
0
7
4
0
0
26
3
0
0
6
0
14
0
2
5
0
9
1
10
6
0
6
2
9
0
0
0
11
10
17
0
4
0
0
0
12
0
9
0
0
12
0
0
4
8
0
1
0
0
0
1
1
0
0
0
0
0
2
0
0
0
0
0
2
1
0
0
0
4
0
8
0
0
0
6
0
5
0
0
0
4
0
0
0
10
0
0
2
0
0
8
0
206
49
0
0
0
8
0
0
26
0
6
7
16
21
0
14
0
20
0
12
0
16
0
0
0
10
0
0
10
3
9
0
7
0
3
0
7
0
0
18
8
3
0
2
12
5
0
0
22
0
4
1
0
0
0
10
4
0
17
0
0
10
3
0
0
13
24
48
29
0
0
0
0
0
12
0
0
0
33
0
65
0
0
0
29
0
0
51
0
0
0
0
0
34
96
0
0
20
0
0
0
18
0
0
0
0
52
15
0
0
0
36
69
0
0
0
33
80
0
13
19
0
12
0
18
0
0
33
10
35
13
11
0
0
12
11
0
0
0
0
13
0
43
0
0
39
0
15
0
0
17
0
10
3
12
0
0
0
0
37
50
11
0
0
10
24
0
37
0
47
38
44
104
0
0
0
22
22
2
25
4
2
0
6
0
31
0
1
18
6
5
0
0
32
0
29
14
0
0
0
3
0
5
0
14
17
0
12
15
0
23
23
2
0
3
2
0
0
35
0
0
31
0
7
5
0
0
0
0
0
0
0
4
0
0
9
0
0
15
0
1
14
3
2
0
14
0
7
3
0
0
4
0
0
2
9
3
0
22
0
0
4
0
3
0
0
3
5
0
8
0
0
3
0
2
8
8
0
13
6
13
5
0
0
0
5
0
13
0
0
3
24
0
4
0
0
30
0
10
17
0
0
0
30
0
10
15
3
32
0
0
0
14
0
10
0
9
21
7
0
0
1
60
0
0
0
10
12
7
0
2
0
0
2
0
7
14
3
0
0
0
0
23
0
14
0
31
0
19
5
0
23
0
63
0
0
14
0
0
7
4
0
0
0
13
49
0
37
29
0
0
0
0
4
0
2
0
59
1
16
0
0
38
0
0
13
8
0
0
3
2
4
0
6
8
0
5
0
0
4
8
9
0
7
7
0
0
0
7
0
1
20
0
0
19
0
0
4
11
0
0
0
9
13
0
1
0
6
7
1
7
0
0
0
13
11
0
9
0
0
11
0
10
3
19
0
14
0
0
0
0
0
9
4
8
0
0
4
0
10
0
0
0
0
3
0
3
3
0
1
8
0
7
0
0
10
0
1
2
6
2
0
1
5
0
2
0
3
0
5
0
5
7
0
8
0
3
0
3
2
0
4
5
0
0
7
0
5
3
0
2
8
202
48
0
5
11
0
0
11
7
0
9
0
8
0
0
0
8
14
0
0
0
0
19
6
14
0
17
0
0
0
0
8
0
25
0
0
0
2
11
0
0
2
4
0
0
4
10
0
0
10
9
0
11
0
0
0
4
2
0
0
10
11
0
0
6
19
35
11
0
0
0
0
2
2
0
0
0
0
0
30
34
0
0
0
8
0
43
3
0
17
18
0
0
86
69
0
35
0
0
0
11
27
0
0
0
58
23
0
12
0
0
0
74
0
0
0
62
50
15
0
0
0
0
0
6
0
6
0
0
33
50
20
0
0
0
43
0
0
72
0
0
22
0
2
0
54
0
1
0
18
8
7
0
14
0
0
17
0
29
43
87
0
0
25
13
0
0
39
0
49
2
63
6
0
0
9
0
0
2
5
2
0
0
0
6
0
6
0
15
0
12
0
0
18
7
0
19
2
0
0
0
6
11
0
0
23
12
2
0
4
20
0
14
0
0
0
6
0
30
11
0
60
0
24
24
0
0
4
15
0
14
14
0
4
12
12
0
7
4
0
2
0
0
0
25
0
8
0
15
0
5
19
0
2
0
8
0
0
12
0
12
0
0
0
12
8
0
9
13
0
6
12
9
0
0
0
0
0
0
3
13
15
0
33
0
0
5
0
0
0
8
0
11
0
0
0
0
0
10
0
0
3
0
0
0
8
0
0
13
8
0
4
14
6
0
20
0
4
0
10
0
32
52
0
0
0
22
0
11
0
6
0
0
59
0
0
12
0
0
0
6
0
1
0
4
33
6
0
0
0
4
0
0
74
0
0
34
0
14
2
0
29
9
0
13
0
23
7
42
0
0
5
0
0
0
13
0
32
37
0
0
0
6
2
0
16
7
0
10
11
0
0
0
5
5
10
0
0
18
0
0
0
3
0
0
18
0
3
13
0
12
0
0
11
0
0
24
0
0
17
0
0
0
0
12
0
18
0
5
2
0
0
9
0
4
0
9
0
9
0
16
0
0
13
0
17
0
0
3
25
0
0
3
4
3
2
9
4
0
0
4
2
8
0
0
4
0
0
0
5
7
0
0
4
0
0
0
0
0
0
6
0
0
0
1
0
8
0
0
6
5
0
0
1
0
3
0
2
2
0
0
0
4
0
8
0
3
1
0
0
0
0
213
63
7
0
0
0
0
0
0
6
4
0
13
5
18
15
0
2
0
19
0
0
19
0
0
0
0
0
2
17
3
0
5
0
0
2
20
0
4
0
8
18
0
0
12
6
0
0
13
0
0
2
0
6
0
0
5
0
0
10
34
0
12
13
0
53
7
0
0
1
0
0
0
0
6
0
3
23
0
79
0
0
0
20
0
0
4
0
0
15
47
0
0
98
15
4
0
0
0
0
6
0
0
0
25
27
41
0
49
0
0
0
82
0
0
0
48
26
20
0
42
6
0
1
0
64
0
0
0
0
0
89
30
16
5
0
0
0
9
2
0
0
2
0
0
48
0
8
0
0
52
0
0
13
0
0
12
28
22
82
0
0
4
11
0
0
16
0
65
0
68
14
0
0
0
3
22
8
0
0
4
5
20
11
0
0
5
0
0
0
5
0
0
7
0
5
0
0
9
7
0
0
0
21
0
0
0
2
0
6
0
3
24
17
0
4
1
0
0
17
0
35
0
0
21
0
26
13
0
2
14
0
7
11
0
14
0
16
0
0
1
0
0
17
0
13
0
0
0
5
0
8
0
0
0
5
0
13
17
0
12
0
0
12
8
0
0
0
0
0
11
0
0
0
0
21
0
0
3
0
0
0
15
0
16
0
0
0
7
0
23
0
0
0
1
14
0
0
0
9
4
0
0
0
0
5
0
11
0
0
0
8
1
0
0
0
0
13
0
4
6
49
0
0
28
0
0
0
15
0
11
3
0
9
0
0
8
0
9
8
0
4
17
0
0
49
0
3
3
0
19
0
0
55
0
0
29
0
16
47
0
0
0
0
26
0
0
46
16
0
3
15
0
21
0
29
0
27
27
8
0
0
0
32
0
21
1
0
0
0
10
0
4
5
0
0
0
6
0
5
11
1
1
21
8
0
0
2
0
6
0
2
0
0
0
2
2
2
0
0
2
4
5
21
0
3
2
0
2
3
0
18
0
16
2
0
4
3
0
1
7
0
0
0
1
0
12
0
0
1
0
0
0
1
5
0
0
8
0
11
0
8
0
0
0
3
2
0
0
1
0
0
4
0
7
10
0
10
0
2
2
0
0
6
1
0
0
0
0
0
1
0
6
0
9
0
3
3
0
0
0
10
0
1
12
0
0
0
1
5
0
6
199
56
0
5
0
0
22
0
15
0
0
0
13
0
0
19
0
0
1
0
0
3
7
0
4
14
3
0
0
8
0
6
5
4
2
0
0
0
14
0
7
0
2
1
4
0
0
0
13
0
9
0
5
3
15
0
4
11
0
0
3
43
69
10
17
0
0
0
0
0
0
5
0
16
0
0
0
1
84
5
0
0
0
0
0
52
0
0
4
0
61
0
31
78
0
0
22
9
16
17
0
12
0
0
11
31
38
0
0
75
5
0
66
43
0
0
68
49
0
0
18
77
0
0
0
0
14
13
18
0
0
0
59
38
2
0
11
48
0
30
0
30
0
0
0
26
24
2
12
0
17
31
2
0
0
0
29
72
34
91
0
0
21
0
0
99
0
87
31
0
40
0
0
0
14
0
0
0
0
0
0
0
0
0
19
9
0
0
0
0
9
4
1
14
0
32
2
9
0
0
0
0
1
45
14
1
0
1
0
5
0
22
0
0
6
0
0
20
23
48
0
0
12
21
6
0
0
0
0
23
0
6
0
8
0
0
0
17
0
3
0
12
0
8
3
0
3
11
4
6
0
8
14
11
0
4
13
0
0
6
1
6
0
7
0
6
6
0
0
0
3
0
0
2
3
10
0
5
0
0
0
0
11
0
9
0
15
3
0
0
0
17
0
0
8
0
0
12
3
0
0
9
0
10
1
0
0
23
0
0
0
1
0
12
0
9
18
0
0
4
23
2
0
0
0
11
16
2
4
2
0
0
0
24
0
0
16
0
9
0
4
2
17
0
0
20
0
0
0
0
0
0
0
74
0
0
1
0
42
0
0
0
0
3
27
0
0
0
55
0
0
0
0
20
0
1
0
36
21
0
0
6
0
11
0
19
5
0
8
2
0
0
10
0
10
0
0
0
7
0
0
11
0
0
0
10
0
6
11
0
17
0
4
4
1
0
0
13
0
0
1
7
0
5
0
7
0
14
0
1
0
9
0
0
2
0
0
0
0
8
0
4
21
0
6
6
14
0
7
4
0
0
0
2
0
7
9
0
5
0
1
0
0
1
4
0
0
7
0
5
0
3
3
0
0
0
6
1
0
0
1
2
0
0
0
2
1
4
5
0
0
2
0
0
0
0
0
0
0
0
6
0
1
0
1
3
0
4
0
0
2
0
209
70
15
8
0
21
0
4
6
10
13
0
6
3
11
0
0
12
0
0
8
0
0
11
6
0
0
0
6
0
7
1
0
8
0
20
2
11
0
1
0
7
0
3
6
0
6
0
0
4
0
10
0
0
3
2
0
11
0
10
0
0
6
0
0
0
0
3
0
0
3
0
8
0
0
0
12
52
39
0
0
0
0
8
28
0
0
0
0
0
0
0
62
62
0
0
0
0
0
24
0
15
0
0
0
52
3
0
0
82
24
0
46
20
0
15
92
19
0
3
0
70
24
0
0
23
0
0
44
0
0
4
0
76
42
0
1
161
0
49
0
38
4
6
0
0
61
8
13
0
0
39
6
0
0
0
24
34
43
7
0
0
8
0
80
0
0
114
14
80
0
0
23
0
12
24
8
24
0
28
9
0
35
0
2
0
26
0
18
0
0
10
5
0
0
0
0
13
6
1
2
2
0
0
26
0
0
0
4
13
7
35
0
0
0
12
0
14
4
23
0
42
13
10
0
0
13
3
0
0
11
0
9
18
0
10
9
0
3
5
0
0
0
7
0
0
0
14
0
0
7
0
0
0
0
0
0
28
3
0
7
0
17
0
1
11
0
15
0
3
0
12
0
3
0
8
0
2
0
10
0
12
0
0
0
16
0
17
0
33
0
0
3
0
0
14
0
2
1
5
0
0
8
3
0
13
0
0
0
2
7
10
13
0
0
7
6
0
0
16
30
25
0
0
26
0
0
4
0
0
0
0
10
29
0
4
0
0
4
0
0
40
0
0
4
30
0
0
34
0
0
0
2
47
0
0
16
0
41
0
0
27
0
5
0
0
0
55
39
0
0
33
0
0
0
0
3
23
28
0
18
0
5
31
0
22
8
0
0
13
0
4
1
0
4
6
0
8
0
4
0
0
6
10
0
7
9
0
0
9
0
16
0
14
0
13
0
0
21
3
0
4
0
5
14
0
9
0
0
2
0
2
16
0
3
0
9
13
2
8
0
9
0
5
0
0
0
11
0
0
0
0
6
13
0
12
5
6
8
3
3
3
0
0
0
0
0
2
0
0
4
0
1
6
0
8
3
1
8
0
0
0
1
1
0
2
0
0
4
0
5
2
4
3
1
0
5
6
0
1
3
0
0
2
0
0
0
0
0
6
0
7
203
48
2
0
2
0
20
0
0
0
0
16
0
9
0
6
0
0
10
0
8
12
17
0
0
8
56
0
0
3
7
0
0
0
12
0
0
0
2
2
0
8
0
9
0
5
0
1
0
6
5
0
10
12
0
12
0
0
19
0
0
7
0
0
10
0
11
0
0
26
0
14
1
0
0
33
25
64
0
0
0
0
1
3
17
35
0
0
47
0
0
6
63
33
12
0
0
0
0
7
15
0
30
0
35
53
0
0
0
43
22
0
0
29
0
29
70
1
0
22
0
58
92
0
0
0
10
12
49
0
0
0
32
0
69
38
0
19
0
65
23
32
0
46
0
0
61
0
29
32
0
34
0
0
0
0
37
0
52
0
0
15
0
26
27
0
82
41
24
5
0
0
0
17
2
0
4
0
3
0
0
22
0
0
0
19
0
30
0
12
0
13
0
0
1
0
3
0
0
0
0
0
2
0
7
24
2
0
28
4
0
4
0
0
6
0
0
0
23
29
0
0
32
0
28
0
0
0
11
2
0
2
8
0
9
0
10
0
0
0
6
1
6
0
16
0
0
15
1
0
0
15
0
19
8
0
16
0
8
0
0
0
2
0
0
0
0
6
0
4
10
0
0
23
0
2
8
0
10
2
0
13
0
10
0
0
0
7
8
0
0
0
15
2
0
0
0
8
0
20
1
14
15
6
0
1
0
0
0
0
7
5
5
0
2
0
20
0
11
43
0
0
0
0
0
0
10
0
27
7
0
3
19
7
8
13
0
30
3
0
1
14
1
0
0
21
0
19
0
0
0
0
2
56
0
0
24
0
41
15
0
18
0
23
0
0
0
25
45
0
0
12
26
9
0
0
36
7
28
0
19
0
0
24
0
12
4
0
0
9
0
27
0
0
0
15
0
0
5
0
24
0
0
0
5
4
0
0
4
1
4
7
0
15
0
15
0
17
0
0
2
6
4
0
1
11
0
2
0
5
2
0
0
3
8
1
0
0
7
0
4
14
0
8
9
0
10
1
0
0
17
0
0
0
3
8
2
0
0
3
2
0
0
5
0
0
4
2
0
11
0
3
0
5
2
4
0
6
0
1
0
1
0
0
2
6
0
2
3
1
1
2
0
0
0
0
0
0
0
0
0
8
0
0
0
0
2
0
13
0
5
0
205
27
0
16
0
10
0
12
0
7
0
0
0
9
0
3
0
5
0
0
0
0
6
3
3
0
0
0
1
0
13
5
3
1
0
0
6
0
0
1
9
0
9
0
5
0
0
10
0
5
0
0
0
4
2
0
0
8
0
12
9
10
0
0
0
14
0
0
18
0
0
8
0
0
0
2
63
0
0
0
16
0
3
38
17
0
18
0
0
0
0
6
71
37
0
0
0
28
5
19
1
5
0
7
39
36
0
0
10
0
46
0
10
2
0
54
73
0
0
29
0
14
83
18
0
0
0
27
44
2
0
0
0
0
0
80
53
0
0
50
9
16
4
37
0
0
14
15
56
75
0
11
26
0
0
0
0
22
62
0
0
5
16
79
0
95
63
0
0
0
0
0
14
0
9
2
4
6
0
2
16
5
18
0
0
65
0
0
11
0
0
0
0
16
15
0
0
26
4
18
1
0
18
0
7
0
10
0
3
7
22
14
31
6
18
2
0
15
0
47
0
0
38
0
13
11
0
2
26
0
0
1
13
0
4
0
0
0
0
6
16
0
24
0
16
11
0
13
0
10
0
13
6
0
1
3
0
6
0
9
12
6
0
3
8
0
7
0
1
0
14
0
0
0
5
0
0
14
0
0
9
0
0
0
7
0
3
0
0
0
8
0
1
17
0
0
10
14
18
0
0
5
0
0
6
0
0
0
17
26
0
5
2
0
25
1
0
6
49
0
0
41
0
0
0
24
0
0
0
17
3
0
24
0
0
0
4
32
0
0
24
2
0
2
29
0
15
0
9
0
0
3
0
21
0
0
20
0
29
22
0
15
48
0
9
0
0
6
77
0
0
14
0
17
0
0
0
2
41
1
16
0
0
40
0
29
0
0
0
14
0
3
0
16
1
0
0
13
0
0
0
9
6
0
0
13
0
22
2
0
9
0
2
0
1
0
7
0
7
4
8
0
0
0
1
0
12
2
0
5
0
14
0
1
0
0
15
0
12
0
0
4
0
4
0
1
0
20
0
10
0
0
0
14
0
12
0
4
6
3
0
7
4
0
3
0
3
0
0
1
0
2
4
0
7
0
3
0
2
0
8
0
7
2
0
1
5
0
3
0
4
0
9
0
2
0
2
0
4
0
3
0
10
0
0
5
0
13
0
2
0
2
205
90
39
0
10
0
0
0
0
9
0
17
28
0
9
15
0
0
11
0
11
0
0
22
14
0
0
0
18
0
3
0
18
0
3
7
0
4
1
0
0
9
0
0
5
1
0
0
6
0
0
12
0
9
0
1
9
1
16
0
0
0
16
0
10
2
0
8
0
4
2
0
0
0
26
35
46
0
0
1
0
0
13
32
13
0
0
0
15
0
0
15
70
51
0
0
0
6
6
0
0
0
0
28
55
19
0
5
8
0
61
1
2
0
0
70
63
0
33
15
0
0
25
57
0
21
8
16
0
17
0
41
0
11
0
6
57
17
9
30
0
0
0
40
36
0
0
29
37
10
0
28
47
0
0
0
2
34
61
0
43
0
145
0
65
81
71
0
0
0
3
0
7
12
0
20
0
0
6
16
0
13
0
42
0
11
7
0
0
24
13
28
0
7
0
10
0
0
17
0
0
34
0
0
8
31
11
0
0
0
15
0
1
0
10
0
1
0
0
12
0
0
48
8
22
0
0
22
1
2
0
5
0
15
0
19
6
0
6
0
0
4
7
0
12
0
0
0
0
0
0
0
3
8
0
0
0
6
12
0
0
0
3
23
0
11
13
1
1
0
0
2
4
0
4
0
3
0
17
1
0
20
12
0
0
26
0
0
0
0
0
0
0
0
0
0
3
0
16
0
0
0
17
0
0
0
0
18
23
0
23
0
2
0
0
0
11
6
57
0
52
0
12
3
0
0
11
5
0
0
0
3
8
0
0
0
6
0
0
8
8
0
0
0
0
7
15
0
0
0
2
2
19
7
0
3
41
0
27
0
0
37
0
4
0
0
17
0
45
0
0
0
0
0
9
0
19
8
5
17
1
0
19
8
0
7
11
0
1
6
0
20
0
3
5
0
0
6
0
14
0
0
0
2
1
0
12
0
10
5
0
9
0
0
2
5
6
0
3
0
0
5
0
15
0
0
0
0
23
0
1
0
12
2
0
4
0
0
0
2
0
0
9
0
13
0
0
13
0
0
0
0
14
0
7
14
8
0
9
0
5
0
9
0
0
0
2
2
0
3
0
1
2
1
0
2
0
0
7
0
3
0
0
5
1
3
0
0
0
5
0
0
0
0
6
0
3
0
0
1
0
6
0
0
0
3
0
0
0
3
2
0
209
56
5
0
1
9
2
9
0
0
0
18
0
12
0
22
0
31
0
0
0
12
8
0
3
0
6
0
0
6
2
5
0
4
0
1
4
1
0
10
6
0
0
9
5
0
9
6
0
0
0
2
3
0
0
11
0
0
9
0
4
10
0
5
0
9
0
16
0
0
0
6
0
0
10
81
0
0
0
0
15
0
8
18
8
0
0
0
17
0
0
0
70
51
0
0
0
15
0
18
0
0
0
65
0
0
0
0
0
0
0
21
45
0
0
76
58
0
49
0
0
0
0
64
5
0
0
5
64
0
0
0
0
32
0
0
0
46
72
0
17
0
0
24
90
60
0
38
30
9
0
51
35
0
0
0
3
54
19
46
0
75
0
0
117
83
0
0
0
0
0
19
0
0
2
0
17
22
2
0
0
0
0
0
1
0
0
1
11
0
2
0
25
0
0
4
0
0
4
9
2
0
26
0
0
0
5
24
0
28
0
0
24
0
0
0
4
0
0
34
27
0
3
4
0
0
0
3
0
0
0
18
0
0
14
0
13
9
0
0
0
7
0
1
0
18
0
0
15
0
0
0
4
0
0
5
0
11
0
0
2
13
0
0
6
0
0
11
0
0
0
17
3
15
1
0
5
0
6
0
1
0
8
0
0
0
0
13
0
19
0
0
0
0
0
1
4
0
0
0
0
0
0
0
0
0
3
36
0
0
3
0
0
9
20
16
2
65
0
0
70
0
0
0
21
2
0
0
2
6
14
5
0
0
0
7
22
0
0
36
0
0
0
14
0
0
0
16
0
0
0
27
45
7
0
0
31
0
47
20
0
23
0
0
10
23
0
33
18
0
0
7
0
6
0
0
3
28
0
23
0
0
0
27
0
18
0
0
2
0
13
0
0
6
0
0
5
0
0
0
7
0
9
0
10
14
0
0
0
0
13
0
11
0
0
9
0
1
1
1
0
0
0
0
0
0
4
24
0
14
0
0
10
0
21
0
10
0
3
5
12
0
0
9
6
0
15
0
0
14
0
0
0
2
0
10
0
3
2
6
2
1
0
0
1
5
0
0
0
0
4
1
0
0
6
2
1
0
1
0
2
0
3
7
0
10
3
1
0
5
2
3
0
1
0
0
0
1
0
0
5
0
6
3
3
1
4
0
0
5
4
0
215
39
0
0
0
0
15
0
19
0
19
12
0
0
4
0
0
0
0
0
1
0
0
13
0
2
0
0
0
0
7
0
4
29
0
0
2
0
0
9
0
0
7
0
1
0
0
6
0
3
13
10
0
4
21
0
5
10
0
6
5
0
3
6
0
14
0
0
0
0
0
0
0
0
6
67
0
0
0
5
15
6
1
35
0
0
0
7
17
0
12
0
70
29
0
0
8
0
26
0
18
0
9
32
32
0
0
0
8
0
0
0
4
0
0
70
38
0
58
0
0
0
0
69
31
0
4
0
19
31
0
5
0
36
0
0
43
48
0
40
5
25
0
0
29
30
0
15
41
12
0
16
46
0
0
23
26
40
5
0
0
72
0
88
99
38
0
0
0
0
0
0
0
0
0
12
0
0
2
0
0
12
16
0
29
8
31
0
0
0
0
14
0
0
21
13
0
78
0
13
0
0
17
54
0
0
39
0
0
4
0
21
0
0
0
4
0
0
7
18
10
0
0
40
16
0
0
0
13
11
7
0
0
0
0
2
17
7
1
10
1
8
0
0
0
7
6
7
0
0
21
0
0
1
14
1
0
0
0
8
0
15
0
0
15
0
22
0
14
6
4
0
3
0
2
0
9
0
0
0
3
6
0
0
0
13
11
0
9
0
1
0
0
0
0
0
0
16
0
0
0
0
10
10
19
16
20
0
9
12
0
0
0
0
0
0
44
15
0
0
52
0
0
0
0
0
36
0
12
3
0
0
14
0
0
9
0
0
50
3
0
0
34
0
0
16
0
44
0
0
0
0
74
0
0
0
6
0
9
52
0
0
3
12
0
0
0
0
33
0
0
8
73
0
1
0
10
2
22
34
0
0
0
31
0
2
3
12
0
0
20
8
0
0
12
3
3
0
4
15
2
6
0
2
0
0
1
6
8
0
3
0
0
1
19
0
3
11
0
0
14
0
4
7
0
6
0
0
0
8
0
4
0
20
0
9
0
6
0
0
4
4
0
8
0
16
0
0
5
0
0
0
0
9
0
24
0
6
5
3
0
4
2
3
0
0
2
0
11
3
4
0
8
2
0
0
0
7
0
1
4
2
1
0
4
0
0
0
1
4
0
0
0
0
1
2
0
3
0
7
2
2
0
2
0
0
0
3
11
0
4
0
208
67
16
5
2
0
0
7
15
8
0
0
11
4
0
0
0
0
3
0
5
0
13
0
7
0
7
0
0
7
5
3
4
0
2
0
11
0
0
0
8
0
16
0
0
7
7
0
17
0
0
0
25
0
0
6
0
7
0
5
6
0
5
0
2
10
0
23
0
0
0
16
0
0
19
66
0
0
0
0
0
43
29
6
0
0
9
0
0
0
0
31
67
0
18
0
0
11
0
14
0
4
14
40
22
0
27
9
0
12
0
0
0
0
25
70
0
0
75
8
0
0
11
36
60
0
0
12
28
6
0
14
0
3
0
21
78
0
3
1
32
8
36
0
2
0
0
0
21
24
0
0
63
0
0
26
37
65
0
0
106
0
98
88
4
0
0
0
4
15
0
17
21
23
17
0
13
0
12
0
2
0
0
0
8
0
0
0
21
0
12
2
2
0
0
0
0
0
0
0
2
3
0
0
0
0
0
0
0
3
0
0
8
1
0
19
0
4
0
8
10
0
0
0
30
0
24
0
35
0
1
9
0
0
5
0
0
0
4
0
0
21
0
10
0
4
0
0
0
10
0
9
0
2
0
0
1
15
0
0
2
7
0
5
0
3
0
3
10
0
4
20
0
2
0
24
0
5
2
0
0
15
0
0
6
0
0
0
20
0
10
10
0
0
0
2
8
0
12
8
0
31
0
22
0
12
0
0
15
8
0
0
0
22
4
5
79
0
0
0
68
0
3
6
0
18
0
2
2
0
18
0
27
2
18
3
0
0
50
0
8
0
14
0
16
0
5
33
0
1
0
0
62
8
0
13
19
0
46
0
0
0
37
0
0
36
0
0
58
0
0
45
0
1
1
0
13
0
44
6
8
0
0
23
0
18
0
2
0
4
0
8
0
3
0
13
4
0
3
0
0
5
1
11
8
8
0
0
14
5
0
12
6
8
0
0
8
0
9
0
0
13
0
0
1
7
0
14
0
0
0
7
12
0
3
0
8
0
10
17
0
14
0
0
4
0
34
0
0
0
1
0
0
0
10
5
4
6
1
0
3
0
0
0
1
0
3
0
2
0
2
0
0
0
0
7
2
0
1
0
0
0
0
6
0
7
0
0
1
0
0
0
0
1
0
4
0
6
3
0
0
11
0
3
0
5
0
5
0
6
4
0
220
19
0
0
2
0
7
1
0
5
0
9
3
0
0
2
7
0
0
0
10
67
0
0
13
0
0
1
9
0
0
0
4
0
9
4
0
0
0
21
0
16
0
0
5
0
0
0
0
0
3
12
0
0
6
0
1
0
13
0
4
3
7
4
7
0
21
0
0
0
0
0
0
0
32
75
0
0
6
0
26
0
0
0
0
47
0
0
0
11
0
37
71
0
0
3
14
1
7
0
0
0
20
1
0
0
0
26
0
19
0
0
0
0
37
84
0
0
60
12
46
0
0
0
76
0
0
46
0
32
0
0
0
0
50
44
0
0
0
0
0
0
39
0
0
0
9
30
37
32
0
0
28
0
0
0
47
32
0
0
5
0
123
24
0
0
10
3
19
0
7
0
2
5
0
18
5
1
1
7
14
0
8
10
19
10
3
13
2
16
4
0
14
13
3
14
33
0
17
0
4
11
19
10
14
12
0
15
18
24
0
8
9
21
19
2
0
14
0
16
12
0
3
13
29
2
0
0
0
7
32
25
0
15
9
13
0
19
9
15
0
7
19
0
7
1
0
21
0
7
3
3
5
5
0
1
1
0
18
11
0
0
0
4
20
0
9
1
0
14
0
2
0
0
23
0
0
19
0
0
11
8
0
0
0
0
8
0
1
0
12
0
3
8
0
26
0
26
0
0
16
0
11
0
9
0
20
23
0
0
4
0
12
0
13
44
3
0
0
0
48
0
0
6
4
0
0
0
17
0
0
0
25
4
0
14
0
0
0
32
0
2
1
0
0
0
0
27
0
0
0
0
57
0
0
2
0
0
13
35
0
0
14
0
0
0
0
0
37
33
0
0
0
6
0
0
0
14
43
0
11
1
0
33
0
2
3
3
0
5
1
0
0
7
4
0
0
0
0
7
0
0
0
0
0
6
0
17
0
0
14
0
0
3
11
6
0
2
6
0
2
3
0
0
8
0
4
0
12
0
7
0
0
0
0
7
1
7
0
0
5
14
0
21
0
0
0
0
6
11
0
0
0
6
0
1
7
1
0
2
0
6
0
0
9
0
0
1
6
3
0
1
0
11
0
0
0
0
0
4
0
1
6
0
6
0
8
0
0
12
0
0
7
0
0
2
0
1
0
0
1
0
5
0
8
1
3
0
5
0
1
0
215
88
37
0
0
19
4
0
13
0
10
0
0
13
9
0
12
0
2
0
0
16
0
17
0
29
0
4
0
9
0
1
0
16
0
1
0
0
11
0
6
0
9
10
0
10
4
0
5
0
0
0
1
12
2
0
9
4
0
13
0
0
10
0
18
9
0
30
0
0
4
0
0
0
24
43
0
0
0
6
10
0
5
12
10
17
0
0
10
0
0
58
28
0
21
0
14
10
0
0
0
0
8
34
30
0
0
15
21
0
0
0
0
64
18
67
0
0
18
0
104
12
0
0
62
53
0
5
1
0
10
0
11
47
55
0
0
3
0
65
2
0
42
19
0
0
0
38
30
24
1
0
63
0
0
0
22
42
0
53
0
97
70
9
0
0
8
0
12
0
0
9
0
0
11
0
8
0
0
12
0
0
0
0
4
7
0
0
0
0
0
10
13
0
2
0
5
0
0
22
0
0
7
0
0
0
0
1
0
0
3
0
4
0
1
22
0
0
0
12
7
2
0
33
0
13
0
0
0
0
1
0
0
22
0
9
0
0
0
15
0
0
0
0
6
4
0
0
11
0
0
1
7
5
0
0
0
8
0
0
0
8
0
9
0
0
7
4
1
2
0
0
0
0
0
10
0
0
1
0
4
0
2
0
0
23
0
9
0
12
0
0
17
0
19
0
7
0
8
25
0
1
5
13
0
0
13
0
10
0
0
2
17
2
0
68
0
0
0
48
0
0
56
10
0
0
5
0
3
17
0
8
12
0
0
14
0
2
0
2
0
0
0
14
16
0
0
5
0
0
0
0
58
2
0
28
21
0
25
6
0
2
0
0
1
0
5
0
11
19
0
0
2
11
7
0
3
9
14
18
0
4
0
20
0
0
0
0
0
28
0
0
0
3
0
14
0
0
0
0
0
0
10
0
6
0
0
1
0
9
0
0
15
15
0
2
0
0
0
0
1
4
0
2
0
12
0
1
9
0
9
0
0
19
7
0
0
2
11
0
0
0
4
0
7
0
1
0
0
15
0
0
0
2
9
16
0
21
3
0
0
5
0
0
1
6
0
0
0
2
0
8
1
3
1
0
0
6
1
4
0
0
0
2
0
0
0
5
5
0
0
0
0
3
1
4
2
0
0
5
7
0
0
0
2
0
0
5
0
6
0
6
204
45
0
6
0
0
0
22
0
0
0
10
0
0
6
6
2
0
0
4
3
4
9
15
4
0
0
3
7
0
18
10
0
0
16
0
2
0
1
0
9
0
0
0
2
9
0
18
0
6
0
0
13
0
3
13
0
6
0
0
24
1
6
12
0
1
1
0
0
0
31
0
0
0
3
38
25
0
0
1
2
0
23
15
0
0
0
0
18
0
0
22
34
0
0
12
0
0
16
0
0
0
22
46
0
0
2
3
35
0
5
52
0
0
25
96
0
0
59
0
0
89
37
0
0
82
26
0
28
0
15
0
39
39
18
0
0
8
0
57
45
0
66
31
0
0
0
0
44
19
0
0
53
0
0
4
44
21
23
0
85
68
0
0
0
0
0
0
0
0
4
20
16
0
0
22
0
0
0
0
30
0
0
0
9
5
0
20
0
17
0
46
0
0
0
2
0
12
0
0
5
0
0
6
2
1
15
0
23
0
5
0
14
0
10
0
0
0
20
0
8
10
0
8
0
24
0
5
0
0
0
14
3
0
0
0
6
12
0
0
23
0
0
12
0
10
0
13
0
1
12
0
7
7
0
16
0
16
5
8
0
7
23
0
0
0
0
8
0
2
7
0
0
22
4
0
0
1
0
4
0
7
5
0
0
0
16
2
0
0
0
15
0
0
12
0
9
5
0
0
1
10
0
0
13
6
0
0
0
0
3
3
0
2
54
0
0
0
0
62
0
0
7
0
0
0
0
12
14
0
0
0
3
12
0
25
0
0
0
3
24
0
0
0
12
0
2
40
0
1
0
0
51
13
0
9
0
0
34
3
23
0
17
0
7
3
0
8
17
17
0
5
0
11
11
0
0
33
19
16
7
12
0
6
14
1
0
0
10
1
10
0
0
10
0
0
6
0
4
0
13
0
9
0
0
10
0
0
1
3
14
5
0
10
0
10
0
8
4
0
12
0
0
8
0
6
0
0
2
10
1
0
19
0
0
8
0
0
1
29
0
26
0
0
8
0
0
10
13
0
5
0
0
2
17
0
3
0
0
5
1
0
3
0
0
0
4
4
0
7
0
0
5
0
0
1
2
0
0
17
0
0
2
0
7
0
2
0
0
0
0
3
8
0
0
0
1
6
3
0
0
3
0
0
0
1
5
0
0
6
0
0
211
54
6
0
25
2
18
0
0
0
4
0
0
1
0
0
0
2
0
16
0
11
8
0
13
0
0
0
0
30
0
1
8
2
4
0
12
0
5
0
1
14
0
9
6
0
5
0
10
1
1
0
0
20
0
4
6
1
0
0
2
0
0
0
16
10
0
2
0
0
0
17
0
0
11
15
6
0
0
44
0
0
31
11
0
0
0
25
9
0
0
71
0
0
32
16
0
11
0
2
0
0
34
4
22
0
0
14
16
3
6
0
0
0
40
85
0
0
39
0
0
0
75
0
0
50
59
0
0
0
0
15
0
15
0
0
0
54
0
0
9
0
62
40
0
8
0
10
42
17
0
52
14
0
0
82
33
40
0
13
99
63
0
0
3
10
0
11
0
14
0
0
3
0
8
0
0
10
14
3
0
19
0
6
22
0
29
0
0
0
0
0
15
0
0
8
6
14
0
0
0
24
0
0
23
9
0
10
0
13
7
0
22
0
14
14
0
0
0
7
1
11
0
2
0
37
0
3
0
0
22
0
0
0
13
20
20
0
4
0
0
11
7
0
0
0
2
0
0
0
7
3
5
0
0
0
10
0
0
7
0
7
0
11
0
12
0
3
3
0
16
0
5
0
0
6
12
0
3
0
8
0
0
15
0
6
0
0
10
1
5
5
2
13
7
3
0
0
0
7
0
0
4
8
0
5
0
10
0
6
3
5
6
4
73
0
0
0
0
38
24
0
0
18
0
21
0
0
9
9
1
12
0
0
0
62
0
0
0
8
27
0
0
38
14
0
10
8
0
3
0
0
55
3
0
7
25
0
42
0
0
0
13
9
0
0
44
2
0
0
14
0
0
29
11
0
0
37
15
12
9
5
0
21
9
0
0
0
9
0
0
0
18
0
0
8
2
5
0
5
0
9
0
0
20
0
5
0
10
0
0
0
0
0
5
1
8
0
19
0
0
14
0
2
4
0
0
0
31
0
0
9
0
0
18
0
4
3
1
0
19
0
12
9
0
0
0
0
9
0
8
0
0
15
6
12
6
1
0
1
0
1
0
15
0
1
0
5
0
0
1
9
2
0
1
0
3
0
0
0
0
25
0
3
0
1
6
0
5
3
2
0
6
0
0
4
3
0
5
0
14
2
0
3
0
0
0
4
0
0
0
0
203
47
0
9
0
0
9
2
17
10
0
8
0
0
0
10
0
0
1
1
11
8
0
0
0
10
0
4
0
2
17
0
0
0
13
0
0
0
9
0
10
0
0
0
0
3
0
1
0
3
4
5
0
5
1
0
1
0
12
9
0
12
11
0
0
0
8
5
1
9
11
0
12
0
0
10
24
19
1
0
46
0
0
14
0
0
0
9
55
0
0
36
0
0
0
9
0
0
0
0
0
0
7
22
3
0
1
0
29
0
0
0
0
0
30
68
0
0
29
0
52
0
11
49
0
0
58
11
13
0
0
30
0
0
9
0
0
10
0
0
0
52
0
46
0
9
0
0
50
19
0
27
68
0
0
17
60
37
0
105
73
0
0
0
5
0
7
2
10
1
0
16
15
30
0
17
0
0
4
0
7
0
8
0
4
0
0
0
0
5
0
34
0
0
7
5
0
21
0
0
15
0
0
0
0
10
1
0
0
0
29
0
0
37
0
0
13
0
0
0
5
3
0
0
0
23
26
0
0
0
19
0
11
0
6
0
17
18
0
12
19
0
0
15
0
7
0
17
0
0
4
0
10
0
3
0
6
0
9
10
0
4
2
0
7
2
0
6
0
9
0
0
4
0
15
0
7
0
0
3
10
0
6
0
24
0
9
0
0
0
37
0
0
0
5
0
14
0
2
5
5
0
0
8
0
0
8
6
0
0
0
12
0
43
27
0
0
0
0
27
0
16
0
0
9
0
0
8
0
0
0
0
27
0
0
18
0
16
31
0
6
0
0
0
0
0
0
16
0
0
0
18
56
4
0
0
14
0
56
0
0
0
3
0
0
17
0
22
35
0
22
0
0
0
28
0
0
12
1
36
0
26
0
20
12
7
0
1
4
15
0
15
0
5
4
0
0
0
4
7
0
2
1
2
4
8
0
8
0
3
0
6
3
0
10
0
3
8
2
0
11
0
9
0
10
7
0
0
0
0
0
0
3
0
0
2
7
0
8
0
7
2
0
0
0
2
2
0
0
15
6
0
3
3
0
10
0
5
5
8
0
5
0
0
0
7
0
0
2
0
6
0
0
1
6
0
0
0
0
1
0
0
0
2
0
15
0
0
1
0
0
7
0
6
0
2
0
0
4
7
0
1
1
3
0
1
1
0
2
0
0
9
211
50
2
0
21
0
4
0
0
0
0
0
8
7
10
0
0
0
10
6
20
1
1
5
4
9
0
0
0
1
9
0
15
0
1
3
0
3
0
10
0
0
6
0
7
10
1
0
1
0
4
0
11
0
6
0
3
6
0
0
0
5
0
24
2
0
0
5
0
0
0
0
0
0
0
7
17
3
0
0
12
0
0
0
30
0
0
38
0
0
0
66
0
20
0
0
5
1
0
10
0
0
42
36
0
7
0
0
12
11
8
0
0
0
54
91
0
0
13
0
32
40
0
1
0
0
9
58
0
0
0
22
0
0
13
0
4
0
0
0
0
75
0
18
11
2
37
13
29
12
0
0
59
0
0
0
0
10
65
30
0
0
0
17
0
18
0
5
0
0
5
0
2
16
0
8
9
7
37
0
0
18
0
0
21
3
1
26
0
0
7
0
27
0
19
0
7
1
6
0
0
0
4
0
0
3
17
0
7
0
0
0
28
0
0
3
0
3
0
17
0
16
15
0
0
0
20
0
0
0
0
15
22
0
0
0
0
0
10
5
0
0
0
0
0
10
0
0
17
4
1
10
0
0
22
0
8
0
0
9
0
7
3
13
0
0
0
0
9
0
0
3
0
7
0
4
6
0
5
9
5
5
3
0
0
1
0
0
30
0
0
0
8
9
0
16
0
33
0
0
8
0
0
15
0
0
0
0
0
0
10
4
13
63
0
0
0
6
0
36
0
0
0
18
0
4
10
7
5
0
10
0
1
0
45
0
0
0
53
0
0
0
0
26
0
30
0
9
12
0
0
21
32
2
0
10
2
0
58
0
21
3
4
0
0
21
0
25
0
0
32
0
5
4
0
0
0
49
34
18
0
0
0
17
12
0
0
34
7
0
0
13
0
10
0
2
5
0
0
0
10
1
0
0
5
0
4
0
0
0
3
11
0
5
0
0
0
1
7
0
7
0
0
1
0
11
0
4
5
0
1
21
0
8
0
14
0
12
3
0
2
8
3
10
0
11
0
4
4
0
0
0
0
9
18
0
7
4
4
0
0
0
0
0
6
0
6
0
0
0
1
1
0
1
0
5
0
3
4
0
1
6
0
0
0
0
0
9
0
0
3
0
0
9
0
0
4
2
0
0
0
0
2
0
0
4
0
8
0
2
0
3
202
42
0
8
0
15
0
0
9
24
0
26
0
0
2
0
0
2
0
0
0
14
0
3
0
0
0
0
10
3
4
4
0
6
0
14
4
0
0
1
8
5
4
0
0
7
0
0
11
5
0
0
4
0
7
12
0
0
7
21
0
3
9
0
0
20
0
0
1
0
0
2
0
0
2
5
0
0
2
0
20
40
0
7
25
0
35
17
19
9
20
4
0
0
26
0
0
0
0
0
0
10
37
11
0
0
0
0
0
4
10
8
0
0
19
128
0
0
7
0
23
7
39
23
0
0
0
49
34
1
0
2
35
0
0
33
0
0
0
2
0
65
35
0
6
0
46
0
39
7
0
0
86
0
0
0
0
18
86
0
0
5
0
18
0
0
16
6
3
23
0
1
0
0
10
0
25
0
0
17
0
14
0
0
37
0
0
2
0
4
3
10
25
0
0
10
0
9
29
0
0
0
8
0
0
0
11
0
3
4
0
6
0
37
0
0
0
0
0
0
9
0
10
0
30
0
34
0
0
0
0
3
20
0
0
0
0
9
0
0
14
10
9
3
0
0
1
13
0
0
10
0
31
0
6
0
12
0
0
0
4
1
0
8
0
14
0
6
3
0
13
0
0
0
0
10
0
0
1
0
0
1
2
0
17
1
6
0
3
9
0
4
0
0
15
0
13
0
0
0
3
1
26
0
0
14
0
0
11
0
14
0
21
37
0
0
7
0
0
41
0
0
0
13
0
0
19
0
3
0
21
0
0
11
0
8
15
0
0
0
0
15
9
26
44
0
0
7
0
0
0
0
24
20
0
12
11
0
45
0
23
4
0
5
0
5
0
40
20
0
36
0
9
0
32
0
0
24
28
13
0
19
0
12
23
0
0
0
8
1
0
15
0
6
0
6
6
0
13
0
0
0
1
15
1
14
0
6
9
2
0
12
2
13
0
0
11
3
0
0
0
0
0
1
14
0
14
3
1
5
0
0
0
0
14
0
0
0
6
11
6
0
10
12
0
0
5
0
7
8
0
0
0
5
6
15
0
1
0
0
1
0
6
1
1
5
0
4
0
19
0
0
0
4
2
0
0
0
2
1
0
0
9
0
0
5
0
0
0
1
0
5
0
0
0
6
2
0
7
5
0
8
0
0
4
1
4
0
0
16
0
0
204
42
0
0
12
0
10
3
1
8
0
0
2
0
0
31
2
0
1
0
1
9
13
1
4
14
0
5
9
0
20
0
0
6
0
9
0
0
0
0
0
0
11
0
1
0
0
5
0
3
0
4
0
8
0
5
5
0
0
6
0
3
0
0
0
0
10
2
4
0
0
19
0
9
0
0
10
13
0
0
20
9
6
3
0
1
11
0
0
2
0
6
3
0
23
11
0
18
0
0
0
0
43
20
6
0
6
22
0
0
0
6
5
0
2
108
0
7
37
19
0
16
20
32
73
28
0
0
0
53
0
7
17
30
0
0
13
0
0
0
0
0
58
0
0
0
47
0
53
27
0
0
56
0
0
16
19
17
113
0
0
0
0
30
0
0
0
0
0
0
0
0
9
8
0
16
0
10
0
0
7
21
15
0
0
8
0
0
3
0
2
0
3
7
0
0
19
0
13
0
10
0
12
6
0
6
0
21
0
4
0
5
0
0
0
21
5
1
14
0
0
10
1
0
5
0
0
2
3
0
27
0
7
23
0
0
0
0
0
0
38
0
0
0
17
0
3
0
5
12
0
0
0
0
0
7
9
12
14
0
16
0
1
0
18
0
0
0
0
0
2
0
2
0
10
0
3
0
13
0
0
7
3
4
0
0
0
0
0
4
6
10
28
2
2
0
8
0
35
0
6
0
0
0
12
0
0
7
0
14
1
3
41
17
0
20
0
0
35
50
0
13
0
8
0
0
0
24
0
2
21
0
3
23
0
0
0
16
35
0
0
0
5
31
0
14
0
0
15
0
1
1
46
22
0
0
6
0
62
0
20
0
0
7
0
16
0
17
1
0
37
19
0
0
0
0
0
39
0
19
0
9
0
23
17
0
7
0
2
0
0
5
12
0
4
5
0
3
0
3
21
0
5
0
1
0
0
0
0
1
0
0
3
0
5
9
2
0
3
1
16
0
20
7
0
2
1
0
2
0
18
0
2
0
2
0
16
0
7
0
4
12
0
2
0
7
0
26
0
0
0
0
0
18
10
6
8
2
11
3
0
0
3
3
0
0
1
4
0
0
3
2
0
0
0
0
0
0
0
0
4
0
5
0
5
0
4
2
0
0
3
0
11
0
0
0
0
7
5
0
4
0
0
2
3
5
0
8
0
2
0
4
205
52
5
0
0
0
0
0
6
0
14
0
0
21
0
0
0
0
0
20
0
6
34
2
4
3
10
0
0
0
0
15
0
1
0
0
2
0
22
0
0
10
0
0
8
0
0
10
0
0
25
0
11
4
10
5
0
5
16
0
9
12
0
1
1
7
0
0
0
0
0
0
26
0
0
9
39
5
0
23
41
7
0
0
0
50
0
0
1
0
46
36
0
0
39
0
0
11
0
0
0
0
53
0
0
0
0
0
11
0
6
22
7
0
0
116
0
31
48
0
0
0
0
0
0
59
53
0
0
16
12
0
0
0
30
0
14
15
0
0
0
0
77
14
0
0
20
0
87
0
0
0
48
0
36
0
0
108
117
0
0
0
90
0
0
0
6
18
0
15
2
0
23
0
0
20
21
0
25
0
129
0
2
5
10
4
0
0
0
6
4
0
12
0
11
0
0
0
33
0
0
9
0
0
18
0
0
0
28
0
14
25
0
22
0
28
0
0
21
0
0
35
2
5
0
30
6
13
0
0
0
6
21
6
0
0
0
6
0
0
2
0
0
16
0
18
0
1
0
1
0
6
0
0
10
0
0
0
16
0
8
0
8
0
8
11
0
10
0
5
12
0
9
0
0
8
0
0
6
8
6
8
0
7
1
0
7
0
0
0
0
0
0
0
8
0
0
8
0
0
2
0
0
17
0
17
0
0
4
14
1
13
72
0
0
1
0
0
55
2
0
6
6
0
35
9
5
0
0
7
9
0
0
35
0
5
0
18
0
0
5
0
84
0
0
12
0
11
17
0
1
0
39
25
0
62
0
0
65
0
15
0
0
17
0
0
0
10
0
0
18
45
0
0
0
0
0
53
17
29
0
1
0
4
22
0
0
27
0
0
2
0
5
3
0
9
8
2
8
7
0
0
0
5
0
0
4
5
8
0
24
0
3
2
0
0
7
0
0
0
0
4
0
10
0
0
15
0
7
0
3
0
0
3
0
3
0
9
0
0
6
0
11
10
5
0
18
0
5
0
0
0
0
23
2
0
0
4
0
12
4
0
6
0
0
0
0
0
0
4
0
4
0
12
0
1
0
4
4
0
7
0
0
7
0
3
0
0
2
0
6
0
0
11
0
5
0
0
0
0
2
0
2
4
0
0
0
4
0
2
0
10
199
46
0
9
16
0
8
26
0
18
0
0
11
5
0
0
0
0
26
21
0
0
0
10
2
6
0
0
0
13
8
3
4
10
0
0
0
0
0
0
4
5
0
11
0
3
10
0
6
8
0
1
0
0
0
12
0
0
0
3
15
0
8
0
4
14
0
6
2
0
0
8
0
0
0
4
8
4
0
0
69
0
0
0
57
3
0
0
0
26
73
0
0
0
0
1
7
30
0
29
0
0
58
13
0
0
0
24
32
0
0
1
20
0
14
72
0
28
27
0
0
3
0
0
0
0
41
59
0
0
43
43
10
0
37
0
0
10
0
12
0
0
91
28
0
0
0
37
46
26
0
0
0
0
103
0
0
130
164
0
0
10
71
0
0
0
14
0
10
0
0
0
3
7
4
0
6
0
0
20
0
9
0
0
0
0
15
3
0
6
8
0
39
0
0
0
0
1
0
20
0
0
5
0
0
10
0
0
0
0
0
0
12
0
0
2
7
0
2
0
10
0
0
0
9
0
0
0
26
0
2
18
0
24
8
0
3
0
0
0
0
22
16
0
0
2
7
0
26
0
24
0
11
1
11
0
12
0
0
0
6
12
0
14
0
0
0
29
0
10
0
4
7
0
1
18
3
2
9
0
0
16
0
3
7
8
0
1
0
0
5
3
5
9
0
4
1
8
4
0
1
4
12
1
0
16
0
9
4
1
5
23
17
0
0
0
12
0
45
4
0
0
0
6
0
0
6
0
1
0
5
0
0
0
16
0
4
26
0
0
0
0
43
0
0
35
0
0
0
0
12
6
52
12
0
0
0
0
79
0
29
15
0
22
0
14
0
25
0
0
0
46
0
0
14
0
0
41
29
3
3
0
0
0
16
0
0
0
7
0
0
23
0
22
0
0
0
0
0
10
0
2
24
0
11
0
3
0
0
2
0
0
12
0
0
0
0
1
9
2
12
0
0
3
0
1
0
4
6
0
0
0
18
11
0
10
8
0
3
0
3
28
0
8
0
0
0
3
0
0
0
0
2
12
18
0
4
3
3
1
0
0
7
0
2
0
0
8
0
3
5
0
4
0
4
5
0
1
3
0
2
0
4
0
3
0
0
3
0
12
0
10
0
4
0
0
0
0
1
4
0
7
0
0
7
9
0
1
3
9
1
0
209
46
0
0
0
0
22
0
8
0
6
0
0
0
2
20
0
0
0
17
0
0
0
0
0
0
0
2
2
9
0
0
3
0
0
7
10
0
0
14
0
4
9
5
0
0
1
2
0
0
0
0
5
9
6
0
21
3
9
5
0
0
6
1
27
0
0
5
0
13
4
0
11
4
0
0
0
0
12
0
0
28
0
0
11
24
0
0
0
41
70
0
0
0
26
13
12
0
0
0
3
0
34
17
9
0
17
0
12
9
0
0
12
0
3
98
0
0
14
0
13
0
0
0
0
12
0
0
49
37
0
7
47
0
0
19
3
10
9
0
5
0
74
26
4
0
0
6
33
45
43
7
0
0
81
0
0
0
0
0
0
142
0
0
0
0
17
4
0
30
3
0
0
0
0
19
0
20
0
0
12
0
0
2
0
34
0
2
0
0
2
3
0
0
4
29
12
0
0
25
0
8
0
16
0
20
0
11
3
13
8
0
39
4
0
2
2
0
4
6
0
7
0
8
0
0
15
0
13
0
0
0
29
0
19
17
0
26
0
0
0
0
0
0
0
0
17
0
0
0
0
2
0
9
0
0
0
2
27
0
0
0
10
0
0
12
10
0
0
1
4
0
0
0
13
0
0
18
0
4
4
8
5
19
0
0
20
0
1
4
3
0
2
0
2
0
0
0
11
2
16
11
0
1
1
17
0
0
0
17
6
34
0
0
0
16
0
0
46
0
0
6
0
17
0
8
0
0
0
3
32
0
0
5
0
32
0
0
4
0
4
0
11
4
0
0
1
14
0
0
0
0
51
5
0
0
17
0
82
0
0
5
0
10
36
0
18
31
14
0
2
37
0
0
34
0
0
22
36
16
8
7
0
18
21
0
0
11
0
16
7
8
0
8
0
5
3
9
0
6
0
15
1
0
0
3
0
2
3
19
0
18
0
15
1
0
6
0
0
12
0
12
0
0
16
0
2
7
2
0
11
0
0
0
3
0
0
10
5
1
10
0
19
2
0
33
3
4
0
9
0
0
0
16
3
2
7
0
1
0
1
1
1
0
7
0
5
1
0
0
0
2
0
0
0
1
0
0
2
2
0
0
0
2
7
0
0
3
2
0
0
0
3
0
1
12
4
0
2
0
1
0
10
0
1
0
0
6
6
6
0
11
193
48
2
0
12
12
0
17
10
1
0
0
0
7
32
0
13
23
0
19
0
13
0
7
0
0
1
0
0
0
1
17
0
0
15
0
4
0
8
0
0
0
10
0
2
0
0
0
4
17
0
0
4
3
0
10
0
0
0
8
9
2
2
0
0
21
0
0
0
0
0
3
2
0
0
43
0
30
60
37
0
0
0
0
0
0
22
0
0
79
5
2
0
0
25
0
17
0
0
2
0
0
0
11
9
0
0
0
35
0
0
23
14
0
51
75
0
2
54
0
0
0
41
7
0
0
5
0
12
0
59
4
0
0
0
6
13
33
19
6
11
0
0
36
0
18
46
0
32
0
0
57
35
0
0
66
0
0
0
0
34
0
0
0
1
4
0
3
0
29
3
0
0
0
26
0
13
0
0
7
16
5
6
12
12
0
0
12
0
1
0
43
7
0
4
0
0
20
0
0
8
0
0
0
0
0
0
0
0
18
9
0
0
9
0
0
5
0
0
15
0
0
50
0
0
0
23
0
25
0
0
0
20
0
25
0
0
0
0
9
0
0
5
12
0
17
0
11
0
5
17
4
0
17
0
3
10
0
0
0
7
0
0
14
0
0
7
0
22
0
0
13
0
7
0
3
8
0
16
0
0
0
19
0
3
0
0
1
3
0
22
0
0
5
1
0
11
0
24
0
26
0
5
0
0
0
0
13
21
0
35
7
0
0
14
0
13
18
3
0
0
13
2
8
1
0
0
21
2
0
0
0
0
31
0
62
0
0
1
0
0
17
0
25
0
1
7
0
20
0
0
22
19
24
0
24
12
0
65
0
22
30
0
23
0
0
0
7
0
0
65
20
3
0
50
0
0
2
49
16
0
0
10
0
36
0
0
8
0
0
0
5
0
0
9
0
0
12
0
11
12
0
0
0
6
1
0
8
0
1
0
0
5
0
0
2
0
0
11
0
0
16
0
3
0
18
2
0
5
0
0
8
5
13
3
0
20
0
0
15
2
1
8
8
8
0
0
6
0
0
11
0
10
4
7
7
0
11
0
13
0
0
0
3
0
0
0
9
0
0
10
0
1
5
9
0
0
0
1
0
3
0
0
1
2
0
0
0
0
10
5
0
0
1
0
0
1
0
3
0
8
4
0
7
8
12
5
13
0
0
23
9
179
48
4
0
0
0
14
0
0
0
20
0
13
0
0
0
0
30
0
12
0
0
22
0
5
4
0
0
0
0
9
0
13
13
0
0
4
2
0
8
3
0
0
20
0
4
7
4
0
1
0
5
0
0
14
3
3
0
5
0
7
6
0
0
11
0
0
0
17
3
5
0
0
0
2
0
0
40
53
0
0
5
0
6
15
0
0
0
0
69
3
38
0
0
2
9
12
22
0
0
0
0
52
0
6
0
0
0
33
0
10
0
0
28
3
58
0
4
72
0
0
0
0
27
0
0
28
0
0
1
0
40
25
0
20
0
16
0
0
0
0
4
0
25
0
14
30
0
41
0
0
59
42
0
52
70
0
0
0
13
30
0
0
0
23
0
0
15
12
1
0
24
3
11
0
12
0
0
0
0
12
0
0
0
22
0
14
0
0
26
0
27
0
8
1
2
1
1
0
41
24
0
34
0
0
8
0
0
0
3
0
12
0
8
22
0
6
43
0
0
0
17
7
0
0
0
5
22
0
6
0
0
38
0
8
0
22
0
5
6
0
0
19
0
16
0
0
24
14
0
0
0
21
0
0
8
9
5
3
4
2
12
0
11
5
0
13
4
0
0
1
18
0
0
8
0
8
4
2
0
0
0
20
1
0
0
0
8
0
0
2
3
6
6
0
2
1
11
0
11
0
7
3
0
14
0
4
0
15
0
3
4
6
0
0
1
0
34
16
0
7
1
0
0
10
7
0
0
0
2
1
5
4
0
10
20
0
1
3
0
10
10
0
6
0
4
25
0
8
0
0
16
28
23
0
0
4
0
82
0
7
0
0
12
17
5
0
0
27
0
0
33
6
0
21
0
0
45
35
11
0
14
0
0
32
0
0
0
11
2
7
8
0
5
12
2
0
8
0
0
1
0
5
4
0
14
2
0
6
0
7
14
0
5
0
0
13
14
0
0
6
0
13
0
11
0
0
0
0
0
0
4
0
0
0
0
0
11
0
0
0
3
0
0
2
0
6
0
0
0
0
0
0
17
9
0
0
13
0
0
12
0
1
0
2
1
3
0
0
7
0
3
0
2
0
2
3
6
0
1
8
0
0
1
0
10
0
0
0
2
0
0
4
0
2
11
0
5
0
1
0
3
0
3
4
0
6
9
7
34
16
32
139
52
7
0
0
23
0
5
13
5
0
9
0
9
1
0
0
0
0
4
0
11
0
16
0
0
3
23
0
15
0
5
0
0
6
0
11
0
1
0
0
9
0
0
3
0
0
5
0
0
6
1
0
2
2
0
15
0
10
0
7
0
0
1
5
12
0
0
5
0
2
0
21
0
7
0
17
70
0
0
0
0
5
14
0
23
0
0
5
83
0
39
13
0
0
0
0
21
13
0
0
10
38
0
28
0
0
3
7
0
4
0
14
7
8
23
0
10
26
30
0
0
0
7
3
0
33
52
0
48
0
0
0
0
21
19
21
0
24
0
0
0
8
0
19
1
0
0
44
20
0
0
15
0
0
29
23
0
0
30
0
0
38
0
0
1
9
0
0
0
0
0
0
0
0
0
0
0
11
0
11
0
1
3
0
8
0
3
0
9
0
27
14
0
0
3
0
13
0
0
11
9
0
0
9
0
25
0
0
9
0
1
22
3
0
0
0
0
5
0
0
0
0
2
34
0
0
19
4
1
0
0
0
22
0
31
18
0
0
0
0
0
0
0
0
0
3
0
0
12
0
6
3
7
8
22
0
8
4
0
0
2
0
0
11
0
0
0
18
0
11
0
12
7
8
0
13
0
11
0
11
3
0
0
15
0
14
0
4
15
0
25
0
13
10
0
0
3
2
0
9
0
18
0
16
0
0
2
19
4
13
6
3
0
0
0
0
13
0
0
0
2
14
12
0
6
0
6
0
0
11
0
1
11
0
45
13
0
0
16
0
0
0
14
16
0
2
0
8
17
0
17
29
1
0
0
1
0
60
0
13
0
3
0
24
0
0
37
0
0
10
33
0
0
3
0
0
23
31
12
0
0
0
13
22
0
6
16
1
0
4
0
7
2
7
0
0
4
2
14
0
5
0
0
18
0
8
12
0
20
0
0
0
6
0
1
0
8
15
7
4
0
0
15
0
0
0
0
16
9
0
6
0
13
0
14
0
9
2
0
8
0
0
8
0
0
12
0
0
0
0
0
15
7
0
8
0
1
4
0
4
0
1
0
0
0
0
0
0
4
0
0
5
0
7
1
0
0
4
3
0
0
1
0
8
0
0
3
4
0
0
2
0
0
12
0
6
0
4
6
0
8
4
13
3
27
12
26
20
16
8
6
74
49
6
11
10
0
3
3
0
0
0
0
6
0
24
24
0
7
0
0
16
2
0
0
16
0
0
0
13
0
17
0
0
2
0
4
0
0
3
7
3
0
6
3
2
0
0
0
11
0
0
0
15
0
7
7
7
13
0
4
0
6
0
22
0
3
0
13
0
0
0
19
0
0
0
0
71
0
0
5
0
0
0
5
0
36
0
0
57
28
0
41
0
0
0
23
0
13
35
0
0
36
0
0
17
0
11
0
14
6
0
6
0
0
59
34
0
0
49
16
0
0
0
45
15
0
0
46
0
0
73
0
0
30
0
6
29
37
27
0
0
38
49
0
0
21
17
0
0
61
24
0
0
0
0
0
0
23
10
0
0
7
0
26
0
12
0
14
10
23
2
15
4
13
0
1
0
27
0
4
12
5
0
26
4
0
7
0
0
0
0
15
5
0
0
0
0
10
5
0
0
9
0
0
0
0
16
0
3
0
0
0
0
7
7
0
0
4
0
33
6
0
8
5
0
0
0
26
0
3
0
10
26
35
0
6
23
0
24
11
3
19
21
0
0
0
23
0
0
25
0
15
0
21
0
6
0
12
18
11
21
12
12
4
11
12
16
9
0
19
5
0
14
0
5
5
0
4
0
16
0
2
3
8
0
19
0
0
5
0
0
0
20
0
0
8
0
3
10
6
0
1
0
0
13
0
10
2
0
6
0
11
30
0
0
11
0
28
0
0
0
3
5
6
0
10
0
10
1
1
0
12
0
0
0
27
0
4
1
0
27
0
0
0
17
12
18
13
0
4
8
0
22
15
0
19
18
0
55
0
14
0
10
0
17
0
7
13
15
0
0
50
0
0
5
0
0
10
59
7
0
8
0
10
3
0
0
9
0
0
0
5
3
0
0
5
2
0
5
0
11
15
0
0
12
0
0
0
5
0
0
5
6
0
0
0
7
0
0
2
7
0
10
0
0
11
11
0
0
10
5
0
2
0
8
3
3
0
4
0
0
5
0
0
11
0
0
5
0
0
0
0
10
15
10
0
5
4
0
7
3
0
2
0
1
0
0
0
0
6
0
6
0
8
0
0
0
0
1
1
1
0
8
0
0
2
3
4
0
0
5
0
1
0
1
7
4
7
6
4
11
0
7
17
23
4
13
20
8
0
0
0
30
79
0
0
0
0
0
0
0
0
0
4
0
8
0
0
8
3
11
0
0
0
14
7
0
10
0
8
0
20
0
0
9
0
5
0
0
0
0
7
0
20
0
0
0
0
12
4
4
0
6
14
0
6
0
8
0
3
0
16
0
2
15
0
12
7
0
0
0
4
26
0
0
0
0
48
26
0
0
0
0
25
0
0
8
8
17
0
51
0
0
42
0
0
0
0
23
0
0
20
4
0
0
24
7
0
0
0
18
0
3
0
5
0
38
68
0
0
30
28
13
0
0
0
62
0
0
0
17
0
50
13
0
54
0
0
0
20
50
0
47
78
0
14
0
0
3
11
0
75
78
0
0
0
19
15
0
65
0
0
0
1
0
18
0
0
2
0
8
0
0
9
0
9
11
0
16
0
0
3
0
0
0
32
4
2
21
0
4
21
0
27
0
11
0
4
0
35
0
13
7
11
17
0
4
13
0
8
16
21
14
0
5
4
9
7
17
0
20
12
0
13
0
0
0
4
0
0
0
2
14
0
0
19
0
0
0
39
0
0
0
0
0
19
0
0
0
0
10
0
38
0
0
0
35
0
31
0
0
0
15
9
28
0
0
14
0
0
23
0
0
5
0
0
2
20
0
5
9
0
0
17
0
0
3
0
26
0
8
0
0
10
0
0
2
1
0
0
0
17
0
3
26
0
0
1
0
0
2
15
9
8
34
0
0
0
3
22
0
18
31
1
0
11
26
0
7
11
0
0
28
11
0
10
54
9
0
16
0
0
55
0
8
37
0
3
0
0
15
0
6
0
16
22
0
18
0
0
32
0
32
0
0
0
39
0
2
0
0
0
21
26
0
2
8
0
0
17
30
7
0
0
0
8
5
8
0
0
0
0
11
0
0
15
0
5
0
0
6
0
0
0
0
29
0
12
0
10
5
0
4
1
0
8
0
9
0
8
0
1
0
20
0
10
0
0
0
0
9
0
1
0
0
0
0
0
12
0
0
18
0
0
14
0
0
4
6
1
0
0
0
9
16
0
0
9
1
1
7
0
1
0
0
6
0
3
5
0
7
0
2
1
0
0
1
7
0
4
1
0
6
0
0
2
5
1
0
5
0
5
0
0
10
2
6
0
5
8
4
9
13
1
22
19
5
17
1
0
0
0
0
0
41
38
2
0
39
0
0
8
2
23
10
9
5
0
0
20
15
0
0
9
0
14
0
7
0
0
11
6
0
1
12
0
16
0
8
5
0
0
9
0
6
0
5
0
2
8
3
0
0
8
0
0
0
0
8
0
0
12
5
9
0
0
13
0
2
0
0
15
12
0
0
0
0
5
0
22
0
2
0
0
94
0
0
0
0
21
8
29
62
0
0
13
33
2
0
0
3
36
0
0
0
76
0
0
46
0
0
0
17
3
40
0
0
0
16
71
0
0
17
33
0
0
0
0
0
0
0
0
0
0
9
42
0
44
0
0
0
0
4
49
0
0
0
9
14
0
10
0
0
5
69
0
17
19
44
0
0
30
20
0
0
5
7
0
7
5
11
37
0
4
8
0
0
11
0
0
4
1
0
0
14
0
18
16
0
0
5
11
0
0
5
19
0
0
29
0
15
0
0
19
0
0
6
4
0
6
2
14
0
0
0
11
0
17
0
0
0
14
0
0
0
0
0
7
0
9
0
22
4
0
0
8
0
0
46
0
0
0
15
0
18
0
37
0
5
0
0
0
0
4
0
0
11
6
0
0
0
0
0
0
0
0
0
0
0
9
8
31
0
0
4
0
8
6
0
0
7
0
0
1
7
0
15
9
0
15
0
0
5
6
0
0
9
0
7
0
3
3
0
0
0
15
0
0
3
0
5
0
0
13
5
10
0
0
0
6
0
11
16
0
0
0
12
0
0
6
0
10
0
0
0
0
18
0
17
0
0
0
0
0
0
0
4
0
5
17
0
34
0
0
11
0
32
1
0
3
0
0
44
0
39
0
0
6
29
0
17
16
0
0
3
41
0
0
14
0
0
35
40
13
0
0
8
3
22
0
0
18
0
4
7
1
0
6
0
3
26
0
0
0
12
0
8
0
0
13
0
12
4
0
0
11
0
22
17
0
6
3
9
0
4
0
0
6
6
10
1
6
6
0
2
5
0
0
3
6
0
18
3
0
15
0
5
0
10
3
0
6
0
0
0
6
6
8
3
0
0
8
0
11
0
0
8
0
2
0
0
3
0
3
0
3
3
10
0
3
0
2
0
7
0
1
9
0
0
0
5
0
2
2
9
4
1
0
1
8
3
10
16
12
32
16
26
8
0
0
0
0
0
0
0
0
38
31
0
2
0
7
22
0
7
0
0
0
0
4
0
0
21
0
9
0
0
0
14
9
13
0
10
0
6
0
15
0
3
5
5
3
5
8
0
1
0
0
14
0
0
0
0
0
11
6
0
8
6
0
7
3
0
0
0
9
0
4
0
0
13
9
13
0
0
0
0
0
0
0
24
108
0
8
0
68
61
0
19
0
5
0
2
33
13
0
0
0
16
1
6
3
11
8
0
0
39
0
11
4
0
6
0
0
21
0
25
0
26
0
74
69
0
0
27
35
0
0
0
0
29
12
0
0
0
12
0
44
0
0
28
0
0
0
7
69
0
0
14
0
22
0
0
22
26
0
9
0
10
5
18
0
0
16
49
1
0
0
0
0
0
0
0
0
0
0
8
0
13
6
1
0
0
0
21
3
15
0
3
39
0
0
0
0
0
12
0
47
0
0
0
0
0
0
0
3
11
13
0
0
0
0
0
10
1
0
0
0
15
1
8
0
5
0
13
1
0
13
0
0
21
13
0
2
2
21
0
16
9
0
16
0
0
10
0
11
0
2
0
17
38
16
0
16
8
5
0
22
0
0
0
0
0
0
0
4
0
10
0
4
0
0
0
0
27
6
0
0
6
0
13
17
0
16
0
0
22
12
0
1
0
0
7
3
6
0
0
0
10
0
0
0
2
0
2
0
12
6
8
0
0
15
17
0
13
29
0
0
15
0
13
0
23
0
0
7
0
22
0
0
5
10
17
0
3
10
10
0
3
0
45
12
0
4
6
4
15
0
20
14
0
0
18
0
13
0
4
0
22
37
0
25
32
0
32
0
6
0
15
0
21
0
18
29
0
0
0
25
10
0
0
0
0
17
33
27
0
0
35
0
0
0
0
0
0
0
0
0
7
4
0
0
6
0
2
7
1
2
20
11
0
0
25
0
8
13
0
0
12
0
6
0
19
0
0
0
0
3
8
0
0
4
0
0
0
0
8
0
19
7
14
0
11
0
0
0
6
12
0
22
0
0
9
0
0
0
0
21
8
3
7
1
7
0
3
0
4
3
0
3
4
0
1
4
2
8
0
4
0
0
0
0
0
3
6
0
1
0
0
0
0
7
1
10
0
3
0
2
1
6
14
7
19
12
24
0
32
3
0
0
0
0
0
0
0
5
7
0
41
52
4
12
0
0
0
6
2
0
15
0
4
8
0
45
0
0
0
37
4
0
13
13
0
2
0
0
0
18
0
8
6
0
7
0
10
0
0
0
10
0
0
5
0
4
0
0
2
0
3
0
0
16
0
0
8
0
0
0
4
1
10
7
0
0
11
0
0
0
0
0
14
7
166
21
0
9
0
110
51
0
1
0
0
0
11
0
16
0
0
0
0
21
0
1
0
0
0
23
15
8
0
0
41
6
0
0
1
0
9
0
0
0
0
70
5
0
14
42
21
0
0
0
14
22
10
0
0
0
4
11
57
0
60
0
0
0
0
59
0
0
0
35
0
11
0
43
0
0
0
17
0
41
59
43
9
2
24
52
0
0
16
0
0
0
0
0
12
22
0
7
10
13
0
18
0
0
7
2
0
0
11
12
0
5
0
0
0
0
0
70
0
0
12
0
39
0
2
0
5
2
6
12
0
8
13
2
4
0
28
10
0
8
0
0
1
0
0
3
19
12
0
16
28
0
36
0
15
1
6
0
18
0
32
9
0
10
36
0
0
30
0
0
0
0
0
0
0
0
0
0
0
0
0
0
0
18
0
0
0
0
0
4
0
0
0
0
2
0
0
0
11
0
0
0
0
0
0
0
0
0
0
0
1
0
0
0
0
0
9
0
0
8
0
0
0
0
0
0
0
0
0
0
0
0
0
0
20
4
0
14
0
12
0
8
10
3
2
0
16
0
6
0
0
15
0
33
0
0
6
21
0
0
29
0
0
0
7
0
0
0
0
0
0
0
0
14
4
0
15
0
22
28
0
0
0
0
32
0
23
0
27
0
30
0
0
35
0
0
0
0
25
0
57
0
0
22
39
27
0
0
24
0
25
10
0
20
0
0
9
3
0
0
9
24
0
5
13
0
0
7
0
0
12
13
0
5
0
12
14
2
0
0
7
0
9
0
18
1
0
0
1
16
5
0
17
0
7
9
0
0
0
8
0
0
0
0
0
0
19
0
0
0
5
0
0
0
3
0
0
16
6
5
0
0
4
4
2
0
0
0
1
0
3
3
0
1
1
4
0
1
0
2
1
2
8
0
0
7
4
0
6
0
5
4
0
0
6
2
11
0
2
5
0
3
23
11
2
0
0
0
0
0
0
0
0
3
0
0
0
0
44
50
5
0
0
0
57
1
0
19
0
8
0
21
0
0
0
3
0
0
5
2
0
0
24
9
0
0
7
0
17
0
1
0
5
3
9
0
6
0
9
0
11
4
0
3
0
3
1
0
3
0
5
0
15
9
0
10
0
5
1
0
1
0
16
0
0
0
0
0
2
9
22
167
59
0
57
0
45
112
0
0
0
5
15
0
0
35
0
58
0
0
0
0
41
0
19
0
12
5
32
0
21
0
0
11
0
2
25
0
25
0
14
0
0
76
6
0
6
29
13
19
0
16
66
12
0
1
0
0
57
0
53
0
51
4
0
0
0
0
0
0
5
2
33
28
0
35
2
0
0
41
9
0
36
98
22
0
24
53
5
0
0
0
15
6
22
8
8
0
17
0
0
0
0
0
7
0
1
23
35
0
19
34
0
0
30
0
10
0
0
19
0
0
0
0
13
4
0
0
0
12
0
3
0
11
0
0
16
12
0
0
10
0
24
0
13
9
9
0
0
4
0
0
0
7
0
0
4
19
0
0
2
0
0
12
0
0
14
35
6
0
0
4
0
3
0
8
19
33
5
17
34
16
0
14
12
0
3
1
22
0
0
3
0
3
0
0
0
14
23
9
0
0
10
9
0
1
0
21
2
3
0
24
0
4
5
12
0
7
11
8
3
0
1
8
2
0
16
7
0
0
0
0
0
0
0
0
0
0
0
8
0
0
0
0
6
0
10
14
0
31
0
14
41
0
21
0
32
5
7
0
5
0
45
33
0
7
0
22
0
8
30
13
0
0
0
27
0
5
0
0
37
0
0
11
20
0
12
0
5
0
15
0
0
0
15
3
18
0
26
0
42
0
17
0
0
6
38
29
0
16
10
7
0
0
0
24
0
0
11
0
0
0
6
5
1
0
0
9
2
0
27
0
0
5
0
0
8
0
4
0
16
2
0
22
0
9
0
16
0
14
0
0
0
12
0
12
0
0
6
2
0
0
0
0
15
2
12
2
0
0
14
5
7
0
0
6
0
0
18
0
8
6
0
4
9
0
0
5
6
0
2
1
0
0
4
6
0
5
0
0
10
0
2
0
0
0
5
0
5
0
7
0
4
3
2
0
0
8
4
9
10
1
28
12
6
0
0
0
0
0
0
38
23
0
9
0
11
0
7
0
59
46
0
0
0
2
0
0
10
0
0
0
0
2
0
5
0
0
7
0
8
12
0
2
7
6
0
25
0
0
1
2
0
14
0
5
0
10
3
0
0
7
0
5
16
0
0
0
13
0
0
7
12
0
0
0
14
1
0
9
12
0
8
0
0
0
0
0
0
0
3
54
151
48
0
0
0
0
17
57
18
0
5
0
0
0
4
0
42
18
0
0
0
0
20
14
0
0
0
24
0
36
0
7
7
0
0
1
4
0
3
0
0
0
0
78
0
12
0
29
32
19
26
0
4
0
2
3
0
0
0
0
11
38
64
51
0
0
0
0
16
29
0
0
0
58
48
0
25
5
0
5
0
0
0
0
32
19
61
11
7
17
0
0
0
0
0
0
1
0
0
16
11
0
0
0
17
0
2
19
2
0
30
5
0
9
0
5
0
0
34
27
0
14
1
17
0
11
0
0
1
6
5
28
13
0
23
0
1
12
0
0
14
0
0
0
5
0
0
0
20
0
28
16
0
15
18
0
0
0
8
15
5
0
22
13
13
23
14
4
0
0
5
0
13
0
0
42
16
1
5
3
0
4
10
30
4
2
33
17
13
0
42
16
8
8
17
0
29
0
0
14
0
0
22
8
17
0
2
32
28
0
1
11
10
2
2
13
0
6
2
10
4
9
13
1
38
12
19
11
15
30
5
0
21
0
13
11
4
0
0
0
0
0
0
0
0
0
3
0
1
17
0
9
0
3
0
0
7
0
0
2
8
0
0
0
0
0
37
0
0
0
21
0
22
0
0
36
0
0
0
0
23
41
0
0
25
0
22
0
26
0
20
0
22
0
0
22
0
0
23
0
5
0
39
0
0
19
50
26
0
17
13
0
14
0
0
30
0
7
0
0
1
0
0
7
9
2
0
0
1
0
0
36
0
1
0
0
0
8
6
0
19
0
0
0
15
0
8
0
3
11
0
7
12
0
0
4
0
8
6
0
0
19
0
1
0
0
0
5
0
8
0
0
0
0
0
1
0
0
5
11
7
0
8
6
0
6
2
0
0
0
0
0
4
8
0
5
0
2
5
0
0
1
4
2
0
4
6
0
0
10
0
4
2
3
0
1
2
0
3
0
20
4
0
0
0
0
0
17
0
1
0
0
0
15
0
0
21
0
3
6
44
44
0
15
0
2
10
5
0
22
17
0
8
0
12
0
5
0
0
0
0
4
3
31
0
17
4
0
0
0
0
0
0
11
0
0
8
0
2
6
0
19
0
0
1
5
0
0
7
12
0
0
0
10
0
4
4
0
13
0
4
15
0
4
0
0
0
0
0
21
71
161
24
0
0
0
0
0
38
128
0
0
0
0
0
1
0
7
43
0
0
13
0
0
0
12
16
0
7
38
0
0
0
6
0
14
0
0
1
0
16
0
0
0
0
73
0
47
0
0
67
22
0
0
0
23
0
9
0
0
0
0
0
44
15
10
0
0
0
0
56
37
50
0
0
0
50
0
20
21
0
14
6
0
0
0
0
0
53
30
20
0
30
0
0
0
0
14
0
7
8
0
0
19
17
0
0
0
0
37
0
0
27
23
0
0
0
5
0
2
0
3
11
0
0
0
25
0
9
7
0
0
0
0
0
0
11
0
15
0
1
0
6
17
9
0
0
0
1
14
0
12
0
0
0
2
0
4
9
9
8
5
0
0
0
4
0
0
0
2
0
13
35
0
8
13
0
10
0
9
0
19
0
23
12
9
8
0
14
0
0
0
15
9
19
0
14
4
0
8
0
19
21
0
5
0
16
0
8
3
0
15
0
0
12
0
8
6
0
0
8
0
17
0
0
8
0
0
8
13
0
0
18
20
11
27
10
30
17
22
36
13
9
0
0
0
0
0
0
0
13
14
0
0
0
19
0
0
0
11
12
0
0
3
0
20
0
8
0
5
2
7
14
11
4
0
0
40
0
0
26
0
5
24
0
5
0
0
54
0
0
0
0
0
27
0
14
11
0
0
0
0
0
25
10
0
0
25
41
26
0
25
23
0
2
0
0
25
8
0
0
4
6
7
0
0
8
0
11
3
0
14
0
7
12
0
5
9
5
11
0
0
0
13
1
0
0
0
24
0
21
0
5
0
16
0
6
0
2
0
0
0
0
0
0
0
6
0
10
0
1
0
12
0
9
1
0
6
0
0
15
18
1
10
3
0
3
0
4
0
1
0
0
4
0
7
0
0
0
6
0
5
0
0
0
0
2
0
0
5
0
7
0
1
1
1
0
6
0
16
0
10
0
0
0
0
0
0
0
0
0
0
8
0
14
0
30
7
0
13
0
0
66
46
0
18
31
0
0
0
26
0
0
0
0
9
0
0
11
5
0
1
10
0
0
0
18
0
0
0
0
11
21
6
2
0
0
21
0
7
0
0
18
0
16
0
4
1
1
0
3
0
0
2
3
0
7
6
16
0
9
2
0
2
0
0
0
0
0
0
2
62
147
34
0
0
24
0
0
0
200
42
0
23
5
57
17
0
0
0
12
23
5
4
0
18
3
16
0
0
54
0
0
0
14
0
26
0
0
16
29
0
13
21
0
0
9
67
0
0
9
0
26
47
0
0
0
0
42
10
0
12
0
0
0
0
1
0
0
0
0
16
52
42
33
11
0
0
0
51
2
30
0
17
31
0
0
0
0
0
0
66
61
0
35
34
30
0
0
0
3
0
13
0
4
0
0
7
0
6
0
11
0
12
25
0
0
2
0
0
15
0
21
42
0
6
13
0
2
0
0
0
18
0
7
0
25
0
2
0
0
0
0
0
0
0
2
6
0
0
8
0
4
6
0
0
0
22
17
0
5
0
0
0
3
1
0
0
33
0
0
12
34
12
0
0
17
12
0
0
0
10
0
0
0
10
0
5
3
0
0
9
0
29
4
0
1
5
0
15
5
0
0
0
0
0
0
0
0
0
5
0
1
0
0
15
0
9
0
0
0
0
3
0
0
0
15
0
0
3
16
0
0
5
4
0
22
0
7
0
7
15
33
37
25
47
17
19
0
0
0
0
0
3
0
3
6
0
3
26
0
0
4
0
0
26
0
10
31
0
0
16
0
0
0
0
0
0
0
50
0
0
7
0
40
23
0
5
0
0
25
0
22
0
13
7
7
0
11
36
0
15
0
25
3
2
0
0
0
45
40
0
0
40
12
0
9
7
0
26
0
4
0
0
0
6
0
0
0
0
16
13
0
9
0
0
10
0
0
3
0
0
0
12
0
8
0
6
18
0
14
0
0
4
9
0
15
0
0
0
4
0
1
17
0
0
19
0
23
0
2
0
0
4
0
6
0
12
0
0
0
0
21
0
0
4
0
5
0
6
7
0
0
0
1
0
13
0
0
0
0
12
0
1
0
0
0
2
0
0
4
1
0
3
1
0
0
0
10
0
1
9
2
3
0
0
4
0
0
0
0
33
10
10
0
63
0
3
0
0
5
12
1
0
75
66
14
0
0
0
3
4
0
0
0
9
0
0
13
0
2
4
0
0
3
12
0
0
12
4
0
0
0
0
7
0
7
0
4
0
0
0
0
2
4
0
8
2
2
0
6
3
0
10
0
4
0
0
5
0
1
6
0
5
0
0
8
0
0
0
0
0
97
121
17
0
0
132
58
1
0
0
63
0
16
0
0
26
0
14
0
0
66
0
0
23
0
0
12
0
20
33
5
0
0
0
0
44
24
0
7
0
0
6
0
0
0
0
29
49
0
0
34
0
6
51
25
20
12
0
0
40
0
0
0
10
0
0
29
0
0
6
53
0
39
1
0
0
38
0
27
0
20
57
0
29
67
36
4
0
0
0
0
0
44
30
52
43
32
9
0
0
0
0
1
2
3
0
0
16
0
0
0
23
0
0
32
12
0
2
0
0
0
0
32
25
0
0
0
9
0
3
22
0
0
0
21
0
2
0
0
20
9
0
28
0
12
0
21
0
0
25
0
9
0
0
33
11
0
0
49
0
0
9
0
9
0
0
0
0
31
0
29
0
0
0
0
0
4
0
15
0
0
10
3
0
4
4
9
0
4
0
0
0
0
0
0
0
0
3
2
0
8
0
15
0
10
0
0
4
0
0
24
1
0
0
0
0
0
0
9
5
0
12
16
0
0
16
0
6
1
0
0
0
21
0
0
0
0
0
6
0
9
6
0
5
24
34
33
46
49
12
0
0
0
0
0
22
0
2
0
0
0
8
0
6
0
0
12
0
0
0
33
0
0
33
0
65
16
0
0
0
17
0
0
0
12
22
0
1
0
31
25
0
19
0
0
15
0
0
17
24
0
0
28
14
0
29
0
0
0
16
46
0
0
12
20
0
27
0
0
0
3
31
0
0
35
0
7
0
3
8
0
0
0
4
4
5
0
0
8
0
1
0
0
0
22
0
17
0
0
11
0
13
0
6
12
0
5
0
4
0
11
0
5
0
0
1
0
3
0
7
0
26
0
0
0
0
6
16
0
6
0
23
9
6
15
4
7
0
7
0
0
0
3
0
5
0
0
6
0
6
0
16
0
0
7
0
9
0
0
10
0
0
9
2
0
0
16
0
2
1
0
8
11
3
18
0
0
0
0
20
0
0
0
0
0
0
2
0
0
9
5
11
23
1
75
51
0
0
0
0
8
48
0
41
0
24
0
8
0
9
0
4
0
28
1
0
0
0
0
0
18
0
0
0
4
9
4
0
0
6
11
0
13
6
0
1
0
0
0
10
0
4
3
0
0
18
0
13
0
8
0
3
8
0
0
0
14
3
0
1
24
109
120
39
0
0
40
0
0
18
0
0
34
5
0
0
0
2
0
0
15
0
42
20
26
0
0
0
0
1
24
40
0
0
5
21
0
65
9
0
1
0
0
0
17
17
0
0
49
33
36
0
33
0
0
36
33
18
40
0
0
5
27
0
0
0
0
0
36
44
0
0
21
19
47
0
39
0
0
25
2
25
0
34
50
0
0
76
71
0
11
0
0
0
117
20
20
37
0
54
48
0
0
12
0
7
0
16
0
13
0
0
22
0
12
17
9
0
0
25
0
25
0
0
36
78
0
0
0
0
7
6
0
33
0
0
9
11
10
0
0
0
0
0
0
3
4
21
0
7
0
0
8
3
0
0
2
0
0
0
0
36
4
0
22
0
0
12
0
0
8
0
0
11
0
0
18
17
0
5
0
4
11
10
12
0
0
1
18
0
0
7
0
1
3
5
0
2
4
0
0
21
0
7
0
0
8
5
0
0
10
11
0
11
0
0
9
12
0
21
0
0
16
0
0
8
0
0
0
0
2
0
0
2
0
5
0
0
13
0
0
13
0
0
4
7
0
2
0
6
29
46
43
20
9
0
0
0
0
0
13
0
14
0
8
0
14
0
12
0
0
0
6
0
0
0
0
0
0
11
0
0
62
0
6
0
8
46
0
0
10
0
0
0
60
0
27
0
0
0
0
21
0
0
0
14
0
0
29
0
0
35
45
0
0
29
4
0
0
1
0
30
0
14
7
0
0
17
0
5
11
0
0
18
0
0
0
0
5
1
0
5
18
0
5
9
0
0
0
0
10
0
0
9
0
4
0
6
0
0
5
8
0
4
0
2
13
0
0
21
0
0
8
0
4
6
5
4
0
0
0
0
0
0
0
9
0
0
0
4
5
3
6
3
0
2
3
0
0
1
2
2
8
0
2
0
0
2
0
0
6
0
0
2
5
0
16
0
7
0
0
5
4
0
4
8
0
0
0
0
18
0
0
0
0
0
0
0
11
0
13
0
0
6
0
18
66
52
0
13
11
0
19
0
8
0
0
0
0
10
14
10
0
0
0
0
12
0
9
0
17
27
0
0
8
1
12
15
10
8
0
0
0
8
0
0
0
8
0
19
0
0
7
0
10
11
0
0
4
1
16
1
25
0
0
0
7
21
0
0
0
30
103
100
0
0
0
0
27
0
0
0
0
17
108
0
0
0
1
17
0
36
0
0
47
0
0
0
28
0
0
0
0
18
0
14
5
1
0
0
78
3
0
2
48
2
7
0
0
0
0
0
44
17
0
43
0
0
48
19
30
17
0
0
4
0
0
0
2
11
53
52
0
0
24
24
45
0
0
57
0
0
51
0
0
0
16
0
0
0
68
62
12
0
0
0
22
0
16
0
42
46
26
7
0
0
8
13
10
13
0
0
16
0
0
0
0
17
14
0
0
0
4
19
0
25
0
22
0
0
3
0
0
0
32
0
3
0
0
0
9
11
0
0
0
15
5
0
0
0
0
0
0
2
0
0
2
6
11
15
0
11
0
17
0
0
13
0
5
22
0
4
0
6
8
10
0
5
0
0
23
2
0
0
0
2
0
3
15
0
16
4
0
0
6
0
1
0
1
0
2
2
6
0
8
4
0
0
0
1
4
0
0
0
10
0
0
7
0
0
11
0
0
13
0
0
5
0
0
0
14
2
0
0
27
1
0
5
0
5
0
0
9
0
5
0
6
0
9
2
11
1
1
12
31
29
56
23
12
13
0
0
0
12
0
0
2
27
0
7
0
20
10
7
0
10
0
19
0
34
0
23
0
0
41
0
0
0
0
37
0
0
3
0
8
0
38
0
14
5
0
0
20
19
0
15
9
21
0
19
0
0
0
57
30
0
5
5
13
0
0
8
0
19
0
0
22
17
18
0
0
0
0
0
0
15
7
0
14
0
0
13
0
0
5
0
0
0
1
6
12
1
7
0
0
25
0
0
12
6
0
1
14
0
11
23
0
16
0
0
6
0
0
5
3
16
4
0
0
0
4
0
12
0
0
16
21
14
10
1
2
0
0
0
0
0
2
4
0
0
6
0
0
3
0
2
1
3
0
0
1
5
0
0
12
4
0
0
8
0
9
3
5
10
15
24
11
2
0
18
0
0
2
0
1
12
0
8
0
17
0
2
8
24
6
14
7
8
67
60
0
0
7
33
0
15
0
4
0
0
10
0
0
0
0
2
0
0
4
0
0
18
6
0
0
20
0
0
3
3
0
0
6
0
0
0
0
0
3
4
0
0
17
5
0
0
5
0
12
0
11
0
0
0
0
6
0
12
0
0
0
0
26
107
67
0
0
0
0
7
33
32
0
0
0
135
25
0
0
0
0
0
0
0
0
0
16
2
19
0
2
40
0
13
0
7
31
0
7
0
0
0
93
6
0
1
8
0
23
4
0
14
0
0
0
58
0
10
34
0
0
44
29
18
37
0
0
0
0
0
56
0
0
0
0
2
28
76
2
0
0
30
38
0
0
18
0
12
15
32
10
0
8
46
32
6
0
0
0
0
55
0
0
58
41
60
7
0
0
0
0
0
0
5
0
54
0
1
0
54
3
0
0
4
0
0
22
0
0
48
0
0
14
0
32
0
0
20
0
0
1
6
0
12
5
21
10
0
0
20
0
11
17
23
0
17
0
0
5
9
0
6
34
0
0
0
0
0
0
35
0
0
0
0
0
18
8
9
0
0
4
5
0
13
11
0
28
11
0
14
0
10
0
0
6
4
0
11
0
22
7
0
0
10
0
8
0
10
0
0
5
0
14
0
2
0
0
0
4
16
0
9
0
2
0
3
0
5
4
0
17
0
0
0
0
0
7
0
3
10
6
0
7
5
0
11
4
0
7
4
0
0
2
0
5
7
0
14
27
49
39
33
17
0
0
0
0
0
0
0
4
0
12
6
0
7
19
4
7
5
13
24
0
0
0
0
0
32
3
0
36
27
14
0
11
0
18
0
39
0
10
17
0
0
25
15
0
0
6
0
0
32
0
0
0
72
12
0
18
6
0
4
0
21
0
27
0
0
0
4
0
0
0
14
9
0
5
0
0
9
0
8
0
0
1
14
0
10
0
4
0
1
0
8
0
0
17
0
0
7
11
0
0
2
0
14
0
0
0
0
11
2
6
10
10
0
8
0
0
3
11
8
4
0
11
0
0
15
6
0
3
0
14
5
1
3
1
0
0
1
0
0
0
0
6
4
5
0
0
0
5
0
1
1
9
0
1
0
0
0
0
9
5
2
22
1
24
0
11
0
0
0
5
0
9
8
0
0
9
3
2
0
0
9
0
13
0
3
0
0
61
66
0
0
8
0
0
5
0
6
0
27
0
5
7
12
0
17
3
0
0
17
13
0
0
11
0
0
0
25
0
0
20
0
5
0
2
0
8
2
2
0
13
3
0
2
7
18
0
7
0
18
0
2
10
0
4
0
0
8
0
0
0
75
91
22
0
0
0
0
33
64
0
0
0
0
42
113
21
0
0
23
13
13
2
9
9
0
0
62
0
13
0
0
0
0
33
38
0
17
2
1
0
0
32
34
0
0
0
0
0
0
0
0
39
0
0
15
38
0
45
10
0
0
43
29
48
33
0
0
0
0
0
0
0
0
1
23
30
32
0
8
0
0
46
46
0
0
0
0
18
29
43
19
0
0
0
59
5
0
3
45
38
0
0
0
77
93
39
0
0
0
0
36
0
0
25
0
19
0
0
19
15
0
21
17
0
7
0
0
0
38
0
27
0
0
7
17
3
0
0
9
0
21
2
0
27
0
0
0
0
14
0
0
0
8
0
0
0
0
6
0
17
0
0
0
0
8
19
6
0
0
18
0
0
14
2
5
8
0
17
0
0
0
17
0
0
6
0
1
15
0
5
14
0
0
13
3
3
10
0
0
4
0
0
22
0
18
0
5
11
0
6
0
0
0
10
0
10
0
0
0
8
2
0
0
15
0
11
0
1
0
0
1
6
2
0
8
0
0
0
5
2
2
0
7
0
0
0
5
0
0
0
2
0
16
0
6
0
0
1
4
7
38
50
37
17
0
0
0
0
0
0
3
0
0
0
27
0
0
5
15
0
9
0
0
18
5
0
38
0
0
0
29
0
0
43
0
39
0
12
0
0
1
0
12
21
0
0
0
0
27
8
10
0
0
4
71
8
0
7
8
0
6
0
3
0
31
0
0
2
13
0
0
0
10
0
11
0
0
0
0
0
0
9
3
0
9
0
0
0
8
0
2
4
0
14
0
4
0
0
0
5
0
1
0
0
0
0
20
0
8
5
15
0
0
2
0
4
0
15
0
0
14
3
7
0
0
0
7
6
12
0
7
0
0
2
0
0
5
5
0
0
0
8
0
2
0
11
0
0
4
3
0
0
4
0
1
0
1
0
5
0
0
10
3
18
11
25
3
27
0
0
0
0
0
9
0
0
17
0
0
0
23
22
0
8
12
23
23
0
2
89
99
17
0
0
0
0
25
0
0
16
0
14
0
10
11
0
3
0
0
26
13
0
31
0
0
19
0
3
0
0
4
1
0
0
2
0
8
0
3
0
21
0
1
6
0
0
0
9
0
9
0
5
0
1
3
0
11
0
0
0
12
80
92
0
0
0
0
1
0
33
0
3
0
0
0
101
106
0
0
0
0
5
0
0
0
0
5
21
31
8
6
0
0
0
0
27
0
0
9
0
16
0
0
88
8
0
0
8
0
52
2
0
0
5
0
0
0
43
16
0
21
0
0
0
44
51
37
23
32
14
12
35
0
0
39
2
46
60
0
0
16
0
0
0
79
36
0
21
0
0
7
68
50
0
0
0
0
125
0
0
47
0
0
22
0
0
105
66
25
0
17
0
0
11
10
0
12
0
0
1
14
0
0
0
0
2
0
0
3
0
58
0
0
0
0
0
13
0
5
9
4
22
0
0
0
14
0
0
0
14
12
3
12
0
0
0
22
8
0
4
15
0
0
0
0
5
0
0
5
0
0
0
14
0
0
0
9
0
0
6
0
13
0
17
0
9
8
1
11
0
9
0
0
0
12
0
0
0
0
3
0
0
1
5
0
11
0
7
0
9
3
0
3
4
1
0
0
6
9
0
0
15
0
0
6
3
0
0
2
6
7
0
0
0
2
7
0
7
3
6
2
0
4
0
11
0
0
11
0
3
0
3
6
0
0
9
0
0
13
0
1
1
0
14
31
48
36
26
0
0
0
0
0
6
0
0
11
0
0
0
29
0
0
0
22
0
0
0
0
23
0
0
60
0
0
0
0
9
0
10
0
0
20
0
0
24
0
7
1
0
6
51
9
0
0
15
68
0
0
8
6
0
0
0
20
0
13
0
6
0
0
20
6
1
2
0
12
13
1
0
21
0
0
0
10
0
0
7
6
0
0
2
13
0
12
5
0
10
4
0
15
0
18
6
0
19
9
10
0
0
15
0
5
0
0
16
2
0
0
12
21
0
0
0
0
11
3
0
21
14
12
2
0
11
0
0
2
0
9
0
9
0
0
0
0
7
0
0
7
0
0
1
3
6
3
0
11
0
8
1
0
4
4
11
12
11
0
5
0
0
0
6
0
8
4
0
7
26
0
3
0
8
0
0
0
9
0
0
23
0
21
104
117
18
0
31
0
18
0
0
10
0
9
0
0
0
0
0
0
8
0
13
13
9
13
0
0
7
13
0
2
0
19
1
14
0
15
3
0
16
1
1
0
10
0
0
12
0
3
6
0
0
0
0
16
2
0
0
0
0
0
6
57
57
0
0
0
9
0
0
6
0
0
42
0
0
47
103
44
0
0
0
2
0
0
24
0
0
0
0
0
34
0
24
0
0
0
0
25
0
0
14
0
4
0
34
23
43
2
0
0
0
12
0
0
2
0
0
0
0
83
10
11
16
0
0
1
43
18
26
79
42
53
42
33
27
13
0
69
0
0
0
6
39
13
0
0
64
19
0
0
0
7
0
13
10
0
0
0
69
48
0
67
21
6
39
0
0
18
130
76
0
0
0
4
0
0
19
0
0
5
0
32
0
12
0
26
0
24
0
0
35
12
0
6
4
0
22
6
0
0
11
0
4
0
11
20
0
7
2
16
0
0
5
0
11
0
22
0
0
0
0
0
6
2
5
0
8
0
15
14
3
0
22
5
0
11
0
19
0
24
0
9
0
0
19
3
0
6
0
15
0
0
4
9
8
0
0
3
3
0
1
0
16
3
0
17
0
17
7
7
0
0
0
14
0
0
9
0
2
0
0
1
9
0
0
10
2
0
0
0
0
1
7
0
0
13
0
0
6
0
18
0
0
11
0
0
0
4
0
8
0
2
0
3
11
0
7
5
0
0
0
4
0
8
0
3
6
32
58
45
18
0
3
0
0
0
2
6
4
8
0
0
0
8
0
0
7
9
0
20
39
0
0
56
0
0
26
0
41
0
27
0
0
36
0
21
15
0
26
0
0
0
0
0
0
0
21
66
1
0
0
27
0
0
9
0
2
29
0
0
3
0
10
0
11
3
0
0
0
21
0
0
0
12
10
1
7
24
3
0
0
0
0
8
5
0
3
0
0
14
0
5
8
9
0
0
0
28
0
8
0
0
0
8
0
11
0
3
6
0
0
0
13
15
0
0
0
0
0
14
13
1
15
0
10
0
7
0
9
0
14
0
0
7
1
1
0
6
0
4
1
0
0
1
0
3
8
0
10
0
0
6
1
32
11
1
0
0
0
0
28
3
0
0
0
0
11
0
0
0
0
7
8
4
8
6
8
12
4
0
0
8
84
123
7
5
13
0
6
13
0
8
4
11
0
12
0
7
0
0
4
0
9
0
0
0
9
1
0
0
0
0
0
0
8
0
0
0
0
0
0
0
4
0
2
0
0
0
11
0
0
12
0
7
0
0
7
0
0
0
31
24
22
8
0
0
0
5
0
15
0
15
0
21
30
0
48
50
29
0
0
7
0
29
16
27
0
0
0
5
0
0
13
30
20
0
0
6
77
0
0
12
0
25
0
0
0
14
7
0
0
22
16
0
0
19
58
0
0
0
0
21
95
0
0
30
0
0
0
0
0
0
0
37
0
7
5
23
61
37
0
0
0
0
30
24
17
0
0
45
25
0
0
0
0
18
0
21
0
25
0
19
48
86
18
0
84
18
0
0
61
120
86
0
0
0
17
0
13
0
0
1
3
26
18
0
0
0
0
14
7
0
26
44
0
0
0
0
13
0
3
0
10
18
0
0
0
0
0
0
0
1
4
0
3
5
13
3
0
12
3
0
3
11
16
0
38
0
0
0
21
0
0
3
0
19
0
0
0
0
28
0
26
0
8
9
12
9
6
1
14
0
3
10
9
0
0
5
0
4
0
0
0
10
0
0
0
13
7
1
0
0
0
0
17
0
0
0
2
0
0
1
5
4
0
8
0
0
4
0
27
0
4
0
0
0
0
0
4
0
5
0
0
5
0
7
9
0
0
0
0
6
4
0
5
6
0
3
0
2
0
4
8
0
4
0
0
4
1
3
14
30
53
38
8
0
0
0
0
0
0
0
0
9
0
0
0
0
22
0
0
17
0
0
0
56
20
0
0
0
23
0
19
0
17
8
0
1
33
0
0
0
11
26
0
27
0
0
11
76
0
10
5
11
0
0
6
0
5
1
2
0
0
0
4
22
0
0
1
1
8
2
0
13
0
0
22
0
1
0
4
0
0
0
1
0
15
0
3
0
5
1
22
0
3
0
0
0
21
0
34
0
0
0
8
0
4
5
0
0
3
0
21
0
0
0
0
22
0
0
15
15
15
0
0
0
0
0
5
0
3
5
0
0
8
0
0
4
0
4
0
0
5
0
1
7
5
8
1
8
0
10
0
10
13
20
0
4
0
0
0
0
0
4
0
0
6
8
21
0
6
0
6
0
0
14
0
0
0
0
0
4
4
0
101
138
12
10
0
0
5
10
0
2
0
0
6
10
0
0
2
0
0
28
0
10
0
0
21
4
0
14
0
5
6
8
0
1
0
5
13
11
4
8
0
1
2
6
2
2
4
0
2
0
0
6
4
0
0
7
0
50
31
21
0
0
0
2
3
0
8
0
0
0
0
101
0
43
76
67
0
0
0
0
4
6
0
0
0
5
6
10
0
6
0
0
49
0
0
15
46
0
0
0
0
13
0
0
0
46
0
26
4
0
5
16
0
33
54
0
0
0
0
0
63
68
0
38
37
0
0
0
0
0
0
0
0
0
61
6
60
0
0
50
0
5
0
34
16
0
4
0
82
44
0
23
0
43
0
0
8
18
23
0
78
73
0
0
0
32
17
0
0
9
156
48
0
0
0
0
14
24
6
17
0
32
8
0
2
13
8
0
0
0
18
36
0
0
11
0
0
18
0
10
0
16
13
0
0
28
17
0
1
0
0
0
16
0
0
0
12
0
0
8
7
0
14
0
0
0
17
0
0
6
34
0
0
12
0
0
0
0
24
12
0
7
0
3
0
3
24
5
0
21
0
0
6
0
1
13
1
8
0
10
14
0
27
0
0
14
0
19
0
5
7
0
0
7
0
10
0
0
19
0
0
0
10
0
7
1
0
7
0
8
0
0
0
14
0
10
0
7
0
14
0
0
0
0
0
13
0
0
7
0
8
0
6
6
0
0
0
4
0
0
0
10
0
0
0
1
1
0
0
9
8
37
51
42
19
0
0
0
0
0
0
17
0
0
0
0
9
0
0
22
0
47
0
29
8
0
0
3
15
0
26
8
0
19
0
4
13
0
11
0
38
0
0
60
0
0
3
67
0
13
0
17
6
0
22
0
2
6
0
0
16
0
0
14
8
0
0
10
0
0
14
0
3
23
0
0
8
0
0
26
0
13
0
5
0
10
1
0
0
0
0
0
18
1
0
0
0
10
0
0
0
26
0
6
0
0
0
16
6
0
0
28
0
0
0
0
0
0
0
9
0
11
2
9
1
2
1
0
5
0
0
6
0
0
4
0
6
0
16
0
0
0
8
0
0
0
0
9
11
0
7
12
2
22
0
0
0
0
0
17
7
0
0
15
0
18
0
18
0
0
2
10
0
14
11
8
0
0
0
7
3
12
92
122
0
0
15
14
9
0
6
0
0
0
14
12
0
23
0
2
1
3
0
6
0
0
0
2
0
0
3
0
3
0
16
0
0
0
0
0
0
0
13
6
0
0
0
11
0
3
0
12
0
0
3
0
9
14
34
10
0
0
3
16
0
0
2
15
0
3
0
0
26
16
0
98
79
0
0
0
2
0
0
0
9
3
0
0
0
0
15
0
0
5
19
32
0
70
9
0
1
0
31
0
23
0
0
50
0
0
0
0
3
0
0
76
0
0
11
0
0
0
0
89
26
0
0
24
4
0
0
0
0
52
0
0
11
28
38
0
0
46
45
0
0
0
0
9
0
0
0
50
27
0
16
0
13
12
0
0
0
0
24
49
6
0
0
10
0
54
3
0
0
120
0
0
0
0
13
0
0
0
10
53
0
2
0
0
0
0
0
0
2
71
0
0
0
0
22
0
8
0
0
14
1
3
2
0
17
0
0
7
25
0
3
0
4
0
0
0
32
0
0
0
0
11
5
0
0
9
24
1
0
0
18
6
0
0
3
0
14
5
0
9
0
19
0
0
0
0
0
0
13
11
0
0
9
3
0
0
0
8
0
13
4
0
6
0
6
0
21
0
8
0
0
0
0
10
0
12
0
0
8
21
11
0
0
1
0
0
0
14
0
0
8
0
0
6
2
0
0
1
16
4
13
3
10
0
4
6
0
5
0
2
0
0
4
0
14
2
10
1
0
5
0
7
0
0
0
10
0
0
4
0
17
36
48
30
23
0
0
0
4
0
0
9
5
0
3
0
19
0
0
32
0
36
42
0
31
0
33
0
24
0
5
7
0
15
21
0
2
0
0
16
0
55
0
0
31
57
0
0
17
11
0
0
19
1
0
1
0
1
0
0
21
0
6
1
0
6
12
5
0
8
0
0
0
29
0
16
0
0
21
0
0
15
0
0
14
0
15
0
0
0
0
2
2
3
0
5
0
0
29
0
4
0
20
0
8
8
0
18
4
0
3
0
5
0
0
3
0
5
11
11
3
3
4
4
0
5
2
0
0
3
0
1
2
4
2
5
0
3
6
0
3
3
0
4
2
3
11
13
0
9
20
0
2
0
0
4
0
0
0
14
0
0
0
6
0
0
0
12
4
2
0
7
0
1
0
0
11
0
0
0
78
132
0
2
0
7
0
5
14
3
0
0
0
11
4
0
0
6
0
25
13
0
15
0
11
0
21
0
1
9
0
0
11
3
0
3
6
0
0
2
2
0
9
9
0
0
1
11
0
0
12
0
0
27
0
0
0
3
0
0
5
3
0
13
11
0
0
0
0
0
107
0
0
120
84
0
0
4
0
0
27
0
0
0
3
0
0
20
0
4
0
0
6
6
36
46
0
0
0
0
0
0
0
0
0
50
16
8
0
0
15
0
3
65
0
0
0
0
0
0
0
0
23
74
20
1
37
15
0
0
61
12
0
0
1
54
23
0
0
14
70
65
0
1
3
2
34
7
0
0
79
0
2
0
15
0
0
0
40
0
0
51
78
5
0
96
0
0
43
38
0
101
119
0
0
9
0
0
1
18
0
26
7
0
3
14
12
0
0
0
26
9
0
11
0
0
4
0
0
8
0
0
0
0
0
0
0
0
19
0
0
0
5
0
0
0
11
0
0
8
4
11
0
15
0
0
0
26
5
0
0
2
0
0
0
0
0
0
0
0
0
8
0
0
0
18
4
0
13
11
0
6
2
0
0
0
0
3
6
0
0
4
0
0
0
10
12
0
1
0
11
0
0
11
0
0
12
0
17
0
0
4
0
11
0
0
5
4
5
1
0
7
6
0
2
0
11
7
0
0
0
0
0
13
0
0
7
0
0
0
0
3
12
0
0
3
0
0
0
0
11
0
6
1
13
3
0
0
18
0
7
0
8
5
16
47
58
19
0
0
0
0
7
0
0
0
29
0
41
0
0
15
0
28
6
0
0
0
29
0
6
0
0
18
0
33
0
0
13
0
15
22
0
36
0
0
7
45
0
0
0
11
0
0
30
0
1
0
0
1
2
14
0
6
31
0
0
4
0
0
0
0
7
9
0
0
7
0
16
9
0
0
5
0
8
3
10
0
0
0
18
0
0
6
0
7
0
12
4
11
0
0
0
26
0
1
0
0
14
0
0
11
8
2
0
0
0
0
0
0
15
3
3
6
0
4
0
0
6
0
5
0
3
5
0
2
0
0
7
0
0
0
2
0
4
0
15
1
9
0
17
26
14
0
0
2
0
0
0
16
19
31
6
13
3
0
17
0
10
0
2
16
0
14
0
0
20
0
11
16
0
0
87
146
13
0
13
0
2
23
8
0
1
15
3
0
11
4
15
0
0
0
22
11
0
0
1
11
0
0
0
3
3
18
0
0
13
2
1
5
8
0
0
0
0
0
15
0
3
2
0
0
0
0
0
3
0
13
0
4
0
0
16
0
20
0
0
0
0
0
0
30
59
0
83
138
0
0
0
0
13
6
3
0
4
19
0
0
33
0
0
0
0
0
0
0
64
74
0
0
0
6
5
0
0
0
0
38
30
18
0
0
0
0
56
86
0
2
0
25
0
0
7
0
0
38
85
33
63
32
16
0
2
0
0
1
28
101
0
0
21
0
0
62
56
0
0
0
4
56
0
0
6
86
20
0
0
28
0
10
33
13
9
10
3
113
3
0
0
0
0
68
0
0
173
36
0
0
9
0
0
0
10
22
0
12
1
0
0
0
0
0
31
0
0
1
4
3
11
17
0
0
0
20
16
0
0
8
18
0
14
0
0
4
0
28
8
1
0
11
0
0
14
0
0
0
4
24
5
3
25
0
0
0
16
19
0
2
7
2
3
2
0
34
9
9
0
0
17
0
0
0
0
1
6
0
6
5
7
10
4
0
12
17
0
30
0
0
7
8
0
0
0
0
15
0
0
8
2
0
0
0
13
0
16
2
0
1
0
0
0
0
17
0
0
0
4
23
0
3
11
0
8
0
0
2
0
4
5
3
0
12
0
0
0
0
0
0
0
16
0
0
0
4
0
0
0
2
0
0
0
8
0
1
0
0
10
1
25
46
39
28
0
0
0
0
0
0
18
4
34
18
0
53
0
14
43
0
0
0
20
0
29
4
0
10
0
0
26
0
1
9
25
1
0
36
0
0
31
17
21
0
2
0
0
0
35
0
0
9
7
0
0
6
5
0
5
6
0
0
0
0
7
0
5
0
5
3
0
11
0
0
0
5
5
13
3
0
0
0
6
0
6
0
12
0
0
9
0
0
0
10
0
3
4
0
10
0
9
5
12
0
26
0
0
0
0
0
0
1
0
15
5
21
1
4
2
0
0
3
0
0
3
0
1
0
6
3
0
1
0
5
2
0
6
6
0
16
0
8
20
17
10
17
0
0
0
0
0
2
10
1
2
3
0
1
18
0
0
4
3
0
11
0
0
10
0
0
24
0
19
0
11
8
88
135
2
0
0
24
0
0
1
6
0
17
0
0
0
0
0
4
12
11
0
0
4
0
15
0
23
6
0
0
5
0
14
0
0
0
4
2
1
0
7
0
2
7
0
0
1
0
16
5
2
1
0
0
8
0
0
4
2
11
0
0
5
13
14
8
0
0
0
141
0
0
105
121
0
0
0
34
0
0
0
27
0
10
0
7
0
0
0
6
0
0
0
0
70
40
0
0
0
8
0
0
17
0
0
50
41
41
0
0
0
3
57
34
0
0
29
0
2
0
0
0
0
0
0
0
0
96
33
37
0
0
25
76
56
75
0
0
34
0
0
0
73
36
0
14
0
31
25
0
0
39
63
18
0
0
24
13
14
0
0
0
0
62
79
0
0
0
0
25
159
0
74
108
0
0
0
6
0
20
0
46
0
0
0
15
0
0
0
0
66
36
0
7
2
0
1
10
26
0
0
8
0
0
0
1
24
0
0
0
60
28
0
0
0
1
0
14
0
4
0
23
0
11
0
0
0
0
0
17
0
0
27
0
9
2
0
0
0
15
0
0
0
0
13
0
0
0
18
8
0
14
0
0
16
0
1
0
0
12
0
2
7
0
0
0
0
3
11
0
14
2
0
5
0
12
0
0
6
6
4
0
0
9
0
1
15
9
14
0
4
0
4
0
7
0
0
0
0
11
0
0
0
4
0
3
0
0
0
4
0
0
0
0
6
0
6
0
6
3
0
16
0
10
0
4
0
13
0
0
0
4
5
1
0
0
7
21
34
51
16
0
0
0
0
0
0
0
7
3
0
0
22
12
33
0
0
9
0
0
19
0
11
15
0
0
18
6
3
0
11
0
0
10
0
20
45
14
0
6
0
3
0
0
7
3
2
9
0
6
0
1
0
14
0
21
0
15
0
7
0
6
3
8
3
0
0
0
16
16
0
0
14
0
0
26
10
0
2
0
18
5
0
27
1
13
0
15
4
0
0
8
0
9
0
7
19
0
19
0
0
12
21
5
7
2
8
0
0
7
17
1
12
0
7
2
0
4
0
0
4
1
2
1
0
0
0
1
0
1
4
8
0
8
0
0
3
22
0
39
0
4
0
0
0
11
0
12
5
0
1
0
32
1
0
11
0
9
7
5
2
0
0
2
0
9
3
0
0
14
1
0
83
147
11
2
10
7
0
0
0
4
14
0
18
3
2
0
0
0
0
0
1
7
0
27
0
3
0
0
0
10
0
0
17
0
9
0
2
2
17
0
7
0
0
10
0
13
0
13
0
0
0
3
0
13
0
7
4
1
3
2
7
6
3
0
0
0
25
0
12
114
0
0
155
71
0
0
11
0
0
8
7
0
21
9
0
2
5
25
0
8
89
13
0
0
29
13
0
0
0
0
0
0
0
0
38
23
69
0
0
0
0
68
34
0
0
0
35
7
0
0
0
54
0
53
0
0
0
0
35
0
0
0
108
41
0
0
0
0
31
42
0
0
0
82
7
0
13
0
37
7
0
0
22
63
0
0
5
0
21
6
0
13
8
0
100
76
0
0
0
0
0
37
0
123
45
0
0
14
0
10
35
0
0
23
0
9
0
11
0
0
61
0
15
0
0
2
3
2
0
5
0
25
0
6
0
0
0
4
0
0
10
8
0
0
17
0
18
0
2
7
0
0
0
0
8
1
0
17
4
23
15
0
0
0
14
0
0
0
13
27
0
0
21
0
0
31
8
16
0
0
0
0
9
0
3
0
11
0
0
8
0
0
0
0
11
11
0
0
8
0
13
0
17
0
8
0
0
22
0
10
0
0
18
0
2
1
0
0
5
0
1
0
1
9
0
0
0
6
21
0
0
1
14
0
3
1
0
7
5
0
12
0
0
0
13
0
4
7
0
3
0
2
0
0
0
2
0
0
2
0
7
3
0
0
5
0
0
7
12
25
56
27
6
0
0
4
18
0
11
14
0
0
37
5
14
0
0
11
8
8
9
6
0
22
0
50
4
6
0
9
24
9
0
30
0
0
66
2
2
2
0
0
0
0
14
0
0
0
0
11
10
0
0
0
2
5
0
0
11
9
0
0
6
0
5
0
19
0
13
0
10
0
3
15
0
0
0
4
27
0
0
0
16
0
0
0
17
5
5
0
0
0
0
26
12
0
0
26
4
0
15
0
0
33
0
0
0
0
0
23
1
15
0
4
5
0
10
0
7
0
0
0
6
0
5
2
2
0
0
3
0
0
6
9
0
11
7
2
27
0
0
0
0
0
8
0
0
0
2
3
0
9
0
7
4
20
0
0
0
3
0
0
21
0
28
1
0
5
0
0
14
0
87
129
0
0
0
4
17
5
0
0
0
17
0
7
0
41
0
17
5
17
13
0
13
0
15
0
0
0
0
10
11
0
1
4
0
10
0
4
0
4
0
7
8
0
9
1
0
0
0
3
4
4
0
0
0
6
7
0
0
0
2
7
2
0
0
14
51
0
108
23
0
0
74
14
0
15
0
3
0
22
0
0
0
0
1
14
0
0
13
0
81
72
30
0
21
0
0
0
0
0
0
0
0
37
43
75
39
0
0
0
33
14
0
0
6
9
0
1
0
0
48
33
31
0
6
0
0
0
0
0
53
50
50
0
0
0
0
7
0
9
23
0
0
0
74
12
15
1
0
0
0
0
0
53
22
0
0
0
0
39
0
0
80
0
0
123
84
0
0
0
0
0
37
0
150
0
0
0
0
4
0
4
0
0
0
0
0
0
0
0
33
6
12
2
0
0
13
0
0
13
0
8
0
8
0
6
0
24
0
0
0
35
30
0
0
12
0
30
0
0
14
13
16
0
23
8
0
0
14
4
19
5
3
7
0
10
0
4
0
15
0
35
0
11
0
0
3
0
0
12
3
2
8
3
4
0
8
0
0
8
3
0
0
13
0
2
5
3
0
10
0
0
2
0
0
24
0
11
0
16
0
10
0
1
0
1
20
4
0
7
1
0
0
0
6
0
10
0
0
5
14
0
0
2
8
0
5
5
8
0
0
11
0
4
0
4
11
0
8
1
0
16
0
6
6
0
6
11
0
6
0
0
4
1
0
8
0
1
0
12
27
46
45
1
0
0
0
20
10
0
0
0
18
33
32
0
0
33
0
0
32
0
0
41
0
0
19
0
3
0
10
0
0
25
0
16
62
0
19
5
0
0
16
0
20
0
36
0
7
0
1
6
5
0
13
0
12
3
0
4
0
12
0
13
1
1
0
17
0
8
0
8
0
9
0
0
0
0
0
0
22
0
11
0
2
3
4
31
0
0
25
0
23
0
0
21
0
0
18
0
5
0
13
0
0
6
0
0
0
9
18
6
0
9
0
3
0
8
0
0
0
0
5
4
0
0
1
3
2
0
4
2
7
12
5
1
8
0
0
0
0
0
9
0
0
0
15
11
0
6
15
12
0
8
0
2
0
20
7
0
5
0
8
0
1
6
17
0
11
0
0
10
105
139
10
0
26
0
0
0
0
8
11
0
14
0
0
0
0
0
0
10
0
0
8
22
0
0
0
0
0
0
0
0
2
9
0
0
14
0
3
0
0
1
0
9
2
0
8
0
0
0
5
0
18
7
2
0
4
8
3
0
5
0
6
0
0
21
0
0
163
0
0
52
2
0
0
0
10
1
12
0
0
7
0
4
4
0
0
8
0
0
0
24
64
62
25
13
22
16
37
2
0
12
45
39
48
15
0
0
17
0
30
0
0
13
97
0
0
0
0
17
39
64
0
0
0
0
0
0
19
45
48
25
0
5
30
0
0
53
25
0
22
19
0
0
6
10
0
13
11
0
28
0
56
0
46
0
10
0
5
57
30
0
0
0
0
39
95
57
0
0
23
0
75
0
135
76
0
0
0
16
0
26
15
3
10
14
11
0
0
3
40
0
16
0
0
7
21
18
0
8
0
12
0
0
1
17
5
7
0
0
5
0
3
0
3
0
11
0
0
4
0
9
5
11
0
18
0
0
12
0
5
3
0
0
0
21
3
0
0
41
0
0
20
0
26
0
6
0
0
9
0
0
0
0
8
14
0
2
0
0
10
0
24
0
12
0
0
5
4
0
0
3
2
13
0
11
8
0
23
0
0
0
6
12
0
0
0
0
3
0
0
4
1
7
0
7
0
7
4
0
0
5
0
0
0
0
6
5
0
3
0
1
0
3
0
0
0
0
4
8
0
0
9
0
0
13
0
0
0
0
0
2
4
0
2
0
4
0
3
3
0
21
34
51
3
0
0
0
23
0
0
0
15
8
12
0
0
12
0
0
2
0
4
0
0
1
18
7
0
0
29
0
0
49
0
34
80
0
13
0
2
0
0
9
33
0
1
5
0
20
0
5
0
4
0
0
15
0
0
15
0
12
5
0
9
1
0
7
0
4
13
0
0
13
5
6
0
11
0
0
11
1
0
13
2
5
0
0
2
0
3
0
0
0
34
0
27
0
0
16
6
0
7
0
0
0
0
0
17
0
22
6
2
0
11
0
0
0
6
8
1
0
0
0
3
7
0
1
4
5
0
13
10
10
0
9
0
0
0
55
0
0
0
7
0
14
29
0
0
13
0
0
0
0
3
0
0
0
6
0
3
0
0
24
0
0
0
6
11
0
0
0
78
136
7
0
0
11
0
30
0
17
2
8
0
0
23
0
10
0
13
8
0
18
0
0
11
1
0
0
21
0
0
10
6
0
10
10
7
0
14
5
6
0
8
0
0
0
7
0
2
14
0
10
0
4
0
13
0
0
6
5
0
3
0
0
0
25
0
48
111
0
0
9
31
5
0
0
0
0
0
0
11
23
11
0
1
2
12
0
0
1
0
0
0
19
19
77
89
79
44
38
36
35
71
46
0
0
0
12
23
0
9
0
2
60
0
0
0
0
39
44
66
3
0
0
9
0
0
0
80
31
0
0
0
32
0
0
2
0
0
45
0
18
0
0
0
36
0
0
28
0
0
12
58
0
6
13
22
0
0
0
60
0
0
0
0
0
1
111
0
0
0
0
3
8
0
150
0
0
0
16
10
0
0
2
16
0
3
1
0
0
57
8
0
0
7
0
11
0
0
23
0
6
6
0
0
20
0
11
0
0
22
0
0
21
0
0
0
2
0
0
0
1
22
0
20
1
21
0
0
27
0
30
0
1
1
3
10
0
3
29
0
2
0
2
0
0
7
9
1
0
1
2
0
13
16
0
11
0
21
0
0
8
0
0
0
19
0
2
2
2
25
0
0
0
0
0
0
2
0
0
1
0
2
0
0
13
3
0
0
3
0
12
0
10
0
11
0
0
0
9
2
0
11
13
0
2
0
7
0
0
9
0
3
1
5
4
0
4
0
0
0
0
2
2
0
2
0
7
0
1
7
0
1
0
5
0
6
0
2
0
3
0
24
33
63
0
0
0
0
0
0
0
1
32
16
0
0
0
0
21
5
12
0
26
0
35
4
0
16
7
18
0
0
0
0
28
63
0
7
13
0
13
2
7
2
0
20
0
9
4
0
0
3
9
9
9
2
0
11
0
5
0
1
0
0
12
0
0
7
3
0
16
0
3
0
10
0
6
17
3
0
0
0
0
11
2
0
15
9
0
8
0
6
0
0
20
0
7
0
20
0
5
4
21
0
0
0
0
8
7
6
8
8
0
0
0
8
0
9
0
0
0
6
1
1
0
7
0
0
0
11
0
13
18
0
6
0
0
0
0
46
0
0
0
6
0
21
1
1
2
0
0
0
21
0
0
0
1
1
12
0
9
18
0
2
9
26
0
5
3
4
2
96
130
2
0
12
0
9
0
1
14
0
3
6
7
0
0
9
0
3
2
0
3
8
7
13
0
9
0
0
0
0
4
0
14
0
16
0
0
12
0
12
0
5
0
4
0
5
1
0
0
0
1
0
0
1
0
8
0
0
6
0
2
4
0
0
45
8
77
63
0
101
0
62
0
0
0
17
8
0
0
0
0
1
5
0
20
11
0
15
0
0
5
0
0
0
0
0
0
9
31
50
46
21
7
0
22
31
13
60
0
0
0
0
0
0
0
0
23
53
58
20
0
0
0
0
11
0
28
102
0
10
0
0
13
5
0
9
0
0
0
53
6
21
0
0
0
62
0
18
9
0
0
29
0
6
0
41
0
0
0
52
16
0
0
0
0
90
76
67
0
0
0
0
20
0
126
67
0
0
32
1
4
0
0
0
18
0
12
0
0
64
0
5
31
0
0
40
0
0
0
4
6
0
0
0
0
0
0
28
0
0
0
4
1
11
12
0
0
0
5
0
10
6
0
0
38
0
0
8
7
0
42
0
0
21
0
26
0
0
25
0
0
0
19
0
10
0
0
6
0
2
0
0
0
10
5
19
22
0
6
0
14
10
3
9
0
0
0
2
4
0
0
7
0
5
4
0
17
6
5
1
20
2
8
6
0
7
0
4
0
3
2
0
4
0
8
0
0
0
5
0
6
0
0
13
0
0
0
20
0
0
0
0
0
10
0
4
0
1
1
0
0
0
0
0
0
0
5
7
0
0
0
6
0
5
0
6
2
0
3
0
4
0
13
32
62
4
0
0
2
0
0
0
21
20
0
0
2
0
25
0
0
0
14
0
23
0
0
47
0
31
0
0
0
0
31
48
0
22
0
0
0
0
1
5
0
2
7
0
3
2
0
14
0
0
0
3
10
0
10
0
24
0
15
6
0
0
12
5
4
0
0
18
2
7
0
0
6
0
14
0
10
0
7
5
0
2
17
0
61
0
0
0
11
7
0
17
6
5
16
0
5
0
0
0
0
0
0
3
4
16
8
0
11
8
0
0
4
0
4
2
4
0
3
0
6
0
10
0
5
0
14
7
0
13
18
0
0
0
0
0
35
0
27
23
12
0
15
0
21
6
3
0
4
0
0
11
16
0
9
0
0
0
3
9
0
0
0
0
7
0
9
98
124
0
0
19
2
0
8
4
5
0
4
0
0
18
0
4
0
4
8
0
0
0
0
3
14
0
0
0
0
6
0
7
17
1
0
6
0
0
6
4
21
0
13
2
0
0
0
26
0
0
9
0
9
13
0
4
12
0
18
0
0
0
0
27
46
49
63
0
0
55
0
4
3
35
0
10
0
0
17
0
23
0
0
0
1
0
0
14
0
0
0
19
4
0
0
0
0
0
0
2
0
0
0
0
0
1
3
24
0
0
0
0
0
0
53
40
35
57
26
0
0
14
0
0
0
0
52
51
0
0
1
0
0
45
5
0
0
0
0
17
11
21
0
8
1
0
18
0
12
39
0
0
17
0
0
1
39
0
15
54
33
0
0
0
0
24
70
59
70
0
0
0
19
0
73
150
0
0
0
0
12
23
0
9
0
0
0
0
0
40
9
0
0
0
2
0
0
0
13
27
0
21
0
1
42
3
0
10
3
24
0
22
0
0
0
21
0
0
6
7
0
53
0
0
7
0
0
31
0
10
39
0
1
0
5
0
0
0
47
0
19
0
24
12
0
3
0
1
0
14
19
0
2
0
25
0
0
2
0
0
6
0
6
0
7
4
0
0
4
0
10
1
12
0
0
13
0
0
0
0
0
0
0
1
0
0
0
0
0
11
7
0
5
4
0
0
11
6
5
0
0
5
0
4
2
0
2
0
4
7
3
0
6
0
2
0
15
0
1
8
10
6
3
10
0
0
6
0
0
8
5
0
4
0
2
4
1
8
0
2
3
0
4
13
36
52
10
0
0
0
10
0
7
18
3
0
13
0
12
0
0
0
15
0
13
0
0
22
0
30
0
0
0
0
44
39
0
21
5
0
0
1
25
0
4
0
13
0
0
0
7
0
2
13
2
6
0
0
0
4
0
7
0
14
0
6
0
0
10
0
0
0
0
0
4
0
16
0
0
6
0
17
0
0
30
0
7
7
0
15
2
0
0
0
8
0
0
2
0
12
0
1
4
0
0
0
18
12
15
9
0
2
4
0
4
7
5
1
5
0
0
4
4
7
0
14
0
0
7
15
4
4
23
0
6
0
0
0
0
2
0
9
0
12
0
17
0
0
0
4
20
4
0
0
0
0
0
0
11
0
40
0
0
0
1
0
13
23
0
0
0
95
119
0
14
0
0
13
0
0
6
13
2
0
9
6
5
0
17
0
0
0
8
0
0
0
0
13
0
0
0
7
0
10
0
0
0
4
13
5
0
0
0
10
0
0
4
8
0
0
6
0
0
0
0
4
1
0
0
12
1
8
0
0
0
47
14
65
25
0
0
9
0
52
0
0
20
25
7
3
0
0
0
4
0
16
0
0
0
0
0
15
39
38
0
0
0
0
0
2
1
0
0
0
0
27
0
14
0
0
3
30
50
48
70
54
68
30
52
1
0
0
14
0
0
0
9
37
76
20
0
0
4
11
0
0
59
0
13
0
0
0
45
14
19
0
0
13
0
0
9
0
26
0
0
33
5
0
58
11
0
62
69
4
0
0
0
0
54
38
101
26
0
0
46
0
0
163
23
0
19
10
0
7
3
0
21
0
17
0
0
29
25
0
12
0
1
22
0
0
5
0
25
0
9
7
0
0
0
16
0
14
0
9
9
0
2
6
0
21
0
0
0
44
0
49
0
6
0
4
0
0
0
19
0
13
0
12
14
0
19
34
0
22
10
0
8
0
0
1
0
0
13
12
21
0
0
0
1
0
18
6
5
5
0
0
0
8
1
0
0
8
0
2
0
0
3
0
5
0
2
1
0
18
0
4
0
10
0
0
13
0
0
3
5
0
14
0
0
0
0
3
0
3
0
2
0
5
3
0
0
0
11
3
0
12
0
0
2
0
0
3
0
1
3
0
8
0
0
10
0
0
0
7
5
0
0
2
0
0
0
0
6
0
6
3
11
39
51
9
0
0
0
27
9
43
0
26
26
10
19
12
8
15
10
0
24
0
18
18
0
44
0
19
0
0
32
61
0
10
21
0
1
5
7
0
18
0
2
3
0
15
0
27
0
2
0
0
26
0
13
0
15
9
2
0
0
0
12
2
0
1
0
9
18
1
10
4
0
0
7
0
12
6
3
0
0
0
0
0
17
0
0
0
10
0
2
16
13
0
15
0
0
0
8
4
0
0
0
9
7
5
0
5
2
2
4
0
0
1
0
0
6
2
0
9
2
0
0
5
0
0
3
15
0
21
0
0
0
0
0
0
22
1
1
2
22
0
0
5
0
0
0
20
0
0
11
7
22
0
2
0
0
23
0
0
0
0
11
0
0
12
13
117
128
0
12
0
0
17
0
0
0
3
0
2
3
2
11
0
0
19
0
15
0
2
16
0
5
2
3
0
0
23
0
0
0
0
0
10
0
0
2
0
11
0
0
1
0
6
0
1
1
7
0
8
0
2
8
5
0
6
0
0
10
0
0
27
6
73
0
0
4
48
0
10
0
16
0
1
17
4
0
10
0
39
1
0
16
39
0
9
21
0
0
29
0
0
4
0
0
1
30
0
13
0
20
0
8
0
0
0
0
8
0
0
0
0
0
0
0
0
0
8
0
0
0
5
24
22
88
5
0
0
0
49
0
0
47
0
0
7
0
0
0
30
39
23
0
0
0
0
3
0
13
26
0
0
0
9
28
39
0
10
89
23
0
0
0
0
0
42
71
96
0
0
88
0
0
110
88
0
0
0
0
0
0
0
4
0
0
1
0
46
0
23
0
0
0
3
5
0
7
0
0
7
2
0
0
3
0
0
0
11
0
17
0
20
0
0
2
7
0
7
0
41
0
3
19
0
34
0
11
1
10
38
0
0
6
0
0
0
9
0
1
0
22
10
0
14
0
5
0
11
0
4
5
0
0
0
0
0
14
0
9
0
0
29
1
0
0
3
6
0
0
2
16
0
1
8
10
0
18
6
0
0
9
7
2
3
0
10
0
9
0
7
0
0
7
3
16
0
11
0
15
0
12
10
7
0
10
0
0
12
0
2
0
8
0
3
4
0
16
0
13
0
0
0
0
4
0
2
0
3
0
1
0
0
7
5
0
0
8
3
0
0
0
1
0
14
38
56
0
0
0
0
0
32
0
0
18
0
5
0
0
18
15
14
20
0
6
0
0
31
0
5
0
0
58
31
0
2
9
0
0
0
7
2
0
3
18
0
0
0
0
0
0
12
5
0
11
9
0
0
0
1
0
0
5
0
16
1
0
23
1
0
0
22
0
2
8
2
0
0
0
0
18
0
0
18
39
0
0
0
7
0
0
4
1
0
0
0
4
4
2
0
9
0
0
0
13
10
7
9
2
0
4
0
1
0
0
2
0
9
1
0
4
0
3
0
4
2
11
0
15
6
26
0
0
0
0
0
0
3
0
7
9
11
0
13
27
0
13
1
12
0
13
0
5
0
0
4
5
4
9
0
0
6
0
0
17
13
0
1
19
78
139
17
0
0
0
0
0
6
13
0
4
3
1
2
7
0
0
0
17
0
3
0
0
0
0
5
0
0
4
0
4
4
5
18
0
0
0
3
0
0
0
0
4
8
6
0
0
7
0
1
10
0
19
0
0
16
0
0
21
0
8
0
0
54
26
66
0
0
84
0
107
0
0
0
0
51
0
0
4
0
10
7
1
16
0
0
0
34
0
0
17
0
4
0
0
0
0
41
54
21
0
3
0
0
19
0
14
18
31
0
0
0
16
0
5
0
0
39
0
0
7
0
0
0
0
72
51
7
0
0
0
10
0
0
9
18
9
0
24
0
0
0
39
10
0
5
0
0
0
0
13
12
24
0
0
0
0
42
40
0
78
18
47
0
0
0
0
82
0
127
46
0
102
6
0
22
155
0
0
22
6
39
0
13
8
13
0
12
0
36
0
2
0
24
0
4
0
13
12
6
10
2
0
12
16
7
6
13
0
12
0
28
0
0
0
0
7
0
15
0
0
51
0
6
0
0
1
0
9
10
7
5
22
0
0
0
0
0
0
37
0
0
12
17
0
2
0
0
0
21
0
6
6
0
0
0
18
23
0
0
2
0
3
0
4
2
3
0
0
0
0
11
0
1
10
0
2
0
0
0
0
8
2
0
1
0
0
0
5
0
0
6
6
10
2
0
0
9
9
0
0
14
0
0
2
2
0
1
2
13
0
0
2
0
5
14
0
2
0
0
0
1
1
2
2
0
10
0
19
0
0
0
6
0
6
0
5
1
1
5
2
0
0
0
7
2
14
38
72
0
0
0
0
25
11
0
0
0
22
6
0
0
0
24
0
0
29
0
19
34
0
0
0
0
63
31
0
0
23
0
0
20
10
0
0
0
0
23
0
1
8
0
7
0
8
0
2
10
0
5
0
0
2
0
0
9
0
0
0
0
12
0
15
0
0
16
0
0
9
0
11
0
0
5
1
0
0
6
0
7
12
0
12
0
11
0
5
9
4
5
0
27
0
9
0
4
0
8
5
0
2
11
0
0
4
0
1
1
0
1
0
12
2
7
0
6
7
0
0
3
0
12
0
3
0
0
15
0
0
0
17
3
0
4
0
8
0
5
16
0
4
6
0
0
5
7
0
30
0
0
0
18
0
0
10
0
0
0
0
7
0
94
131
14
0
25
0
0
8
7
2
4
4
0
5
0
3
3
0
8
0
18
0
14
0
38
10
0
3
0
20
12
0
0
0
3
3
18
4
5
8
0
6
7
10
0
0
1
0
2
0
0
0
6
0
8
0
0
0
13
0
0
5
0
0
46
55
59
0
0
8
0
187
12
0
1
0
0
0
0
12
0
9
0
11
11
23
14
2
0
26
0
31
15
25
0
0
0
1
56
0
0
1
7
0
0
0
0
0
0
8
17
0
34
0
0
0
8
15
0
20
25
6
2
0
0
6
55
0
20
46
0
0
0
0
19
30
0
6
42
0
22
1
0
0
65
0
7
44
0
0
11
0
0
22
5
0
32
0
13
50
0
0
14
42
5
8
8
0
68
0
78
103
0
0
0
0
0
152
30
0
0
0
0
0
0
0
11
10
0
0
74
0
12
0
5
0
39
0
28
0
21
8
4
1
20
0
2
0
0
0
0
0
30
0
2
31
8
16
31
0
9
0
73
0
12
0
0
8
1
4
0
0
10
18
0
0
18
24
0
2
24
0
0
27
14
0
35
3
0
0
0
16
3
0
6
0
10
8
6
12
0
6
0
10
21
0
0
0
3
9
5
3
0
3
6
0
0
0
6
4
0
13
0
3
0
0
15
0
4
0
6
0
0
0
0
0
3
4
0
7
0
5
3
0
0
15
0
1
5
0
10
0
4
0
0
0
1
6
6
2
0
4
6
0
0
6
0
0
6
0
5
5
0
3
0
0
2
0
0
3
0
1
0
0
12
0
5
3
9
43
72
0
0
0
20
35
0
20
0
31
0
0
35
0
7
0
0
0
17
26
0
0
0
0
0
80
11
0
0
15
0
3
0
2
0
3
24
2
0
0
0
0
15
3
6
0
0
8
0
0
14
0
0
4
14
5
0
0
7
20
0
0
0
0
0
16
0
23
3
0
0
5
0
7
0
6
0
3
9
0
0
0
5
0
0
0
0
6
0
14
0
24
0
7
0
0
0
12
8
12
2
5
0
0
1
2
0
5
0
0
0
6
0
0
4
0
1
0
0
9
5
7
0
16
0
0
0
0
0
1
0
9
15
6
2
8
0
9
4
4
0
4
0
0
19
6
7
0
0
66
0
4
0
0
18
5
0
0
0
6
0
0
91
99
0
2
0
2
6
0
1
0
0
0
11
0
13
4
0
0
5
11
0
14
0
21
0
0
0
0
4
0
0
12
9
0
0
0
4
0
0
0
10
8
1
0
0
9
0
16
0
5
1
0
0
17
0
0
0
2
0
0
10
0
0
0
0
59
70
0
0
0
45
221
0
0
18
0
27
0
11
0
0
8
0
2
0
0
10
0
22
31
0
13
0
0
15
0
2
4
0
0
13
0
0
8
0
18
8
47
0
11
14
0
0
15
0
9
0
0
0
5
22
0
0
0
19
0
0
0
9
56
29
0
0
0
0
9
1
0
4
0
30
0
1
0
39
34
0
0
0
0
0
6
15
6
11
0
17
7
0
12
0
0
53
0
55
30
61
0
1
13
0
44
29
0
0
0
0
113
107
0
0
4
15
13
11
0
21
0
3
0
51
0
0
24
0
0
43
0
0
18
0
2
0
0
0
0
0
0
5
0
3
8
0
0
5
0
10
0
6
0
0
0
7
0
0
8
0
0
23
8
0
10
5
5
1
12
0
0
0
6
12
0
29
13
0
0
11
0
2
9
0
0
0
22
7
15
0
6
0
0
8
0
0
0
3
0
8
2
0
0
2
0
2
9
11
0
8
2
0
15
0
0
3
0
5
12
0
0
5
0
1
16
0
4
12
0
4
1
0
0
0
3
4
2
12
2
3
0
0
0
1
1
0
0
5
0
0
0
0
0
0
2
1
0
10
0
8
2
0
6
0
6
0
0
13
0
4
0
2
2
4
8
0
0
3
0
0
8
0
19
57
51
0
0
0
23
0
0
2
5
0
9
0
26
21
0
10
9
0
24
0
0
0
0
0
75
5
0
0
0
0
2
0
20
0
0
0
6
0
13
12
9
0
0
5
0
1
0
9
3
0
14
0
1
3
0
0
8
0
0
5
8
0
3
0
0
0
0
9
3
6
0
3
0
19
0
0
0
0
1
6
8
0
0
8
0
3
7
4
2
15
0
0
0
0
0
7
7
9
4
0
9
0
3
0
4
0
0
3
5
0
2
0
6
0
5
7
3
8
0
10
0
0
10
0
11
0
6
20
8
0
19
0
12
0
0
0
9
0
0
4
0
1
0
1
2
18
18
2
0
0
1
0
3
0
1
0
0
8
10
0
12
103
93
0
0
0
21
4
3
0
29
0
0
13
1
9
0
0
5
17
5
6
0
4
0
0
0
0
0
0
0
24
0
5
6
19
0
6
0
2
5
0
0
9
0
16
0
7
2
0
5
11
0
6
0
14
3
19
1
0
12
0
11
0
0
0
29
105
0
15
0
0
149
0
0
0
4
0
0
22
0
2
10
0
17
0
0
0
5
0
5
30
0
0
20
30
3
0
0
0
14
6
0
6
0
5
0
45
21
2
0
0
0
0
0
0
4
0
0
0
0
68
20
0
0
0
0
3
0
1
33
11
50
0
0
0
24
0
0
0
0
30
8
0
0
0
66
11
0
0
0
0
26
3
4
4
0
0
20
0
1
0
0
43
0
44
0
0
20
52
0
0
0
104
22
0
0
0
28
144
0
0
3
0
8
0
5
0
0
0
0
69
0
5
0
24
3
5
0
11
0
0
9
4
13
0
2
31
0
23
0
0
65
0
0
1
16
0
0
0
0
9
0
0
4
0
0
0
0
0
1
25
17
0
15
0
0
0
15
0
0
39
0
0
15
16
0
16
0
3
4
0
0
12
0
4
0
10
0
21
0
0
9
11
6
0
6
0
0
34
0
1
0
0
29
0
0
4
25
2
0
13
0
0
12
0
16
0
0
0
16
0
0
7
1
0
0
0
6
2
6
0
6
0
0
4
7
0
7
0
3
3
2
0
21
5
0
5
11
0
0
0
0
0
9
0
16
0
0
1
3
0
2
0
4
1
0
1
9
0
0
7
0
0
3
0
0
0
2
0
9
17
64
24
0
0
19
5
0
0
0
12
0
1
27
0
1
0
19
0
37
0
0
0
0
19
63
0
0
0
8
0
3
13
3
0
16
8
0
4
0
0
4
0
1
0
16
0
7
0
0
13
0
0
0
9
0
9
0
13
0
6
0
10
0
7
0
0
7
0
0
13
5
1
12
0
0
7
5
24
0
0
6
0
13
0
0
2
0
16
0
1
0
10
2
0
0
13
11
8
0
0
0
12
0
0
0
6
6
0
4
9
0
4
8
0
0
0
4
0
13
14
6
7
0
0
0
0
0
9
0
21
0
5
0
18
0
0
0
9
0
0
0
5
0
13
0
12
0
1
0
0
9
0
0
24
0
12
21
0
8
18
0
100
64
0
0
0
0
3
0
0
0
2
18
0
3
5
0
3
2
13
23
0
15
1
13
0
13
0
0
0
6
0
13
0
0
0
0
10
5
2
0
2
12
1
0
0
9
0
0
12
0
0
12
0
17
0
0
0
2
10
0
0
0
6
0
32
0
0
0
12
0
0
35
0
0
0
0
38
11
0
17
0
0
1
0
9
1
8
0
0
0
9
0
0
0
9
22
0
0
0
13
0
12
0
14
0
0
19
10
26
0
0
11
0
10
0
0
0
9
0
0
93
20
0
1
0
0
0
0
0
37
19
35
43
0
0
11
0
29
11
3
11
0
0
11
0
10
32
22
9
0
0
0
27
36
1
0
0
18
0
19
41
0
11
7
30
9
0
0
69
0
0
0
161
98
0
0
0
0
155
73
0
0
8
0
0
12
2
0
0
0
64
3
0
11
0
0
39
0
0
0
5
32
0
0
0
0
0
0
0
22
9
0
14
1
1
0
0
0
18
0
0
0
0
19
0
45
0
0
0
0
4
25
0
27
20
10
0
19
0
0
24
18
0
13
25
0
31
6
0
0
0
6
11
8
15
0
0
0
0
14
1
0
11
3
0
16
3
6
0
12
0
10
0
0
15
0
7
0
0
0
10
0
12
0
4
0
1
2
7
0
0
0
0
6
15
0
3
0
0
0
0
0
15
2
0
0
10
5
0
0
1
6
0
10
0
0
0
5
0
7
0
7
3
0
2
1
0
8
0
8
0
8
0
1
0
7
4
1
0
7
2
1
0
2
13
4
4
0
3
0
10
30
74
3
0
0
0
8
0
0
7
3
0
11
11
0
1
0
1
2
0
0
0
0
20
63
9
0
9
10
0
4
0
4
7
0
5
10
0
11
4
6
0
20
1
1
0
5
9
2
0
0
0
12
0
13
0
0
9
0
0
8
0
11
0
13
0
0
8
16
0
0
1
10
0
0
6
0
0
8
2
6
0
0
8
0
6
8
0
0
9
0
8
0
0
0
11
17
6
7
4
0
0
3
0
1
0
3
7
0
0
0
0
0
4
0
11
0
14
0
9
0
3
0
0
0
0
22
0
0
9
9
6
0
0
0
5
0
0
0
0
9
0
5
14
0
0
6
0
10
10
0
0
4
0
0
0
0
5
0
1
3
106
58
0
0
0
17
0
16
1
7
0
0
0
11
6
0
1
10
0
0
2
0
14
9
9
0
0
3
0
0
0
0
2
21
4
4
12
6
0
0
0
0
1
20
0
3
0
10
0
5
4
0
7
0
10
5
11
0
0
4
3
0
0
0
62
21
0
15
57
0
61
0
0
6
0
10
0
0
34
0
0
0
0
22
0
10
0
0
0
91
0
0
0
3
0
0
16
5
0
0
0
0
6
0
0
43
31
0
57
0
0
28
7
21
0
0
31
0
0
0
49
27
0
0
0
5
0
4
0
12
33
0
52
1
0
0
29
0
26
0
2
0
0
0
35
0
45
37
0
0
0
20
0
58
7
0
32
0
8
40
0
0
7
18
8
8
0
68
44
5
0
0
128
117
23
0
0
0
166
85
0
0
0
0
12
25
0
0
0
0
66
0
0
5
0
0
13
0
0
0
0
7
0
0
4
9
0
0
0
0
0
43
1
0
0
0
18
0
0
0
0
0
26
15
0
0
0
38
3
24
0
28
0
6
16
0
0
9
0
0
6
0
0
0
38
0
42
0
0
24
0
7
15
0
4
11
0
0
0
2
0
11
0
5
0
0
3
0
2
9
1
0
6
0
0
6
3
0
18
0
0
8
2
0
0
8
8
0
1
0
12
1
4
5
0
0
17
0
4
3
6
7
0
4
0
6
0
14
0
3
1
0
0
0
4
3
18
0
0
7
0
0
1
11
1
0
1
0
0
3
0
0
9
3
3
0
0
0
6
0
3
0
0
0
0
0
0
3
2
0
0
12
35
55
0
0
4
0
0
0
21
0
6
0
32
0
0
12
21
16
0
0
0
0
36
57
0
0
0
7
0
31
10
0
12
0
0
0
12
1
0
12
0
0
0
4
0
11
0
0
2
0
9
2
5
0
0
10
9
0
0
0
10
0
0
0
16
2
0
2
0
3
23
0
10
0
16
0
28
0
0
0
7
0
0
6
0
0
11
15
0
14
0
0
0
0
24
5
7
0
9
1
1
5
0
0
1
7
0
10
0
5
0
2
0
0
9
10
13
0
0
17
0
6
0
9
0
0
20
7
11
12
4
0
5
0
3
17
1
1
9
0
0
0
0
17
0
0
4
6
0
11
12
0
16
0
15
0
0
0
8
0
108
53
0
0
6
10
0
0
0
11
0
0
6
0
14
0
5
0
6
0
4
0
5
5
4
24
0
0
0
3
0
5
0
0
10
2
0
10
0
7
0
9
0
1
4
0
11
0
0
3
0
0
0
6
4
0
8
7
0
0
0
45
0
0
52
86
0
17
85
0
33
0
0
0
6
0
6
0
23
0
9
9
0
17
0
0
0
0
71
8
0
0
0
12
22
0
9
0
3
0
0
15
0
0
9
1
11
22
25
0
0
35
20
9
0
0
0
12
0
0
0
89
0
0
0
29
0
0
34
16
0
10
2
81
0
0
0
0
21
0
0
0
2
0
41
0
3
39
1
0
0
34
0
0
0
7
0
18
0
44
18
0
0
24
36
7
0
66
5
0
0
0
0
158
88
0
0
0
125
118
0
0
11
0
0
10
0
12
6
0
54
0
0
15
0
0
31
0
10
14
1
16
11
0
10
11
0
29
0
14
3
2
0
0
17
21
0
19
0
2
0
0
25
9
0
3
0
0
12
0
15
0
11
0
17
4
0
1
0
0
40
11
0
0
29
0
11
0
13
25
0
8
21
7
0
2
0
2
4
3
0
7
0
0
0
6
0
0
10
0
6
0
0
8
0
0
0
1
0
4
4
0
0
5
2
0
0
3
0
13
0
5
0
9
0
5
16
0
6
0
0
0
2
0
0
0
0
0
10
0
0
7
3
13
5
1
0
6
4
15
0
2
0
0
0
0
0
4
4
4
0
0
1
4
0
0
0
6
1
1
5
0
7
5
1
0
1
0
0
5
7
1
16
65
27
0
0
4
6
1
0
0
14
26
1
0
0
0
18
22
0
0
0
0
39
41
0
0
0
0
1
0
2
5
3
0
16
2
4
8
4
0
12
5
3
1
0
0
15
12
0
11
0
0
7
16
0
0
2
4
0
21
0
8
6
0
8
0
10
0
17
0
0
0
2
7
0
3
0
2
15
3
1
0
2
0
21
13
0
10
8
8
0
16
0
0
10
7
2
10
1
3
13
0
6
0
0
0
0
0
0
0
11
0
0
9
2
9
0
0
20
0
0
0
0
0
0
0
16
4
0
0
0
0
0
22
0
0
0
5
0
8
0
3
1
0
11
23
0
0
0
0
0
10
0
0
7
4
17
0
0
0
94
32
0
0
12
0
1
17
7
0
6
0
2
11
0
0
0
11
2
3
11
0
11
0
4
13
0
0
1
0
0
13
0
19
7
0
10
0
9
5
0
2
13
1
0
0
0
0
6
0
0
1
15
0
0
24
0
14
0
6
0
0
10
0
43
128
0
0
46
0
0
30
1
15
0
16
5
0
0
12
0
0
0
37
0
18
0
0
81
0
0
0
0
37
0
0
0
27
0
0
0
9
0
0
20
1
27
22
0
0
0
45
34
25
0
0
17
0
0
0
6
78
31
0
1
0
3
0
22
39
0
0
0
12
61
0
0
4
0
33
0
48
0
0
21
0
0
63
20
0
0
47
24
0
0
14
0
0
1
32
34
0
46
9
34
0
0
30
15
0
0
0
0
58
155
17
0
0
111
108
0
0
0
0
4
5
4
0
0
0
75
0
0
22
0
14
10
0
0
3
0
4
0
34
0
1
25
0
13
0
0
19
0
0
21
0
2
0
6
0
0
0
2
39
0
0
19
0
30
4
19
0
0
0
9
0
0
0
0
0
13
0
0
6
22
0
24
0
11
0
4
0
0
0
0
2
0
0
0
1
6
0
0
3
5
10
4
12
6
0
0
0
0
5
0
0
2
0
6
0
15
0
1
0
19
0
0
6
10
0
0
0
0
0
2
1
0
0
7
0
13
0
7
5
1
0
0
11
0
0
21
0
12
0
6
0
0
1
0
16
0
0
0
4
2
0
6
0
0
2
1
0
3
0
0
7
0
0
0
0
5
5
0
0
4
0
0
15
0
0
0
5
2
23
62
0
0
0
0
0
3
15
0
9
0
0
0
0
1
37
0
0
0
0
51
24
0
0
0
0
5
19
0
10
2
0
0
0
3
0
30
0
0
0
2
5
3
4
5
0
11
0
17
0
0
0
4
15
3
0
0
0
0
0
0
9
2
6
0
0
12
0
2
6
0
25
0
0
0
0
4
0
0
3
5
0
1
0
5
0
0
0
28
0
0
0
10
0
13
0
4
2
1
3
3
1
3
2
9
0
0
4
5
4
0
0
0
16
3
0
0
0
0
9
4
20
0
4
0
25
0
17
0
4
13
0
13
3
9
0
0
1
4
11
7
21
0
0
0
0
0
0
0
5
0
11
0
17
5
4
2
9
108
33
0
0
0
15
0
16
0
3
10
7
12
1
0
1
2
9
0
3
0
15
0
5
15
0
0
0
0
0
7
10
0
0
2
3
3
15
0
0
13
0
0
0
9
17
2
1
0
4
0
7
0
9
0
0
9
0
0
11
8
1
0
0
0
130
21
0
0
0
0
50
0
0
28
0
0
19
1
0
9
2
2
18
6
0
0
14
89
0
0
14
11
0
0
73
8
0
13
3
3
0
0
0
3
0
46
13
0
0
0
0
59
0
15
0
0
12
0
0
0
25
59
2
0
0
0
0
0
81
0
0
0
7
72
37
0
0
0
38
17
1
0
25
0
0
0
27
0
20
0
8
50
0
0
10
15
0
16
30
0
0
50
13
27
0
27
0
0
0
3
0
0
0
126
79
0
0
59
96
29
0
1
0
0
0
0
6
0
5
37
0
50
25
0
6
34
0
0
5
17
0
0
0
0
0
0
0
0
28
22
0
0
4
0
8
0
28
30
0
10
0
28
0
0
0
6
17
0
16
0
33
0
15
42
6
0
0
5
0
69
0
0
23
0
0
24
0
19
0
0
1
4
8
0
3
1
24
0
10
0
14
4
0
0
0
11
0
1
0
6
7
0
3
8
3
2
9
0
0
0
0
7
0
0
0
29
0
0
9
2
4
0
9
0
0
3
0
0
4
0
0
0
0
1
0
10
0
0
20
0
11
0
3
4
0
4
4
0
0
10
3
4
2
6
0
4
6
0
3
9
7
0
0
6
1
2
0
0
7
0
0
3
2
4
0
3
0
3
0
1
0
1
11
31
76
0
0
0
0
15
0
0
0
17
0
0
0
46
0
0
0
0
0
60
27
0
17
0
3
8
2
0
18
0
23
3
0
9
12
0
5
0
4
0
6
0
0
10
0
0
5
0
16
14
0
5
0
0
16
0
0
4
5
7
0
0
0
0
31
0
4
0
15
0
0
0
26
0
0
41
0
8
0
0
0
12
0
1
0
2
0
0
0
0
18
0
16
0
3
2
3
0
0
0
0
0
4
5
0
0
0
0
0
8
6
2
8
9
11
0
0
0
0
13
0
3
0
0
3
8
0
0
0
2
1
0
0
0
0
0
4
0
0
5
0
18
0
0
0
0
27
0
8
0
0
8
0
0
0
18
0
104
42
0
0
0
2
7
14
5
0
0
6
14
4
0
0
12
0
10
0
3
0
0
16
0
21
0
0
0
0
0
0
4
7
6
9
0
0
1
2
1
4
5
0
2
0
9
1
6
0
0
0
0
4
14
10
3
0
16
0
4
0
6
0
0
115
0
0
16
0
54
126
0
0
6
0
10
0
27
0
0
0
28
0
0
0
0
90
7
0
0
0
16
8
0
0
43
0
25
0
1
15
6
0
21
34
19
19
23
0
0
0
29
0
4
0
0
4
0
0
0
2
41
47
0
0
0
7
0
78
7
0
0
0
8
9
45
4
0
0
74
0
12
0
0
0
0
0
0
31
0
0
58
0
0
2
21
24
8
0
0
0
39
0
21
15
15
26
0
0
0
0
0
0
0
58
2
0
74
97
54
0
0
0
11
0
0
0
6
0
50
0
0
0
0
25
14
0
16
0
0
23
4
0
0
22
0
0
7
6
23
24
15
0
0
17
1
20
15
0
0
20
2
0
13
0
7
0
17
0
0
0
6
3
0
24
0
7
0
0
0
19
0
22
0
15
24
0
0
1
4
0
3
8
0
0
0
0
1
0
0
0
0
4
0
0
1
0
21
0
0
0
14
0
0
2
3
0
0
0
9
0
7
4
0
14
0
14
0
13
0
12
0
4
4
9
0
3
1
0
1
0
0
0
4
2
6
14
1
0
0
0
0
5
0
9
8
0
13
0
0
0
0
0
0
0
0
0
0
4
0
0
14
0
0
0
1
3
0
5
4
6
0
0
2
2
3
0
3
0
11
9
0
2
24
49
43
0
0
0
0
0
0
210
0
0
0
2
27
6
0
0
0
9
71
6
0
0
0
21
0
3
20
0
23
0
6
0
0
0
1
2
7
8
0
13
0
21
0
0
16
5
0
0
1
1
0
0
16
0
4
15
0
4
0
10
2
0
9
0
1
0
3
1
0
17
1
0
18
0
3
0
11
0
13
6
0
0
0
0
0
0
0
0
0
5
0
7
0
4
0
3
8
0
0
3
0
5
0
0
4
0
0
5
0
7
5
11
15
0
0
0
0
0
0
25
0
18
5
13
0
0
0
11
6
0
5
0
0
0
0
7
16
0
17
0
0
22
0
0
17
0
3
0
12
5
7
1
4
8
0
12
90
32
0
0
0
0
0
0
0
0
15
4
6
18
0
2
5
0
13
0
9
0
1
0
38
0
17
0
0
4
0
20
18
5
0
0
15
3
0
3
0
5
8
4
0
10
0
0
2
0
21
11
1
0
0
9
0
3
0
23
0
0
0
0
0
7
0
49
58
0
180
81
0
0
6
0
3
28
0
26
0
0
14
0
0
0
77
9
0
0
0
0
0
10
19
0
4
4
0
0
15
0
0
0
0
6
41
24
0
0
0
0
28
0
54
0
0
14
0
0
0
0
0
54
52
2
0
0
0
66
0
0
0
0
0
31
25
1
5
0
28
0
0
6
17
4
0
0
0
10
3
29
39
0
0
4
43
0
23
0
0
8
7
0
64
15
16
20
43
0
0
0
0
0
0
75
20
0
74
78
94
0
0
54
0
17
0
12
0
11
29
2
4
10
0
17
4
0
0
6
12
0
0
3
0
4
0
5
0
0
0
61
0
0
40
0
13
0
30
0
0
0
20
0
0
0
6
0
18
9
9
8
20
0
16
8
0
0
6
0
18
0
46
12
0
9
15
0
0
8
0
4
4
11
3
0
6
8
0
4
17
0
22
2
0
10
0
10
0
0
1
0
2
5
0
3
0
5
0
28
0
1
0
2
6
0
1
7
3
0
1
0
14
0
7
0
6
2
0
8
0
9
5
7
0
0
0
1
0
12
0
4
9
0
18
0
0
5
7
1
0
6
5
4
21
0
2
0
0
4
4
0
1
4
1
1
0
0
3
0
0
0
0
2
10
0
0
3
0
2
0
9
1
0
8
27
66
0
0
2
0
0
0
0
25
0
0
7
32
0
2
0
0
0
49
0
13
0
0
9
0
12
0
21
0
0
0
0
11
0
2
0
0
8
1
0
0
0
22
0
0
0
8
0
0
0
4
0
0
3
4
0
0
19
0
7
0
5
1
9
6
8
0
7
0
0
5
0
8
19
0
5
6
0
0
15
0
4
6
0
2
7
0
0
0
5
0
0
4
6
5
4
0
0
0
4
0
2
6
0
4
0
7
2
7
6
24
0
14
0
0
0
0
1
2
0
0
1
31
0
0
12
0
0
16
8
0
15
7
0
0
13
3
0
0
10
0
0
7
0
14
0
0
10
10
0
1
0
0
18
0
15
102
39
0
21
0
2
0
0
29
0
9
6
0
2
1
13
0
7
15
0
0
6
23
6
7
1
0
0
6
0
8
0
0
9
0
12
0
1
0
6
0
10
0
0
0
0
0
4
0
24
0
0
7
0
5
0
0
0
8
0
3
4
18
7
15
0
0
135
76
0
0
0
0
0
0
13
6
19
0
6
0
0
0
15
0
9
50
0
0
7
0
2
2
0
0
43
0
0
18
0
20
3
0
0
36
0
34
16
28
5
0
0
61
0
3
24
0
13
2
0
0
0
0
0
62
46
0
0
0
33
31
0
0
0
7
13
46
18
0
0
1
33
0
9
7
52
24
16
0
0
7
28
6
0
0
12
50
0
19
0
0
64
0
4
58
16
14
0
66
53
0
5
0
13
0
53
95
0
66
70
88
0
0
9
15
0
0
0
0
0
31
12
0
1
0
24
47
0
19
11
0
20
0
1
12
9
9
0
0
0
4
44
0
0
0
13
0
21
0
0
6
7
8
0
0
5
2
14
19
3
0
0
3
11
0
5
0
0
0
0
31
0
0
15
0
12
0
0
21
4
0
10
4
0
0
0
13
0
0
0
3
0
0
0
14
0
0
8
0
7
8
0
5
0
11
6
0
0
15
1
0
3
2
0
4
0
1
0
0
0
10
0
0
0
0
9
0
15
0
0
0
9
0
9
0
1
0
3
0
0
2
0
0
0
0
7
1
12
0
0
0
0
4
0
0
0
0
5
0
6
0
0
9
0
0
8
11
2
1
5
0
0
0
4
3
0
14
0
0
7
0
0
1
0
3
11
60
44
0
40
0
17
0
11
0
15
0
16
0
0
0
0
0
41
53
0
17
0
0
8
0
15
15
0
8
0
8
7
1
5
0
4
2
0
0
2
0
6
0
0
7
0
7
0
10
0
1
0
3
0
5
0
19
0
4
0
16
0
0
8
0
5
10
5
0
14
5
7
0
0
2
1
0
9
0
0
0
0
15
0
0
5
9
8
9
9
1
0
0
0
5
0
8
2
3
7
0
0
7
0
0
10
5
1
5
15
0
7
0
2
0
0
0
3
2
3
11
0
0
0
7
0
0
4
0
10
3
0
3
10
8
0
4
4
0
0
23
0
3
0
0
0
0
9
0
2
0
0
16
0
0
14
86
24
0
0
0
12
0
0
0
0
0
6
0
12
1
0
2
3
0
0
4
4
0
0
24
21
0
0
0
1
0
9
0
25
3
2
0
7
0
0
0
7
0
13
2
0
12
0
0
0
0
0
0
0
5
17
7
0
1
16
0
3
0
2
14
0
0
181
33
0
0
2
0
3
0
0
18
0
1
0
14
0
57
0
0
47
0
0
0
0
2
0
1
16
0
0
21
3
0
17
0
5
6
0
0
18
38
20
0
0
10
0
2
29
15
21
0
5
9
0
0
22
0
0
0
54
37
41
0
0
80
0
0
0
0
10
0
22
6
10
0
4
22
16
0
21
0
53
0
0
13
0
3
0
0
0
37
36
0
0
41
31
0
7
43
24
0
0
0
51
9
0
0
0
0
18
119
0
11
65
89
0
0
0
0
0
4
0
0
0
34
21
0
10
0
14
3
0
1
0
13
2
4
0
0
13
0
1
7
0
28
1
0
13
0
21
0
7
0
0
0
0
5
0
0
26
19
0
8
0
0
10
41
2
6
42
0
22
0
0
0
0
23
0
0
20
0
19
10
0
9
0
18
8
1
0
7
0
11
0
22
0
14
0
12
0
5
0
0
24
5
0
0
27
0
0
16
10
0
0
0
20
3
10
0
7
35
5
3
0
5
3
0
8
6
0
7
0
0
25
0
11
1
0
0
9
0
13
0
14
2
2
2
0
13
4
0
8
0
4
0
11
0
9
1
2
0
8
2
0
17
0
0
3
2
0
0
1
4
0
0
10
1
0
4
0
4
0
6
1
0
0
9
0
2
4
29
74
0
0
7
0
11
0
3
0
8
5
0
0
0
0
0
55
20
0
29
0
0
21
0
8
0
5
5
0
3
0
7
0
15
0
2
6
0
10
0
11
9
6
5
0
0
15
0
0
16
0
9
0
0
0
0
16
0
6
18
0
13
0
19
0
1
1
0
0
0
13
13
0
16
4
0
17
0
0
0
2
0
0
16
0
2
3
2
6
5
7
0
0
5
0
0
0
0
0
3
0
1
0
4
0
0
8
3
5
12
0
0
0
0
0
0
9
2
2
7
0
0
1
2
0
17
6
0
0
0
3
0
2
4
13
7
4
1
1
0
9
0
17
0
0
9
0
5
0
11
4
0
8
24
0
118
33
1
0
0
0
0
0
43
4
79
0
3
10
0
6
0
0
4
0
5
3
6
9
16
18
15
0
0
0
0
0
17
0
14
5
0
2
6
1
13
0
5
5
0
5
0
0
7
0
0
17
3
2
6
0
6
0
0
0
0
0
5
11
0
0
0
99
22
0
19
0
0
0
22
8
0
0
15
0
0
45
0
0
13
13
0
28
0
0
0
27
0
0
38
0
2
0
0
4
0
8
0
0
0
9
30
54
0
0
0
27
8
37
0
0
0
0
10
0
7
0
0
0
0
0
47
55
0
0
41
12
12
0
0
39
0
1
20
24
0
0
83
0
0
0
29
26
0
0
0
4
7
15
0
0
28
14
0
13
54
0
0
50
0
0
24
0
0
0
53
0
0
25
0
0
130
0
0
72
93
0
0
23
17
17
0
6
0
17
43
0
0
1
2
4
35
0
0
10
13
2
0
11
8
0
19
0
17
0
18
1
5
0
17
0
0
0
0
0
0
12
0
0
0
0
9
0
21
0
38
0
13
0
21
17
0
0
0
0
13
0
31
0
0
25
18
0
0
16
0
2
8
0
0
12
0
4
3
11
0
0
0
1
0
16
0
0
0
0
0
25
0
0
4
0
0
0
0
14
0
9
0
0
12
3
0
0
23
0
0
6
0
5
1
6
0
14
4
0
2
0
2
0
13
8
4
0
11
0
0
0
0
4
0
0
11
1
1
0
0
2
2
0
0
8
0
0
0
10
0
0
2
13
0
0
1
0
0
1
8
0
0
0
2
0
0
3
5
3
3
10
0
6
0
9
10
53
59
0
0
28
0
8
19
0
0
7
0
24
8
0
0
59
0
2
53
0
13
0
0
14
0
7
2
0
6
0
0
0
0
8
1
0
12
0
0
0
0
10
0
0
12
0
17
0
0
17
0
0
10
4
0
5
0
1
0
15
0
6
0
3
0
0
0
10
14
0
0
40
0
1
0
0
8
4
1
0
6
0
8
6
0
0
0
14
0
0
4
0
0
7
3
0
0
1
0
0
0
3
4
0
0
0
24
0
0
14
0
0
0
8
6
0
0
4
0
24
2
0
0
7
0
6
2
0
8
3
0
8
0
0
0
0
0
11
7
0
0
0
0
13
0
6
5
3
0
21
7
0
0
20
89
46
7
13
0
15
3
0
0
13
0
21
6
0
10
6
0
11
6
11
0
8
0
12
4
4
0
0
15
2
0
0
5
13
0
15
0
0
14
6
0
22
0
0
3
1
0
16
0
3
0
0
3
2
0
6
1
8
0
0
10
5
16
0
0
0
0
21
0
0
86
0
0
0
0
4
9
13
0
3
0
3
0
1
37
0
0
18
0
4
0
14
13
14
0
18
0
0
6
5
9
0
0
0
0
22
55
38
0
1
18
0
0
69
9
0
0
0
0
11
0
102
0
0
0
0
0
18
65
23
39
32
0
0
0
31
0
0
18
61
0
0
47
14
0
16
0
19
39
0
16
0
12
0
0
0
0
31
4
44
0
7
0
20
21
21
49
0
0
0
0
58
35
0
0
0
118
0
0
65
81
0
0
0
0
0
0
0
0
22
25
0
0
0
14
14
11
0
14
3
0
25
17
0
13
0
41
11
0
0
2
18
0
11
0
2
8
1
57
31
0
1
7
0
12
8
0
16
0
20
0
0
0
1
0
14
0
7
0
41
0
3
19
0
11
12
0
10
7
8
0
0
13
2
0
0
0
3
8
0
12
0
1
4
0
14
0
10
5
10
7
0
11
0
0
6
0
0
3
6
1
0
17
6
22
0
0
0
0
19
0
7
5
0
0
3
7
0
16
0
7
0
11
0
3
0
0
0
6
0
3
0
2
0
0
22
0
2
0
12
0
8
0
0
9
2
0
3
0
3
3
0
0
1
3
5
1
0
0
6
1
3
0
7
3
0
1
0
0
0
0
2
7
0
1
0
7
26
77
0
0
0
0
5
25
0
6
0
26
0
0
0
0
88
0
0
43
0
0
0
11
9
0
0
14
0
13
0
0
25
0
12
0
15
0
17
0
10
14
0
14
0
0
12
0
24
0
9
10
0
0
12
0
0
3
16
0
0
10
0
2
0
16
3
8
2
0
0
1
0
2
3
6
0
5
2
7
7
0
0
8
0
8
7
2
3
0
3
0
1
2
3
0
5
0
0
3
6
0
5
0
13
10
0
6
12
5
4
0
0
2
15
0
6
16
6
0
0
0
0
0
11
4
0
0
6
0
6
0
1
0
14
0
9
1
0
6
0
15
27
0
2
9
22
0
9
0
0
14
0
4
9
110
33
0
0
9
0
21
0
14
0
0
13
0
0
16
0
13
0
0
2
8
0
21
2
46
0
0
0
14
0
4
10
0
0
9
11
1
0
10
0
16
3
3
0
17
0
0
0
0
7
0
2
0
6
8
16
0
0
0
4
0
0
6
0
16
0
0
0
0
118
111
0
0
8
0
4
17
0
14
0
0
0
0
13
11
0
10
0
0
26
0
0
0
0
7
38
0
46
2
0
0
0
0
12
0
37
31
33
0
0
0
0
0
30
12
0
8
0
9
0
0
0
18
0
23
0
0
0
10
23
2
36
19
17
0
71
15
0
0
0
32
0
0
41
0
12
0
0
0
8
0
15
24
0
0
0
2
21
21
0
13
0
25
50
0
42
65
0
0
0
0
95
50
0
0
0
84
0
0
82
70
0
0
23
0
8
0
0
0
41
0
38
0
0
12
57
31
0
0
0
27
0
0
0
11
12
0
0
6
0
47
0
0
14
0
5
0
19
0
0
0
16
0
0
19
0
11
18
14
11
14
0
0
0
25
35
0
16
0
0
0
16
19
0
37
7
0
0
0
2
0
8
1
0
8
0
6
0
0
0
14
4
0
5
3
0
5
0
0
0
5
10
0
1
0
0
17
0
0
0
0
10
8
0
9
0
23
0
8
0
26
0
0
0
0
2
8
1
0
0
0
7
2
0
1
10
0
12
0
28
0
0
10
0
10
0
9
0
0
0
20
0
0
20
0
0
11
0
6
8
2
0
8
0
1
2
2
0
10
0
0
1
0
9
0
0
5
0
0
6
2
1
0
3
0
0
8
13
65
20
0
0
4
7
0
1
0
0
20
0
0
0
0
91
0
2
18
0
0
15
1
3
3
15
0
0
7
5
24
0
1
0
26
0
0
0
11
0
0
6
8
0
4
0
8
0
0
0
0
0
0
0
0
0
0
0
0
4
0
1
7
4
0
0
1
0
0
17
12
0
0
0
0
0
2
0
3
0
14
15
4
6
0
1
0
0
8
0
0
2
0
6
0
4
0
1
0
2
3
0
10
0
3
12
0
15
5
0
0
0
0
5
1
0
0
25
5
0
6
0
14
12
0
0
11
0
0
0
8
5
0
0
0
11
0
1
0
19
0
0
16
0
0
12
0
3
0
12
0
14
14
0
94
23
0
12
0
1
0
0
17
0
4
22
0
0
3
8
0
2
8
14
0
4
29
2
0
1
0
1
0
0
0
8
3
3
22
2
5
0
15
0
0
0
1
12
0
3
0
9
7
0
6
0
0
8
0
0
0
6
9
0
23
4
2
20
4
0
8
0
0
176
0
0
33
0
7
0
0
8
0
2
6
15
22
15
12
0
1
6
0
0
28
0
8
19
0
0
3
0
0
17
21
0
0
0
22
51
19
34
0
0
0
0
0
10
48
0
0
0
0
0
32
12
0
0
0
11
0
0
0
0
0
15
0
0
0
29
53
0
0
21
42
0
0
8
35
0
0
48
0
0
7
21
13
0
9
1
0
37
0
1
0
25
66
0
39
33
29
38
0
0
10
29
0
0
0
0
86
9
0
70
54
0
0
0
14
0
7
0
0
25
12
25
0
2
0
48
50
0
0
20
1
10
0
1
41
0
2
0
15
0
56
0
2
0
0
0
12
18
0
0
22
14
0
0
11
6
8
19
2
0
0
0
0
5
10
26
0
0
0
7
3
1
9
0
6
5
0
3
14
17
0
12
0
10
13
0
10
0
4
0
7
0
0
7
5
0
19
0
0
5
19
0
0
10
0
1
0
8
12
0
12
0
0
0
0
2
0
10
0
11
0
12
3
1
1
5
0
0
16
0
13
0
0
9
0
0
16
0
0
13
9
0
0
18
0
4
0
2
12
9
5
0
9
0
0
10
0
0
0
1
0
6
1
5
10
0
5
0
5
0
11
0
0
0
12
0
3
5
0
0
1
0
0
3
4
0
8
0
36
71
0
0
0
4
9
0
0
20
0
0
0
0
0
49
0
6
15
19
0
18
5
0
11
5
0
6
0
22
0
0
10
10
0
4
13
2
0
6
0
0
7
2
10
6
6
0
14
0
18
11
13
0
10
8
9
1
12
0
1
1
0
0
14
5
0
0
15
0
0
0
1
0
18
0
2
9
0
11
0
0
9
0
4
8
0
9
0
2
4
0
9
0
2
1
7
0
10
0
0
0
0
3
7
3
17
1
0
0
0
19
0
8
6
0
18
0
0
0
0
12
0
11
0
4
0
0
6
0
8
7
0
0
1
0
0
0
0
0
16
0
5
0
2
10
0
11
0
0
8
5
0
0
138
44
3
6
35
0
0
0
0
0
7
0
20
0
16
0
13
0
7
0
0
7
0
2
14
9
0
0
0
9
0
13
0
0
0
2
0
0
0
10
5
6
0
0
12
7
0
0
0
5
8
0
8
0
6
4
17
0
0
4
0
2
7
0
0
0
20
5
0
92
0
0
0
0
15
30
0
0
0
0
0
0
4
14
0
3
1
27
6
11
0
11
0
0
11
12
6
31
0
0
0
0
0
0
44
39
0
2
0
2
0
0
0
13
35
2
28
0
1
0
36
5
0
0
4
10
31
3
0
0
9
20
0
0
0
0
82
16
0
4
19
16
8
0
12
10
0
0
16
0
0
24
0
21
0
1
0
42
0
26
45
12
0
0
91
30
0
49
0
0
4
0
0
3
0
0
84
19
0
91
1
0
14
0
12
20
6
4
0
46
0
45
0
0
0
42
0
3
18
0
11
0
5
0
3
16
8
0
22
0
0
0
0
0
1
0
0
2
7
0
8
6
0
12
0
5
13
17
0
0
0
13
4
5
24
0
0
0
17
0
0
45
0
19
0
0
0
0
0
4
0
0
0
11
0
0
0
1
5
0
7
0
0
0
0
12
0
5
0
0
0
4
14
0
0
7
5
1
0
16
7
0
6
7
0
2
10
0
0
0
0
0
0
2
12
0
8
1
0
0
3
0
0
0
0
10
4
5
12
0
0
0
0
0
5
0
6
0
0
2
8
0
6
0
0
0
8
0
0
0
9
0
10
0
0
5
0
2
2
0
1
1
0
6
3
0
4
0
5
1
0
6
5
0
0
0
0
12
14
67
37
0
0
0
13
0
7
0
13
0
0
0
20
32
0
34
0
0
0
7
0
0
0
3
0
8
2
3
0
5
0
0
0
18
1
0
33
0
0
25
0
0
6
0
4
0
0
5
10
0
13
0
8
0
0
0
13
0
13
0
0
11
0
0
13
0
0
0
15
0
1
0
0
2
0
7
6
4
0
8
0
2
3
0
1
0
4
7
0
2
2
0
6
0
0
4
0
0
2
13
0
10
0
13
0
0
0
0
0
6
0
22
0
0
4
0
1
0
10
0
18
3
7
0
0
4
0
10
0
0
8
7
0
0
14
1
6
9
0
0
23
0
5
27
0
14
0
0
0
16
0
18
100
32
0
0
0
13
12
10
0
6
0
16
6
0
0
14
0
5
5
5
15
0
17
0
15
0
0
0
0
0
0
0
7
1
14
20
0
0
6
2
0
0
12
0
0
0
0
0
0
9
0
21
0
5
5
4
0
0
10
5
0
9
0
7
0
0
109
0
0
17
0
9
0
6
14
0
0
0
3
0
0
18
17
0
4
2
0
5
0
0
10
0
5
0
1
0
0
0
0
21
0
0
0
8
42
19
12
28
0
0
0
0
0
8
54
22
0
0
0
0
37
3
17
0
11
0
4
1
0
0
0
0
0
45
6
0
38
24
0
0
43
24
22
0
35
31
0
0
31
34
0
21
0
0
16
0
0
26
0
10
20
0
0
0
43
38
0
17
70
0
0
24
0
0
0
0
99
2
47
50
0
0
0
0
0
0
0
0
0
34
1
65
0
8
4
13
22
0
0
12
9
0
11
22
0
0
0
0
0
10
30
0
24
0
0
0
16
0
0
27
6
0
0
12
16
0
3
0
4
0
0
9
27
13
11
14
0
0
0
2
0
59
0
0
12
0
21
8
0
0
3
0
7
0
0
0
0
0
7
0
3
0
4
0
16
0
11
3
0
0
0
1
0
0
6
4
0
0
1
0
4
22
0
26
0
13
0
14
0
10
1
5
0
0
0
5
0
0
12
0
5
8
0
7
22
0
1
7
0
10
2
9
0
0
0
9
0
15
0
4
0
0
11
1
0
14
0
5
0
2
0
4
2
0
11
0
6
0
2
3
0
0
0
0
0
10
0
4
0
0
0
0
1
2
0
1
0
3
5
36
73
0
0
0
0
4
0
0
15
0
0
0
39
25
0
8
8
1
5
0
24
0
0
0
9
0
0
11
21
0
9
5
11
0
0
4
0
0
0
0
7
0
0
13
0
12
4
12
0
7
0
12
0
9
0
1
12
0
5
5
0
0
0
4
0
0
13
15
5
0
0
0
0
17
9
6
3
4
8
0
0
10
0
14
0
3
0
2
0
10
0
2
0
4
0
0
3
0
8
0
15
0
13
0
15
13
0
0
0
3
14
0
12
0
0
23
0
0
9
1
0
0
0
0
8
0
4
10
0
11
0
0
10
0
0
2
0
9
0
0
18
0
6
7
0
0
8
0
0
43
0
21
86
27
0
0
7
0
0
51
0
1
8
9
0
7
0
4
1
11
0
0
0
0
0
1
22
4
0
0
0
2
0
0
9
8
6
0
0
13
1
7
0
3
0
0
0
10
0
0
11
2
5
0
0
7
0
5
9
0
1
0
10
5
0
7
0
4
112
0
34
48
0
5
0
2
32
0
0
0
0
0
49
21
0
15
5
0
0
47
5
0
0
0
10
0
15
39
0
0
5
7
0
0
0
35
47
17
3
0
0
0
27
0
0
0
0
7
7
0
0
8
28
0
0
0
0
22
52
16
0
0
0
5
31
0
0
0
11
79
0
0
0
27
0
4
0
25
29
0
12
12
32
0
6
0
21
14
8
15
9
18
3
0
25
52
0
47
0
0
72
0
0
5
6
0
0
0
94
14
59
0
0
0
0
0
0
0
5
6
0
41
7
0
0
0
21
12
19
0
0
8
19
0
0
0
0
6
11
0
0
13
14
0
15
23
0
0
0
0
0
9
0
0
0
43
0
0
12
0
0
4
2
19
0
1
6
14
0
0
0
0
0
21
0
0
17
0
0
9
6
17
0
0
0
0
4
1
0
28
0
17
0
0
3
5
0
0
7
12
1
0
5
14
0
0
4
8
0
1
19
0
0
0
2
0
13
0
0
0
14
0
11
0
2
5
0
3
0
12
0
6
0
0
7
0
1
19
0
0
8
0
4
0
7
1
3
0
8
0
3
4
3
0
9
0
29
0
0
0
6
0
1
0
1
5
0
0
0
1
0
0
11
0
1
4
0
4
7
0
3
0
0
0
0
0
4
0
0
5
3
17
88
0
0
17
36
0
0
6
9
0
0
0
67
18
0
16
0
0
27
0
20
1
14
11
0
0
0
4
0
0
0
0
0
13
0
0
15
0
16
1
0
27
0
0
2
0
14
0
11
0
0
0
10
7
0
6
0
14
1
8
0
0
16
0
0
6
0
1
0
0
0
0
9
7
4
11
0
3
3
0
5
0
0
0
0
0
0
3
3
1
4
0
0
0
0
1
0
14
0
8
6
3
0
2
6
0
0
6
0
0
0
1
0
4
8
0
0
6
4
14
13
0
22
5
0
6
9
2
0
25
0
9
0
6
4
0
0
0
14
0
4
3
0
13
0
0
0
27
0
0
13
1
107
38
6
0
9
0
5
0
13
0
1
12
5
0
0
0
8
0
0
9
10
5
0
6
18
19
0
0
0
0
1
0
0
14
3
0
11
0
7
0
0
9
12
0
7
0
4
11
0
2
0
0
7
0
1
0
0
25
0
16
0
3
0
4
0
24
64
0
9
98
0
0
0
22
2
14
0
0
0
24
5
0
12
0
0
7
2
19
0
19
37
0
0
27
0
0
4
0
0
0
0
0
7
17
5
19
0
7
0
0
0
23
0
0
0
25
0
2
0
0
58
0
0
21
0
0
0
4
31
0
6
0
0
0
15
0
0
11
22
0
13
59
0
18
8
0
6
0
9
0
0
43
20
0
7
11
0
30
35
0
0
0
0
27
15
63
39
11
56
30
0
0
0
0
0
0
111
7
59
0
0
42
75
0
0
23
0
0
7
16
0
34
0
7
3
5
35
0
0
0
14
0
0
0
13
14
0
0
28
1
0
0
37
0
0
7
0
0
5
0
9
0
7
0
0
5
3
0
4
17
0
1
0
8
0
13
1
0
0
0
20
28
0
25
0
2
0
18
0
5
0
12
4
0
6
15
0
4
0
0
0
1
0
9
0
0
0
3
0
20
0
0
2
2
0
0
23
0
0
0
16
5
0
0
7
0
0
1
14
0
0
0
12
0
9
0
0
9
0
0
11
3
0
1
0
0
15
0
18
0
1
0
0
8
0
4
0
0
3
0
0
9
0
12
0
0
3
0
4
1
0
11
0
0
0
1
0
3
11
0
0
0
5
0
0
0
0
0
0
0
1
0
1
0
2
2
2
0
0
11
43
71
0
0
7
8
0
0
8
0
0
0
86
11
1
0
20
0
37
0
0
13
0
6
5
10
0
8
0
12
0
9
7
7
4
9
0
0
9
0
0
0
1
4
1
6
8
0
0
8
4
0
6
5
0
8
25
0
0
0
2
1
1
17
0
8
7
0
0
0
0
7
5
11
3
2
1
6
5
0
5
0
9
0
0
6
0
0
5
6
0
0
0
0
6
0
3
4
5
0
9
2
7
0
5
0
0
3
0
7
0
8
4
0
0
0
11
9
0
0
0
0
0
2
0
0
5
0
15
0
20
2
0
0
0
2
13
10
0
8
10
0
8
3
9
0
0
0
5
5
8
4
93
26
0
1
0
0
0
0
0
0
18
8
24
0
0
14
0
13
2
3
2
0
7
3
0
0
0
0
4
0
0
3
0
0
6
5
18
0
0
3
0
0
0
17
0
3
0
0
10
0
0
10
0
9
0
12
0
3
0
0
2
0
15
0
0
0
75
0
25
0
73
0
0
24
0
0
7
0
14
28
2
0
2
35
0
0
30
0
2
0
0
0
0
20
20
0
0
0
0
22
0
0
78
0
0
52
0
5
0
7
24
0
14
22
0
36
0
0
0
25
54
0
6
0
2
14
0
0
40
14
0
15
12
0
6
0
0
32
16
0
31
38
0
3
24
8
6
19
0
0
27
0
18
0
0
0
0
74
20
0
28
0
12
0
25
0
0
14
93
75
25
8
1
0
0
27
73
0
39
0
9
91
89
0
0
9
0
0
49
35
0
26
0
22
25
0
0
0
0
8
2
0
24
19
0
0
7
6
5
3
0
11
0
0
48
0
4
0
0
24
0
0
3
0
0
4
24
0
10
0
21
1
0
12
9
5
15
0
0
0
19
3
24
2
0
0
3
0
6
7
0
0
6
1
0
0
0
0
28
0
8
3
0
4
14
10
0
0
17
0
0
12
0
0
8
8
0
6
1
2
0
0
30
0
0
4
13
0
0
0
4
3
0
0
11
0
19
0
0
16
0
7
0
9
3
0
0
0
10
0
1
1
5
0
0
0
13
0
5
0
4
0
0
0
9
0
0
8
0
1
15
0
10
0
3
9
0
0
0
2
1
1
8
0
2
1
0
11
0
11
0
27
0
0
0
2
6
0
2
7
35
72
0
0
0
0
1
11
7
0
0
0
62
5
0
2
6
0
13
0
0
4
0
0
0
0
8
0
14
0
17
0
5
0
0
6
0
0
5
2
11
0
0
5
4
3
0
4
0
16
0
17
0
0
6
0
0
12
0
0
1
14
0
0
21
21
0
2
0
1
0
15
16
6
0
7
7
0
2
0
3
0
0
1
0
0
4
0
0
0
0
7
0
4
0
0
0
0
1
6
0
21
0
3
5
0
0
0
1
0
20
0
0
11
12
6
0
6
2
0
2
28
11
0
9
13
0
18
14
0
0
0
0
0
3
3
0
0
0
15
0
0
5
0
0
18
0
0
11
0
0
0
96
33
0
7
12
6
0
0
0
27
0
11
14
0
0
0
11
4
0
8
6
9
19
8
9
0
0
0
0
6
4
0
21
4
8
0
9
3
1
0
16
1
7
0
6
5
0
12
0
8
0
1
3
10
0
0
7
0
0
2
1
0
0
0
0
0
34
48
0
0
0
0
0
13
14
0
18
0
11
0
5
0
0
0
14
0
0
9
14
0
0
0
47
0
1
5
0
21
0
0
0
19
77
23
0
44
0
47
2
0
6
0
0
0
0
0
0
33
0
18
34
0
0
24
17
0
3
5
12
0
0
0
39
0
0
13
0
28
8
0
0
78
0
0
14
65
0
16
16
0
0
0
2
0
0
0
27
55
0
10
1
0
33
7
38
0
0
0
53
41
30
42
89
15
0
61
20
6
0
0
44
92
99
0
0
0
27
0
0
18
5
24
0
3
15
0
1
0
0
23
0
0
23
14
0
13
19
0
0
2
8
0
5
0
7
7
0
32
0
0
0
18
0
0
5
9
0
0
0
0
4
30
0
0
20
13
2
0
0
0
53
0
0
6
9
1
4
8
8
0
5
0
2
5
7
11
0
4
0
4
0
12
6
0
0
0
0
11
0
2
14
0
8
10
0
0
13
0
0
0
12
0
0
5
0
5
0
2
1
0
0
3
0
6
0
2
0
6
0
0
0
1
0
2
7
3
0
6
0
0
5
0
3
0
17
0
2
7
0
14
2
0
0
9
0
3
0
0
13
0
12
0
0
3
0
0
5
0
6
0
1
0
7
8
0
0
0
3
3
0
6
0
0
4
0
0
0
8
3
3
12
75
0
0
6
0
0
2
0
0
0
0
48
11
0
2
11
0
3
32
0
6
10
2
0
0
11
1
0
17
0
6
0
29
0
0
23
4
0
13
1
0
0
0
12
1
0
12
0
4
0
6
0
5
11
0
6
0
0
1
0
8
21
0
5
0
0
0
5
0
0
8
9
8
4
1
0
1
3
6
2
1
5
0
5
0
5
3
0
5
0
0
8
3
8
0
1
6
4
5
0
15
0
7
0
0
0
2
2
7
0
5
2
0
0
16
0
0
0
6
2
0
10
0
0
2
5
11
0
0
4
0
12
0
0
0
15
0
1
0
0
15
9
21
2
0
14
10
0
0
20
9
65
28
0
0
1
0
0
0
0
0
34
5
0
7
2
1
0
8
3
0
10
0
4
17
9
13
0
0
0
0
0
0
7
0
13
12
0
17
0
19
0
0
4
0
6
0
0
0
9
0
1
6
0
0
13
0
1
0
1
9
0
15
0
0
0
0
52
0
0
0
0
10
2
5
8
8
0
31
0
7
0
1
8
10
0
0
19
15
0
19
11
13
0
0
10
0
15
0
0
0
13
56
62
0
18
53
0
15
0
0
0
12
14
0
0
6
41
0
0
20
3
0
14
3
0
0
1
2
9
0
8
16
0
0
7
5
0
18
0
12
0
4
18
0
39
21
28
24
11
0
0
0
0
0
0
0
38
44
0
0
0
0
9
0
49
6
0
0
69
16
57
0
0
23
46
54
17
16
0
12
46
88
111
0
0
0
0
0
30
20
0
18
0
7
31
0
28
10
0
1
0
12
9
19
0
0
0
13
0
27
0
0
9
0
0
20
9
0
6
0
0
10
0
22
0
19
0
12
14
0
0
4
0
0
17
1
41
0
0
0
12
0
18
0
5
0
0
8
12
0
16
14
0
12
5
0
0
0
27
0
10
0
0
3
3
0
16
0
0
0
20
0
12
0
17
0
5
2
5
6
0
14
0
0
6
0
2
0
0
9
1
2
0
14
0
9
3
0
4
0
12
0
0
4
10
0
0
8
0
14
1
2
0
8
0
24
2
0
9
0
0
1
6
0
11
0
8
0
0
5
0
11
0
1
9
4
6
0
0
0
5
0
5
0
9
0
23
0
2
0
4
0
7
0
0
4
5
0
1
1
9
52
41
0
0
0
0
6
5
0
0
15
57
0
5
0
42
0
0
24
1
0
0
7
8
5
0
0
17
0
22
0
17
0
15
0
0
0
5
0
12
0
3
2
0
0
27
0
8
0
9
7
7
0
0
20
0
0
13
13
0
6
0
13
0
6
0
1
0
0
0
23
16
0
0
5
5
4
0
0
8
0
0
7
0
0
1
0
6
0
7
0
0
0
0
2
3
9
0
1
15
0
3
0
0
0
2
0
17
0
6
0
6
4
0
0
0
0
28
0
4
0
0
8
0
0
14
0
0
0
14
6
0
6
0
7
0
0
20
5
0
4
7
0
0
28
0
0
22
5
9
5
102
29
0
16
0
5
0
0
0
0
0
0
10
0
12
0
8
2
3
0
0
1
9
0
13
4
0
0
0
0
0
0
0
10
26
0
0
3
2
0
15
6
13
0
0
2
1
12
1
0
4
0
0
5
0
15
0
6
1
0
0
8
0
6
6
0
56
40
0
5
0
3
0
0
0
0
40
6
21
0
0
0
53
0
15
0
22
0
9
5
0
10
0
23
0
11
0
0
0
0
52
77
30
0
29
29
0
0
8
0
14
0
0
8
0
0
0
2
18
33
0
0
0
20
10
0
4
0
0
17
0
0
44
0
16
0
0
17
17
0
31
0
0
0
0
3
42
37
24
0
0
27
0
29
0
0
36
0
8
10
0
3
0
0
26
45
34
0
0
93
33
0
0
0
19
19
0
54
40
65
99
115
45
0
0
19
0
0
17
25
0
0
0
3
0
0
0
17
0
19
0
0
12
29
0
0
0
0
3
0
18
0
0
25
0
47
0
34
3
0
16
2
0
5
11
13
0
8
0
0
21
0
0
11
16
0
0
0
0
37
13
16
0
21
0
4
8
0
4
11
0
0
0
7
5
9
11
14
0
0
6
1
6
2
0
0
0
2
0
7
0
10
0
10
4
0
1
0
2
0
0
0
0
3
0
3
0
0
10
0
1
0
7
0
0
0
0
16
0
11
4
0
3
5
0
12
2
14
0
0
6
0
5
7
0
1
6
0
0
12
0
3
0
4
0
5
8
0
0
0
3
0
0
0
0
0
8
3
0
10
0
0
0
14
0
0
0
8
7
0
4
3
0
0
0
0
0
0
0
5
4
31
93
0
0
16
0
4
0
0
0
0
53
0
0
0
3
0
0
19
0
0
0
13
3
0
9
3
1
0
3
0
10
0
4
5
6
5
0
23
0
0
23
0
10
12
0
5
19
0
0
0
5
26
0
0
7
3
0
3
0
0
8
0
2
0
0
0
0
0
11
7
8
7
7
4
0
2
0
11
0
2
2
0
4
5
0
5
0
2
0
0
0
7
0
4
1
3
7
12
0
0
0
4
0
0
0
5
6
0
0
13
0
0
0
23
29
0
0
9
0
1
15
9
7
3
0
6
0
20
0
0
4
0
8
7
0
14
0
0
1
0
0
10
0
0
47
0
15
22
14
0
56
42
11
0
0
0
7
0
0
0
11
2
0
7
5
0
0
0
0
8
3
4
0
1
15
4
0
0
2
9
0
0
8
18
0
0
7
14
5
1
0
0
6
0
6
0
0
0
0
10
13
0
6
3
2
3
0
0
3
0
7
0
9
0
1
0
46
55
0
0
15
0
6
27
0
29
0
17
0
0
0
0
0
0
0
6
0
0
0
11
3
23
0
0
0
22
0
0
0
68
54
43
0
0
26
50
0
0
3
0
13
0
1
15
3
0
17
0
8
16
26
0
3
27
17
0
6
0
0
0
23
11
27
0
31
0
0
13
56
0
0
54
43
0
0
0
7
24
17
0
0
0
0
39
18
0
46
0
0
0
0
9
19
49
22
1
25
32
0
0
74
0
0
71
33
0
66
14
0
0
0
0
0
0
0
0
0
0
10
12
0
9
0
24
6
0
72
6
7
0
1
0
8
0
0
26
0
19
22
0
0
0
17
0
2
0
0
34
0
0
17
0
2
0
14
0
0
14
0
6
0
12
5
19
8
0
12
0
0
0
23
0
0
5
0
25
0
1
0
0
2
4
0
7
0
2
0
0
4
0
1
5
5
0
0
10
0
0
0
0
7
0
0
0
10
0
8
0
11
0
11
1
7
0
0
10
0
2
0
16
0
45
0
11
0
0
7
2
7
2
0
1
9
0
0
0
7
0
0
16
2
11
0
3
11
6
2
0
0
6
0
8
0
3
0
0
0
5
0
6
0
5
1
1
5
1
0
0
0
6
5
0
0
0
8
0
2
0
0
1
2
1
0
2
2
5
0
2
4
5
3
19
62
0
0
0
5
0
17
0
0
17
36
0
4
0
14
0
0
18
7
7
0
12
0
0
3
0
8
2
0
5
0
12
0
2
6
0
0
4
0
0
0
4
10
0
6
0
0
0
0
0
0
0
0
1
4
1
0
0
11
0
0
3
0
19
11
0
0
0
2
13
6
0
0
1
5
3
3
0
0
0
2
0
3
2
0
0
0
5
0
3
7
0
7
0
4
4
9
4
0
6
7
0
0
6
9
0
3
0
3
0
15
0
0
3
0
0
16
0
5
0
3
0
18
0
17
0
0
0
6
14
0
10
0
0
0
0
5
0
7
0
0
20
0
0
0
0
0
0
0
0
73
24
0
0
18
0
33
0
16
0
0
5
23
0
14
6
5
8
7
10
6
0
9
12
0
12
7
0
0
1
0
0
0
0
10
14
2
0
0
16
0
17
0
0
16
0
9
0
11
0
2
0
1
0
0
2
16
0
2
11
0
0
4
4
0
0
31
13
0
0
0
0
12
19
3
0
0
6
0
1
2
8
0
69
0
0
8
0
0
7
4
0
0
0
0
0
0
21
88
58
0
0
0
0
76
30
0
0
0
10
1
4
0
0
11
1
0
11
26
0
0
0
0
0
30
0
0
36
0
15
0
0
23
0
2
0
0
0
51
0
0
0
3
0
57
61
0
9
0
18
14
0
0
36
0
0
48
0
17
0
0
22
23
25
0
47
8
27
12
0
9
0
38
70
0
43
43
0
0
0
0
0
0
0
0
93
0
0
36
36
0
0
0
7
23
0
0
0
42
0
0
0
21
0
5
0
7
13
0
0
0
14
0
0
20
0
0
38
0
15
2
0
16
21
1
0
4
6
3
1
0
0
0
3
21
35
0
0
0
37
9
4
0
0
8
0
9
0
0
5
0
6
4
5
5
5
9
0
0
0
5
0
0
0
0
9
0
6
0
8
0
2
3
9
0
23
0
8
0
0
5
3
0
3
5
7
0
5
2
2
0
0
12
0
0
0
0
12
0
0
11
0
0
6
0
4
0
0
6
0
6
0
4
0
0
0
6
0
7
2
6
7
0
0
2
0
0
0
0
8
0
8
0
1
0
5
0
7
0
0
2
3
2
0
0
0
4
0
2
0
3
0
6
2
3
0
0
0
0
2
0
11
48
74
0
0
1
10
0
0
0
49
38
0
1
0
25
0
0
25
14
0
0
0
0
10
0
0
4
0
2
0
8
0
0
0
18
0
4
0
1
0
12
0
0
14
2
0
8
0
8
11
0
0
2
0
4
1
0
25
0
0
0
8
2
0
7
0
0
0
12
9
7
5
6
0
9
0
2
6
2
0
0
3
0
8
0
2
2
0
3
0
0
0
0
2
1
6
0
16
0
6
0
0
3
3
0
2
11
9
0
0
24
0
12
7
0
16
0
0
5
6
9
11
0
0
0
0
10
0
4
0
0
0
7
13
4
0
0
8
0
11
6
10
0
0
6
17
5
0
0
17
119
28
0
2
0
4
0
3
0
0
38
0
0
10
0
0
17
0
6
0
0
14
0
15
12
10
0
0
0
1
0
0
5
0
17
0
3
2
9
7
1
0
0
9
0
1
4
0
2
2
0
3
10
1
10
5
0
13
0
2
0
1
7
8
4
0
2
49
0
0
0
6
10
20
0
3
6
14
0
5
0
14
0
0
0
0
24
2
0
0
16
26
2
25
0
0
0
124
68
0
0
0
0
0
93
0
0
48
52
0
0
0
11
1
4
13
0
5
17
15
0
7
0
40
6
0
0
0
0
0
0
6
8
25
0
1
0
0
13
71
0
41
0
0
35
78
15
3
16
21
33
32
0
4
0
7
10
14
0
0
12
19
1
0
0
34
33
0
41
50
16
11
51
31
16
61
0
0
0
0
0
0
0
0
126
0
0
0
38
0
0
0
0
0
12
0
13
0
9
6
0
16
0
12
0
6
0
22
0
5
26
0
0
10
1
3
15
0
0
5
0
0
21
2
0
15
3
0
10
0
4
0
12
0
0
0
0
0
0
16
14
0
0
0
0
19
0
0
0
16
0
13
0
1
0
0
0
0
2
0
9
0
0
9
0
0
4
3
0
0
0
10
0
14
2
0
0
7
11
0
0
9
8
0
3
3
3
0
13
0
0
0
4
0
21
0
0
11
0
2
0
4
0
8
13
0
0
15
0
2
1
0
0
0
4
8
0
0
15
0
2
3
0
2
0
9
0
4
7
2
0
4
0
0
6
0
5
2
1
14
0
0
0
2
3
0
4
0
10
0
1
3
0
4
0
0
6
0
4
0
1
8
31
67
0
0
0
0
0
0
0
65
22
0
6
0
7
0
0
4
5
2
0
13
0
0
6
1
0
11
0
0
11
9
0
10
0
0
21
0
15
0
0
0
4
0
0
9
0
11
0
16
0
24
0
0
7
8
5
0
1
4
0
0
5
0
0
0
0
0
17
13
8
0
0
5
3
1
2
1
0
7
2
0
0
1
0
3
0
0
2
0
5
4
0
5
5
10
0
8
1
0
1
0
0
0
2
11
0
0
7
0
0
5
0
0
8
0
16
4
16
3
4
0
0
9
0
11
0
10
0
0
0
1
0
3
6
5
3
14
0
2
0
7
0
6
0
0
6
14
0
0
66
31
0
7
7
0
0
0
0
21
0
19
15
0
1
0
0
14
3
0
5
0
0
5
0
35
0
0
0
0
0
0
11
0
0
9
10
19
0
3
0
12
0
0
4
6
0
5
6
0
23
3
1
4
0
7
7
1
11
0
14
2
0
4
2
0
3
0
0
0
0
0
17
34
0
0
0
0
0
0
0
0
4
7
0
0
0
0
38
0
0
5
0
0
0
0
5
21
0
0
0
0
0
0
128
0
0
22
0
7
3
10
0
14
4
0
0
26
28
6
0
0
0
0
21
7
15
8
0
0
9
0
0
42
18
0
0
0
34
37
5
0
22
0
0
0
26
0
1
20
9
35
1
24
2
0
27
0
0
13
20
41
0
0
0
0
62
16
0
0
20
0
24
49
34
0
0
0
0
0
0
0
0
56
47
0
0
28
10
7
0
0
0
57
5
0
19
0
11
19
0
9
8
14
0
0
0
12
5
0
0
2
9
0
0
0
4
0
0
8
1
11
0
4
4
0
11
0
0
1
1
14
0
2
30
0
0
0
0
36
19
0
0
10
0
0
20
0
10
0
7
0
18
0
0
0
0
10
16
1
0
0
0
18
0
0
4
0
2
23
0
0
0
12
0
0
8
0
0
0
22
0
2
0
2
14
0
0
3
0
1
0
14
0
0
0
5
0
19
0
0
13
0
1
0
2
5
1
0
0
7
0
1
12
0
0
1
3
3
0
0
0
1
0
0
2
0
1
0
0
2
4
0
0
5
0
0
0
0
6
0
9
0
4
5
0
0
6
1
0
15
0
1
2
0
0
0
2
0
0
3
0
22
80
0
0
0
3
0
0
0
45
8
0
32
0
14
7
8
0
5
2
0
2
0
14
0
18
0
0
0
11
0
0
5
0
6
15
0
8
0
0
2
0
4
10
5
3
3
8
0
4
0
0
0
0
1
6
0
0
0
4
11
0
11
1
0
12
0
0
0
6
0
1
6
0
4
2
0
0
0
0
0
5
0
5
0
4
5
0
0
3
4
0
6
0
7
1
12
0
0
13
0
0
1
0
0
9
0
19
4
1
0
12
4
3
0
0
4
21
0
3
9
6
9
0
11
20
0
15
0
0
10
0
0
0
6
0
18
0
12
0
25
0
40
0
11
21
0
3
0
12
76
27
0
6
1
0
10
0
0
0
49
0
0
5
0
0
5
6
0
7
0
12
0
10
0
0
24
0
0
2
0
14
0
0
27
0
3
0
8
0
8
0
12
0
1
0
4
14
0
0
0
1
0
0
12
6
2
0
0
0
1
0
17
3
11
0
0
12
11
1
0
33
0
1
10
0
0
7
2
0
7
12
12
0
0
0
12
0
0
64
0
0
22
3
0
61
25
0
0
24
0
0
0
70
64
0
19
11
0
0
0
0
0
8
0
0
5
57
0
0
7
0
0
0
5
0
3
4
0
0
11
0
22
10
6
0
0
0
12
38
28
0
1
0
0
0
0
0
0
57
0
6
3
13
21
0
0
31
0
11
48
0
0
0
11
0
0
43
41
0
0
0
0
0
0
0
60
46
39
0
0
0
0
114
0
0
0
0
29
0
0
0
8
28
0
0
21
0
0
0
0
0
36
0
31
0
6
1
21
0
0
0
3
20
0
2
26
0
5
0
0
7
0
8
6
0
6
0
3
0
0
0
20
14
18
0
0
0
0
23
0
0
8
0
0
9
0
35
0
7
2
2
0
0
11
0
11
0
0
0
0
5
7
0
8
2
0
43
0
3
0
4
5
0
0
10
0
8
0
0
0
3
9
0
0
0
0
10
0
3
0
8
1
1
23
0
0
18
0
25
0
0
5
0
4
0
4
1
6
0
10
3
21
0
7
0
0
1
0
12
7
0
3
0
11
0
1
2
7
0
0
3
3
2
0
0
11
0
9
0
2
0
0
1
0
0
7
0
2
0
0
3
0
0
8
2
0
4
3
7
0
15
18
59
25
0
2
0
0
0
0
62
5
0
0
0
17
0
0
7
8
29
0
3
0
16
0
2
0
21
0
6
0
23
0
15
0
0
0
0
19
0
0
8
5
0
0
0
0
0
7
0
0
0
17
2
3
0
14
0
0
13
5
0
0
0
0
19
0
0
25
5
10
7
0
11
0
0
0
0
0
1
2
7
0
1
1
1
3
0
6
1
0
0
8
11
0
8
0
15
0
0
0
2
7
0
17
0
1
2
8
0
0
2
0
0
14
0
10
0
5
0
0
0
4
1
0
0
0
0
0
8
0
0
3
14
0
6
0
0
1
15
0
0
0
7
0
0
17
0
0
2
63
37
3
9
0
16
0
0
0
0
7
35
0
8
0
15
0
0
7
1
3
0
10
14
0
21
16
0
0
0
3
6
10
0
7
0
12
0
6
14
0
4
2
0
0
0
0
0
0
0
2
0
0
0
0
0
0
9
0
9
0
0
14
0
18
1
0
4
55
0
0
0
0
17
0
2
2
15
0
10
5
0
0
0
0
12
0
13
10
0
0
0
29
24
69
0
0
0
0
0
0
40
0
48
0
0
12
13
56
1
0
32
0
0
0
0
39
60
0
28
23
0
0
0
29
8
0
0
8
3
0
3
28
0
0
30
0
0
16
20
25
0
0
0
9
0
23
0
0
0
4
17
0
13
22
0
5
14
0
0
40
0
15
1
49
0
0
35
20
22
84
75
28
0
41
73
49
71
58
48
7
0
67
5
0
0
0
8
0
0
0
0
0
20
0
0
14
0
0
23
42
0
8
9
0
0
49
0
0
3
0
11
0
0
0
5
19
0
11
0
0
2
8
0
0
8
16
0
36
0
0
8
0
20
50
0
8
0
0
21
5
0
20
0
12
7
0
0
14
2
4
0
9
0
0
0
18
0
25
0
0
9
4
11
0
21
0
0
9
1
8
0
4
0
11
0
0
2
0
7
0
0
0
6
5
0
0
8
0
3
0
0
6
0
1
0
0
0
2
0
0
0
16
0
4
6
0
0
0
0
0
0
0
0
0
8
0
3
7
0
0
0
8
1
0
6
0
4
7
0
6
3
0
4
0
0
7
0
0
2
2
0
3
0
7
0
0
2
2
0
3
0
0
2
9
3
0
0
0
0
8
5
4
36
70
0
0
0
2
0
0
48
4
21
5
0
11
0
0
4
6
7
0
3
0
0
0
12
0
0
3
1
9
0
15
0
4
29
0
22
0
3
0
4
0
11
0
4
7
8
0
0
0
13
0
0
0
0
5
16
0
0
0
2
1
0
0
6
0
0
3
18
0
2
4
0
10
0
0
0
0
0
0
0
0
3
3
0
6
0
2
0
5
4
0
7
14
0
0
0
0
0
3
0
12
12
0
5
3
1
0
10
9
0
1
16
0
0
0
8
9
4
0
4
24
1
0
0
0
0
0
4
5
11
4
5
0
0
4
10
16
0
0
0
0
18
0
8
13
0
8
0
87
33
3
0
0
0
0
1
0
14
13
0
53
0
0
0
0
8
0
6
5
2
5
0
3
29
0
0
10
0
0
0
0
20
2
7
11
0
0
0
7
1
0
10
3
1
0
4
0
6
0
0
0
2
1
13
0
1
13
0
0
0
11
0
0
7
0
65
42
0
0
4
0
18
12
0
13
0
15
0
14
0
1
1
8
0
43
0
0
0
1
5
20
93
0
0
0
0
14
0
16
0
0
38
0
0
24
18
0
0
0
30
0
28
0
18
19
0
0
0
45
0
0
4
0
13
21
0
16
1
0
15
53
0
0
11
36
0
12
4
23
0
40
0
0
12
0
14
12
0
0
27
0
15
0
31
0
2
0
17
28
0
65
0
32
36
0
0
0
0
0
21
31
0
10
40
40
94
65
41
68
22
106
20
16
5
46
28
9
0
0
0
0
2
0
0
0
0
37
56
8
0
10
0
2
12
0
0
6
0
4
10
0
0
0
23
0
1
0
0
0
1
0
20
8
0
0
0
0
0
0
21
0
20
0
0
0
0
0
12
10
0
0
0
17
0
0
0
0
0
2
0
0
0
0
2
0
0
7
0
12
0
1
6
0
4
0
12
0
0
28
0
0
0
5
0
0
0
17
0
0
0
2
4
0
9
3
3
11
0
0
0
5
1
0
6
0
0
8
13
0
8
2
0
0
10
3
0
13
3
0
8
1
0
0
0
7
0
0
2
5
14
0
5
4
0
0
5
0
0
2
3
0
4
5
9
0
5
0
10
0
6
0
4
0
0
0
1
0
24
0
3
1
0
0
0
1
0
0
0
1
0
3
34
61
0
0
0
0
0
36
23
0
0
1
0
17
0
0
13
0
24
3
0
0
1
0
10
0
0
14
0
0
2
0
20
0
0
5
0
0
4
4
3
0
0
0
5
0
0
0
0
17
0
16
3
9
1
0
0
2
8
0
0
0
5
0
0
0
0
2
12
0
4
3
5
4
0
5
1
0
0
0
3
5
0
5
2
0
19
0
2
5
0
0
12
0
13
0
0
1
2
3
0
20
0
0
0
8
0
2
0
4
7
4
7
26
7
0
6
0
20
0
10
0
0
18
0
13
0
2
0
0
0
0
11
0
5
0
8
16
0
7
7
27
10
0
0
0
16
4
0
74
27
0
3
0
24
0
0
16
0
7
0
11
0
9
17
0
1
3
0
0
5
1
2
4
4
30
0
0
0
0
0
6
0
0
0
4
2
4
2
4
0
1
0
11
0
0
0
5
0
0
0
0
0
4
0
2
0
1
6
4
4
2
0
0
2
0
63
16
0
14
54
0
0
6
0
0
0
24
0
0
0
6
0
0
0
4
0
38
0
0
0
24
1
0
0
3
1
0
1
0
5
0
54
0
19
8
20
27
17
0
18
0
0
1
0
0
0
0
0
0
18
0
32
13
0
5
0
0
22
0
0
48
55
0
16
0
0
12
33
0
0
31
9
0
0
6
0
0
0
0
33
4
7
34
18
0
37
0
50
23
0
21
0
0
87
0
0
0
0
0
0
45
15
0
0
0
0
0
0
32
107
0
107
74
56
54
21
22
25
1
0
21
0
0
0
50
44
64
0
0
0
12
0
0
0
3
9
0
5
0
0
4
0
10
9
9
0
0
0
7
3
6
0
13
0
6
0
13
3
7
0
1
29
0
0
20
0
13
0
11
38
0
9
6
0
12
0
0
10
0
1
10
2
8
0
26
0
6
3
11
9
0
0
17
0
0
13
0
5
0
5
0
0
7
0
0
0
3
0
11
0
0
15
0
11
4
0
0
0
7
0
3
0
4
7
11
0
0
0
13
1
5
9
0
0
1
7
6
0
3
0
1
0
4
6
0
2
0
0
9
12
0
11
0
0
0
10
0
6
0
13
0
4
0
0
5
0
4
0
0
5
4
0
0
0
1
6
0
0
1
5
0
0
11
0
5
1
0
7
0
0
10
10
73
18
0
7
0
0
10
43
0
23
0
0
25
0
0
3
0
0
26
0
8
0
0
0
9
0
4
3
10
0
23
0
12
0
0
11
0
4
5
0
18
15
0
0
18
11
6
16
0
18
0
0
11
0
20
0
7
0
0
12
8
0
35
0
9
0
9
14
4
0
1
0
0
0
0
1
3
0
0
0
0
5
0
2
0
5
0
0
9
8
8
1
0
0
0
0
1
0
0
1
11
11
0
2
13
10
0
21
0
10
0
0
0
0
8
11
0
0
9
23
0
0
1
0
5
4
0
7
15
0
25
5
0
0
18
0
11
0
0
0
17
16
0
0
0
12
0
12
96
32
2
0
0
0
3
0
0
36
0
13
0
23
0
15
0
1
1
5
5
1
0
0
6
15
0
0
0
0
0
4
0
6
13
0
13
0
0
10
0
12
3
0
8
0
19
0
0
13
0
6
0
12
2
0
8
0
8
0
11
0
4
0
0
42
0
20
34
0
14
56
0
0
0
0
26
3
0
40
0
0
5
0
0
18
13
18
0
0
19
0
63
0
32
0
0
0
23
0
20
0
0
59
0
5
0
0
0
0
9
0
0
23
6
70
0
19
0
7
25
10
0
0
4
48
0
44
19
0
0
0
44
19
0
0
0
32
14
83
0
0
23
26
0
0
0
0
0
7
34
0
0
21
50
36
0
31
30
32
0
19
58
0
0
45
38
0
0
1
0
0
18
83
0
0
0
0
0
0
78
0
0
0
0
40
44
30
75
52
55
88
63
49
45
70
36
0
0
0
0
40
0
16
23
0
0
24
3
0
0
14
0
0
1
2
0
3
27
0
16
0
0
13
9
2
0
0
7
0
17
1
0
20
0
27
0
0
7
23
0
0
0
0
12
0
5
14
3
0
13
1
0
16
0
1
0
0
6
0
0
0
12
3
0
2
7
1
8
0
4
8
0
0
20
0
11
0
0
5
0
16
7
0
4
0
1
6
4
0
0
0
0
1
6
1
0
0
0
6
2
0
0
4
0
11
0
0
0
0
3
0
15
12
0
1
1
5
2
10
0
8
0
1
4
14
0
0
0
5
0
0
6
5
7
0
0
3
0
1
3
1
0
0
0
9
0
0
0
3
0
0
10
0
3
0
0
0
2
0
4
4
0
0
56
48
0
0
0
0
50
12
7
8
3
0
13
0
4
6
0
0
31
0
0
28
0
0
6
4
0
4
0
3
2
0
0
21
0
0
0
4
0
8
0
0
0
6
0
0
0
0
2
0
6
7
0
23
0
8
0
0
0
0
0
0
0
0
0
0
18
5
4
0
6
3
7
1
1
0
1
0
1
7
0
0
0
8
0
0
8
0
1
1
8
9
5
0
2
0
0
6
0
25
0
0
0
8
0
0
1
0
21
0
0
9
0
0
0
4
7
9
7
0
7
20
1
10
0
0
0
0
0
5
3
0
0
3
0
0
5
9
0
22
0
0
0
0
3
0
9
17
61
27
0
3
0
0
9
3
0
7
0
2
12
9
22
0
5
13
0
22
0
3
6
12
0
21
0
0
0
6
0
0
0
0
14
4
0
5
8
0
13
0
15
0
0
16
0
0
4
0
4
7
0
3
7
0
0
29
0
10
0
5
0
0
32
31
0
0
28
0
0
28
0
0
25
22
0
0
0
33
0
4
0
28
0
7
0
0
0
9
0
7
0
10
4
0
0
21
0
19
0
16
0
5
30
10
10
11
8
0
44
22
0
29
10
0
11
0
11
0
30
7
0
32
24
0
0
0
0
0
0
9
0
0
3
0
0
0
33
37
0
0
7
59
0
0
0
37
0
0
0
0
25
26
0
0
24
23
50
0
0
0
78
41
0
0
66
4
0
0
0
0
0
146
0
0
14
13
0
48
51
0
0
0
0
4
0
17
0
0
0
14
120
132
33
0
6
23
0
0
6
18
0
11
0
40
0
0
6
0
21
5
0
0
28
0
0
12
0
0
6
1
20
0
0
0
14
7
5
0
5
6
14
40
0
0
0
0
33
0
22
22
0
0
10
13
1
0
6
2
0
10
0
1
0
2
0
9
0
0
0
11
0
0
0
9
0
0
0
0
10
0
11
2
0
1
0
9
0
3
0
2
0
0
2
7
0
0
0
11
4
0
1
4
7
0
7
0
8
8
0
13
0
0
13
0
5
0
0
4
0
2
0
0
7
0
15
0
0
0
0
17
0
11
0
0
0
5
0
0
12
0
4
0
0
0
3
0
7
0
3
2
0
4
0
4
2
9
0
0
1
0
0
0
2
0
4
0
0
5
0
4
1
15
28
89
0
0
0
0
78
17
0
10
7
0
31
0
0
0
6
0
14
10
0
2
0
0
0
0
7
0
10
2
1
0
4
1
0
0
14
0
13
10
0
11
0
0
3
0
0
20
0
0
28
0
17
0
7
8
8
25
0
18
6
0
0
0
0
16
7
8
5
4
0
8
0
0
0
9
0
1
3
0
1
0
21
0
0
8
0
3
0
0
6
9
0
0
1
0
0
0
0
0
2
19
0
0
11
2
34
0
2
0
6
11
12
5
0
16
0
9
0
11
0
0
0
2
0
0
0
0
11
0
0
1
14
0
9
0
0
0
18
0
14
0
5
0
20
3
3
0
107
43
12
0
18
0
3
0
0
0
0
13
0
0
8
0
0
7
0
0
14
18
5
2
12
0
2
0
0
8
0
0
0
9
13
0
2
10
0
8
0
5
1
0
15
0
0
2
5
3
0
0
0
10
0
4
0
0
0
24
0
5
19
0
3
25
0
0
20
0
0
37
0
1
20
0
2
20
0
25
35
0
10
0
5
0
15
0
0
0
40
0
1
0
0
3
3
40
0
0
8
0
0
18
0
0
2
0
18
0
0
0
8
6
39
0
6
7
0
0
14
22
0
0
0
0
16
0
37
0
36
0
32
16
26
0
0
15
40
44
0
0
0
14
83
0
0
0
12
0
26
0
14
45
6
0
0
51
43
0
0
0
15
73
43
0
61
70
0
0
16
0
0
121
0
0
17
0
0
103
0
0
0
0
0
20
0
0
0
0
0
0
2
0
0
0
18
111
20
0
2
0
0
0
0
0
4
25
5
0
16
8
0
31
0
0
15
0
0
9
0
4
6
6
0
15
0
0
8
1
0
0
25
0
0
30
0
0
0
0
30
0
1
0
11
0
7
0
0
4
1
0
4
0
2
2
3
2
0
16
2
0
9
2
0
0
0
0
0
0
14
0
3
0
0
0
2
0
5
3
0
8
0
11
9
0
0
13
0
0
7
0
1
0
0
0
4
13
0
16
0
0
0
2
3
6
0
5
0
0
0
0
0
19
0
0
0
8
0
11
2
3
0
0
0
4
0
4
0
0
6
0
11
0
0
7
0
1
1
7
0
2
3
0
4
0
0
0
5
0
0
6
0
3
1
1
1
0
0
6
2
0
0
0
26
69
0
0
0
0
37
16
0
3
2
0
6
0
0
17
0
0
0
40
0
5
0
15
6
0
0
4
0
0
0
24
0
1
0
10
1
0
0
0
0
12
0
7
0
21
0
13
0
0
0
26
11
0
3
0
8
0
16
0
0
4
22
0
0
0
27
1
0
1
2
9
10
0
2
0
0
0
0
4
0
3
0
5
8
0
0
0
7
6
0
1
0
10
0
0
8
4
0
13
23
0
4
0
0
0
0
0
0
5
20
0
0
10
0
21
0
0
5
12
5
2
0
0
0
0
3
18
0
3
0
0
0
6
23
0
0
0
0
16
0
0
18
0
12
0
0
21
76
25
0
5
0
20
0
0
22
0
18
0
10
9
4
0
0
14
0
5
0
9
0
9
14
0
0
20
0
0
0
54
0
0
0
19
0
0
0
0
9
0
0
12
0
0
7
6
0
4
0
6
6
0
4
0
4
8
0
0
14
5
0
0
0
45
0
11
2
0
3
0
0
0
1
0
11
8
0
0
0
6
0
1
0
3
0
0
26
0
0
38
0
0
7
24
3
0
0
12
0
36
19
2
8
5
0
0
5
7
0
3
0
22
0
1
0
0
44
0
11
11
0
0
12
0
17
0
0
0
0
0
30
0
0
0
0
22
52
36
1
0
0
0
74
43
0
8
4
19
2
8
0
8
45
0
0
33
15
43
29
0
0
2
57
6
0
95
0
0
0
0
0
116
0
0
2
0
67
27
0
0
0
0
32
0
19
0
0
19
0
11
0
49
0
0
0
32
52
80
8
0
0
0
21
7
0
23
0
0
0
0
14
27
0
0
22
0
28
0
0
6
7
0
0
13
0
0
2
3
0
18
22
4
7
0
0
31
0
18
1
0
2
13
3
4
1
2
0
11
0
0
4
9
0
6
13
0
1
0
0
0
2
0
0
18
0
8
0
21
0
5
11
0
18
0
9
0
3
1
0
10
0
0
0
0
9
0
3
0
2
0
16
3
6
0
6
0
0
2
4
0
18
2
4
2
5
0
1
0
0
9
0
0
7
4
0
11
0
0
0
0
7
2
0
7
0
1
0
2
7
0
2
0
0
0
0
0
0
0
4
4
0
10
0
11
0
0
5
1
5
0
0
0
6
0
0
0
4
0
0
2
0
6
12
70
33
0
0
0
73
12
0
25
0
0
28
0
23
0
0
3
0
27
4
0
2
0
0
0
32
0
14
0
0
5
4
0
17
0
5
0
0
6
0
8
0
6
0
0
3
0
16
0
0
0
0
5
8
0
0
3
0
4
0
0
0
0
0
20
0
4
8
5
2
8
0
0
4
0
0
0
0
4
0
3
4
2
0
0
6
0
5
2
13
5
4
0
0
3
0
10
0
0
0
18
3
3
1
13
0
10
7
0
0
13
0
7
0
11
5
0
12
0
0
7
0
0
0
0
0
0
6
7
14
2
7
0
4
9
0
27
0
0
19
0
0
0
0
18
15
0
111
29
0
0
0
0
0
10
0
0
0
8
13
13
0
13
17
0
4
14
0
0
0
9
0
25
0
25
0
0
13
0
0
31
9
0
5
1
0
10
6
3
4
0
4
0
4
0
0
7
8
0
0
0
16
0
5
0
0
3
0
11
0
0
5
37
0
7
11
0
0
22
0
0
3
14
32
0
0
18
0
0
0
16
0
21
20
11
0
5
11
0
0
0
1
0
15
0
4
0
9
0
0
0
43
0
25
0
0
0
0
11
26
0
0
0
40
0
0
39
13
21
7
0
24
6
0
0
0
0
0
45
0
0
0
0
0
0
72
0
42
0
0
0
0
105
30
0
11
0
0
0
0
37
0
32
22
0
0
8
58
40
0
0
9
52
21
0
61
0
0
8
0
64
35
0
1
0
53
0
0
34
0
0
19
20
25
16
0
0
0
40
18
0
0
18
0
0
0
121
48
0
10
5
0
0
0
14
0
13
2
8
10
0
0
7
2
2
0
16
0
10
2
0
13
4
0
0
6
0
4
2
16
0
19
0
0
27
0
13
1
0
6
9
15
0
5
0
3
0
8
0
8
0
3
0
0
0
26
5
0
0
11
0
0
3
5
8
0
0
6
0
0
0
10
0
3
6
0
11
6
0
21
0
0
7
3
0
0
4
0
10
0
7
0
7
6
8
0
3
0
0
1
8
3
0
19
0
7
1
3
8
0
0
5
9
2
0
4
21
0
0
0
0
0
8
0
1
9
0
8
0
0
0
18
5
0
3
0
5
0
4
0
5
11
0
3
0
0
0
0
3
4
14
0
7
0
3
0
3
0
2
7
2
7
37
68
0
0
0
84
0
0
18
2
0
21
0
3
2
0
9
0
3
0
0
0
24
0
1
0
10
0
11
0
0
0
3
0
9
0
13
0
0
9
5
0
19
0
0
19
1
0
2
0
14
0
15
0
8
0
12
0
18
3
0
4
21
0
1
0
8
13
0
0
5
7
3
1
4
0
0
6
0
0
0
3
0
10
0
8
6
0
5
11
0
0
0
0
8
2
0
5
0
5
0
0
0
1
1
3
0
0
0
1
0
1
3
0
6
22
6
0
5
0
15
0
0
0
8
0
21
0
18
0
4
2
2
10
0
0
0
28
0
0
20
0
0
29
0
0
4
104
46
12
0
4
11
13
5
4
0
19
25
0
2
4
0
0
2
6
0
4
1
0
9
5
0
29
0
0
6
0
35
0
7
5
8
0
8
0
2
0
0
9
7
0
9
6
5
1
4
0
2
0
8
0
0
15
7
0
2
0
2
20
0
0
65
0
0
29
0
7
9
0
16
0
0
63
0
0
14
5
4
7
7
0
26
0
0
0
9
0
0
0
30
29
9
0
0
0
23
0
3
0
8
0
0
11
0
54
0
13
25
0
0
0
0
0
0
0
2
0
6
61
0
0
3
0
15
13
0
3
62
0
3
0
2
15
44
0
0
48
62
0
0
0
21
82
0
0
0
26
64
0
28
36
6
0
26
0
0
0
0
63
34
0
0
45
2
51
31
0
0
0
57
114
0
0
0
26
0
0
0
3
16
17
0
0
14
15
0
0
46
0
0
16
14
6
25
0
0
21
8
12
0
0
11
10
0
0
0
0
6
0
0
4
7
0
0
0
1
12
0
2
13
5
0
0
18
0
10
8
14
19
0
9
0
0
25
0
27
0
0
9
0
0
12
0
4
0
0
17
0
18
0
30
0
4
0
0
0
0
10
0
5
0
16
7
0
0
0
1
0
42
0
0
0
15
0
2
11
0
0
2
0
0
1
0
0
4
0
8
0
16
11
0
7
0
0
23
11
0
6
8
0
3
14
0
7
0
0
0
0
1
1
0
5
0
0
0
0
5
11
0
1
0
0
0
3
0
0
2
0
5
0
1
0
0
7
0
0
0
0
0
0
8
4
0
5
0
0
1
0
2
0
0
3
6
0
1
0
0
0
10
0
7
33
87
0
0
0
72
0
7
20
0
1
15
2
0
21
0
8
0
0
0
15
0
0
16
0
23
0
15
18
9
0
0
18
0
3
2
0
0
0
13
0
5
0
0
0
0
9
0
7
0
8
0
0
1
0
7
4
12
0
0
13
0
0
0
0
17
2
0
17
4
4
0
4
5
0
0
0
0
0
3
8
4
6
0
1
5
0
0
10
2
13
0
0
0
1
0
20
0
3
0
0
0
24
0
10
0
0
24
10
0
3
0
8
23
0
0
24
7
0
1
7
0
33
0
0
12
0
11
0
0
0
23
0
0
3
1
17
0
0
12
0
0
11
0
2
0
0
90
42
5
0
20
0
0
4
0
0
0
0
8
0
35
0
0
10
0
1
0
5
0
19
0
12
0
6
0
0
0
1
3
0
14
0
13
0
0
10
0
6
0
0
3
0
0
0
2
0
6
0
6
4
0
21
0
9
0
9
6
9
0
0
19
40
0
0
41
0
15
0
25
15
0
4
0
0
6
0
14
0
0
0
17
9
3
10
0
8
0
0
3
0
1
0
45
0
0
0
29
0
0
1
28
0
6
0
0
1
15
25
0
0
0
6
23
1
0
2
0
20
78
0
0
0
3
0
1
12
9
11
0
0
0
0
31
25
0
0
24
73
7
0
25
0
17
50
25
0
0
62
0
0
0
0
53
18
0
11
11
0
0
0
59
28
13
47
0
77
0
0
0
0
103
0
0
25
0
7
0
28
0
0
30
0
0
0
56
0
0
13
1
0
18
0
11
0
0
0
0
0
21
0
13
10
0
7
0
0
5
0
36
6
8
4
0
7
5
0
0
5
1
14
0
0
17
0
20
0
0
0
13
0
20
0
0
35
0
6
25
0
17
16
6
0
15
0
1
4
0
10
0
0
1
0
1
0
0
9
8
3
0
19
0
8
0
7
14
11
4
0
2
0
0
7
0
0
0
1
0
9
0
18
0
2
0
14
0
6
0
8
1
0
9
0
16
10
0
5
9
4
9
0
3
0
0
0
11
15
6
4
0
1
9
0
0
15
0
0
0
5
0
11
0
7
3
0
0
0
0
6
3
0
3
0
11
0
0
8
1
5
1
0
4
0
0
0
9
1
0
4
0
0
15
0
0
8
1
0
5
3
0
1
4
19
67
0
0
0
50
0
4
0
0
5
13
0
43
0
14
0
1
3
16
5
0
8
0
4
2
1
0
0
7
0
4
0
2
0
17
0
12
0
0
2
11
0
0
14
4
0
0
7
6
0
1
0
9
19
0
0
11
2
0
21
0
10
0
0
2
6
21
0
6
10
1
9
0
12
0
0
12
0
4
0
2
0
9
3
0
1
16
0
5
0
0
3
6
0
5
0
2
0
19
16
0
10
18
0
0
15
0
0
17
6
0
16
3
1
4
0
0
0
0
0
5
0
5
3
11
0
19
0
0
2
5
1
1
0
19
12
0
7
9
0
27
0
0
0
20
1
111
24
0
0
2
0
0
0
15
0
0
12
0
12
1
0
5
0
0
3
11
0
16
0
1
8
0
4
0
0
0
0
0
0
8
0
14
0
0
6
12
0
2
9
0
2
4
1
9
0
0
2
0
12
0
9
0
15
5
4
3
3
0
10
24
20
0
0
57
0
0
0
15
0
12
17
0
22
0
8
0
0
0
7
0
32
0
0
0
0
0
15
31
9
10
3
0
2
0
29
0
0
0
27
0
0
0
0
14
15
17
0
22
0
27
2
0
0
17
0
19
0
28
0
0
7
2
5
0
0
16
34
0
5
0
10
84
29
0
16
0
33
72
5
0
0
0
34
74
24
0
0
0
7
0
0
81
40
5
0
0
36
0
0
0
28
6
3
4
49
58
0
0
17
78
0
29
0
0
0
1
0
62
29
0
40
0
0
0
0
16
44
0
21
4
0
7
10
0
0
14
0
35
0
2
0
29
0
25
0
0
0
0
5
0
0
7
14
15
0
4
2
14
0
0
11
0
0
0
0
2
28
6
8
0
0
0
0
3
0
0
3
0
6
0
8
0
0
2
0
0
0
6
5
9
0
4
0
4
0
0
10
0
2
0
6
10
0
0
0
7
8
0
2
6
1
0
0
2
0
0
17
7
0
0
0
0
11
0
4
0
0
0
12
20
0
0
2
3
0
5
0
0
11
0
3
8
7
0
0
0
0
22
0
0
12
0
0
10
3
0
0
5
0
8
10
0
0
4
0
6
3
6
5
2
0
0
4
0
9
0
0
0
1
0
3
0
0
4
0
0
15
0
5
0
5
1
3
0
5
0
6
6
0
0
6
63
57
0
0
38
0
16
19
0
0
24
0
4
8
0
16
0
0
3
0
0
0
6
0
0
2
0
0
12
0
4
0
4
8
0
0
11
2
1
0
0
0
9
0
16
5
3
5
9
0
2
3
0
0
0
9
0
6
4
0
2
2
0
0
0
0
0
25
15
0
0
5
8
0
0
2
0
3
0
5
0
2
0
0
0
6
4
20
0
8
0
3
0
2
2
0
0
13
0
1
0
11
0
0
3
1
0
0
0
3
1
7
0
0
0
0
0
5
0
12
11
11
0
0
0
1
0
5
0
20
0
0
0
12
0
0
8
0
0
4
0
26
0
0
12
0
86
35
1
0
0
8
14
0
0
15
0
0
22
0
26
0
11
7
13
0
0
0
0
13
8
0
40
0
0
0
23
0
0
0
29
0
7
5
6
0
0
8
4
0
0
0
3
0
0
8
8
7
0
0
0
11
0
0
0
0
0
5
0
0
16
6
0
26
72
0
0
22
21
0
0
35
9
0
3
15
0
0
0
0
33
0
0
0
0
24
52
61
43
0
0
5
0
0
1
0
0
0
12
13
0
2
0
0
31
0
0
0
0
49
0
0
32
0
16
0
15
0
0
79
0
0
10
1
0
4
20
7
0
0
0
34
56
0
16
0
10
0
19
30
0
0
0
0
118
35
0
0
33
87
0
0
34
0
23
46
0
0
0
0
0
0
0
13
0
25
72
0
0
0
27
0
0
0
0
0
8
0
0
23
2
0
4
7
3
0
6
2
0
43
0
0
13
0
7
0
0
0
35
0
6
0
33
0
0
0
7
0
4
0
20
0
0
23
0
3
0
0
25
0
13
0
0
11
0
6
21
7
0
0
0
0
15
0
16
6
2
0
2
18
0
2
12
6
0
19
4
16
0
0
2
6
0
6
0
16
8
0
8
11
0
2
2
2
0
7
0
2
0
6
0
32
0
0
15
0
13
6
0
0
0
0
0
7
0
0
11
7
0
13
0
5
6
11
0
0
0
0
6
0
21
0
0
0
0
0
12
0
0
0
22
2
0
1
0
0
7
5
0
6
0
0
11
0
6
0
1
0
0
0
6
0
0
13
1
4
0
0
3
0
5
0
5
0
10
0
9
0
0
0
0
1
0
0
1
0
5
0
0
0
15
0
31
73
0
0
36
4
16
0
10
9
0
0
1
24
6
0
8
11
0
14
6
3
0
2
14
0
8
0
0
10
13
3
0
8
0
11
0
0
4
0
10
1
0
0
0
0
0
18
0
7
19
0
0
0
15
0
0
0
1
3
2
0
0
0
0
0
0
0
0
12
4
4
0
6
0
0
7
1
0
5
2
0
3
0
0
5
10
8
0
2
0
0
0
14
0
0
12
9
0
0
1
0
9
0
25
0
0
1
5
6
18
0
0
4
4
11
0
1
0
0
1
0
12
15
0
0
0
7
18
0
0
12
0
0
10
0
7
0
15
19
0
7
0
1
0
19
64
48
8
1
0
9
0
9
0
0
0
7
0
2
2
0
3
7
4
0
22
13
5
5
0
11
0
21
0
3
0
4
3
0
0
19
0
5
1
12
0
2
1
1
17
0
0
4
15
0
0
5
0
0
8
20
0
6
0
8
0
17
0
0
9
21
11
2
15
0
0
46
20
0
1
36
0
9
0
21
0
22
6
0
0
0
0
3
5
62
34
0
0
0
0
6
0
0
10
0
18
0
14
13
1
0
64
1
0
17
0
0
0
10
14
0
5
0
7
4
0
14
0
111
0
0
0
0
11
9
0
6
19
0
0
62
0
0
32
0
18
0
49
64
0
0
1
0
0
111
63
20
61
0
0
66
0
0
71
4
25
31
29
62
0
12
0
43
38
0
52
32
0
12
66
0
0
73
101
0
0
0
37
0
20
0
0
33
0
0
44
0
0
23
0
10
0
0
1
19
0
11
8
0
0
0
9
0
0
6
8
5
1
10
0
5
0
22
0
0
8
0
0
3
0
0
1
0
5
0
0
36
0
1
0
0
8
0
0
0
7
3
10
0
0
0
11
0
9
1
0
1
0
23
7
0
12
0
28
0
4
0
9
0
4
0
0
9
4
0
11
3
6
0
10
0
0
8
0
18
0
0
7
10
0
11
1
0
1
5
0
5
0
5
1
0
0
0
11
11
0
9
14
0
5
3
4
0
4
0
0
3
0
0
17
0
0
2
0
6
2
9
0
0
0
0
11
0
6
6
0
0
0
9
0
0
1
0
15
0
9
0
5
7
0
0
4
6
0
0
0
5
0
2
0
2
5
1
0
0
0
5
2
1
0
0
22
82
0
0
17
0
0
11
0
16
3
0
6
0
0
7
9
10
10
0
5
5
0
1
0
22
0
10
14
0
4
0
0
0
0
12
0
0
11
0
0
3
4
11
0
5
5
0
7
0
0
11
0
11
0
0
0
0
0
0
24
0
0
2
11
0
0
1
4
0
1
10
0
0
5
0
1
6
0
21
0
6
0
6
3
0
0
6
6
0
0
11
0
4
0
2
0
0
0
27
0
8
13
0
0
0
0
0
23
0
0
0
8
20
0
9
0
9
0
12
0
13
12
0
1
0
11
4
4
0
3
0
0
28
0
7
0
0
21
0
0
5
3
25
0
0
92
47
3
7
34
0
7
0
10
0
0
0
0
30
0
12
0
1
10
3
0
0
11
0
4
19
0
2
1
0
0
2
5
0
16
2
7
0
0
15
0
2
12
0
0
0
12
5
0
8
0
0
4
0
0
2
15
0
10
5
0
22
0
0
1
22
22
12
0
0
0
79
21
0
0
29
0
0
0
0
24
0
0
17
0
0
32
47
56
4
0
0
13
0
0
5
0
18
0
0
7
5
0
11
0
0
0
0
8
0
31
0
0
0
30
1
0
0
6
0
28
0
0
80
19
0
14
9
24
10
0
0
31
0
23
7
0
6
0
8
0
0
0
44
48
0
0
0
0
0
94
117
94
0
0
128
19
0
38
0
0
32
0
0
0
7
0
15
49
0
0
96
0
0
78
0
33
84
143
0
0
0
0
0
3
14
7
0
0
6
21
0
24
19
0
2
0
30
0
0
0
9
0
26
0
12
0
0
4
0
1
5
20
1
0
0
8
1
8
16
0
7
0
16
0
3
13
0
10
0
7
15
11
0
0
1
10
23
0
0
0
5
10
7
0
22
0
4
11
0
0
10
2
0
0
0
0
0
0
11
10
2
0
7
0
5
3
0
0
17
0
0
0
2
2
0
1
0
19
0
16
10
0
0
2
0
0
4
0
3
0
0
6
0
0
0
21
0
0
14
0
0
0
0
1
6
0
16
0
7
0
2
0
12
0
0
3
9
1
13
0
1
12
0
7
0
0
0
0
1
5
0
0
0
14
0
0
10
0
0
0
8
0
0
13
1
0
1
0
8
0
8
0
0
5
0
0
7
0
0
0
4
5
0
0
5
0
58
0
0
2
9
17
6
0
5
6
0
0
10
0
0
0
0
0
0
17
5
0
0
12
0
7
4
8
0
2
0
13
0
0
0
6
0
2
0
0
0
9
0
0
0
6
0
4
0
0
5
1
0
16
6
0
14
0
2
0
0
4
5
0
0
13
0
0
3
4
0
0
0
12
8
1
0
0
8
4
0
0
0
0
12
21
1
3
0
0
0
0
1
20
11
0
0
0
13
0
3
0
0
5
6
0
22
0
0
0
17
0
0
0
0
25
0
5
0
0
14
0
0
3
16
0
0
18
0
14
0
0
3
0
0
26
0
14
1
8
0
0
0
8
0
62
43
5
0
0
1
0
0
0
0
0
6
12
0
9
5
0
0
0
1
15
2
13
5
0
19
1
16
0
0
0
11
0
0
0
21
0
7
2
0
0
4
0
0
11
0
2
0
0
0
7
0
2
6
0
6
2
0
2
0
0
1
0
5
0
15
29
2
0
0
0
42
18
0
0
3
0
3
0
0
0
0
23
32
10
47
46
14
0
17
0
0
0
17
0
0
0
0
4
0
0
10
41
0
0
40
0
0
2
0
0
0
3
26
0
4
14
37
0
1
0
0
0
21
0
0
0
24
0
0
0
0
38
17
45
0
0
0
5
1
0
0
0
11
93
28
0
0
0
0
0
0
45
0
31
63
0
0
0
53
0
0
3
0
0
29
0
25
48
54
0
69
59
0
0
0
77
111
0
0
0
40
0
0
16
0
0
14
0
0
14
4
0
0
0
0
0
0
23
0
17
0
0
3
22
8
0
7
0
6
0
6
0
3
3
2
4
0
14
0
17
0
0
0
5
0
0
1
7
5
6
3
11
0
0
0
0
5
0
22
3
0
0
10
0
1
8
0
0
0
3
0
16
0
4
0
9
3
4
0
7
7
0
0
3
6
0
11
8
0
0
0
0
1
7
0
6
8
0
1
0
0
6
0
0
0
0
0
3
6
0
0
0
0
9
11
0
0
0
19
0
0
10
3
0
8
0
8
0
0
4
15
0
3
9
7
7
0
0
0
11
0
6
0
0
4
0
6
13
0
0
0
9
0
0
0
0
0
2
0
14
0
3
0
0
2
0
3
0
0
1
0
1
1
6
0
9
0
0
0
6
0
2
1
4
0
12
22
42
0
0
3
8
0
18
15
0
0
10
0
0
17
0
8
0
0
23
0
3
15
0
0
0
11
0
17
0
4
13
0
21
0
0
13
3
4
16
2
0
21
0
15
9
0
14
0
0
20
0
0
0
0
0
0
0
21
0
0
7
0
8
9
0
0
0
1
0
0
0
0
6
0
6
10
0
8
0
2
6
1
1
8
0
0
11
0
0
0
0
0
0
0
22
1
0
0
13
0
2
0
33
0
11
0
0
24
0
0
0
5
0
3
0
0
4
3
17
0
11
7
0
0
0
4
0
0
7
5
0
3
3
3
3
10
0
4
0
4
28
0
0
11
63
35
0
12
5
13
24
0
0
24
0
0
18
0
7
14
0
14
3
20
0
0
16
2
4
0
27
0
2
0
0
0
0
4
4
3
0
27
0
27
0
0
0
14
0
9
0
4
0
5
0
0
8
0
7
0
9
4
0
8
0
3
6
0
0
9
48
2
7
0
0
19
44
0
37
0
26
0
0
27
0
0
25
33
28
18
0
0
0
0
1
0
4
1
11
9
4
15
0
7
1
20
11
0
0
33
0
12
5
0
25
16
0
18
0
20
13
0
0
16
0
0
0
0
38
0
66
8
0
4
0
0
0
53
66
0
0
0
0
3
19
0
0
0
0
28
0
63
0
0
0
0
0
0
5
0
38
21
0
72
0
0
0
11
0
22
0
0
0
44
34
0
94
0
0
0
74
83
0
0
6
2
0
22
2
0
2
0
0
16
19
0
0
8
8
0
8
0
0
51
0
10
0
13
0
0
15
0
10
0
0
0
0
25
0
8
3
11
0
6
0
0
0
19
1
0
7
0
0
18
15
0
0
0
0
9
24
4
0
5
6
4
9
0
2
0
0
4
0
0
0
0
0
0
17
10
1
0
6
0
0
4
0
8
0
1
1
6
0
0
13
0
1
0
0
0
0
0
0
13
0
0
4
6
0
0
5
14
0
16
2
6
0
8
0
0
4
3
0
8
0
0
4
3
2
0
9
3
0
2
0
0
8
0
0
0
0
0
0
0
6
0
5
15
1
2
0
13
0
5
3
0
8
7
0
1
6
1
0
8
0
0
4
0
0
0
11
0
0
6
0
7
0
2
3
0
0
0
13
2
0
0
2
2
0
4
3
21
53
0
0
32
0
25
0
26
0
1
0
3
20
0
8
0
1
0
0
6
5
0
4
0
14
1
11
0
5
0
1
17
0
0
0
7
0
0
0
11
1
0
16
0
0
14
8
7
0
5
3
0
0
6
5
0
15
0
3
18
0
12
0
0
7
0
0
0
0
0
7
0
11
5
0
5
8
0
0
6
2
0
6
0
13
0
0
8
0
0
8
7
0
0
0
0
0
27
0
14
0
0
0
0
16
0
0
13
0
0
19
0
0
4
9
0
22
8
0
0
19
0
7
0
14
0
3
8
0
0
31
0
9
0
3
0
4
0
11
1
24
0
2
0
66
44
7
0
0
0
0
36
0
0
0
0
0
0
23
2
0
0
5
0
0
15
0
5
8
0
0
37
0
0
5
0
9
0
5
10
9
0
5
0
0
16
0
8
0
0
4
0
2
0
8
0
16
0
0
12
0
0
22
0
6
0
5
0
0
0
63
14
23
0
18
8
83
0
2
24
0
0
20
0
11
4
0
3
0
3
0
3
0
29
2
0
18
0
1
5
1
0
13
0
0
25
0
0
47
4
18
0
0
0
0
2
5
16
0
0
17
0
50
11
25
0
0
21
13
34
0
0
0
0
10
4
0
59
15
0
0
10
0
0
14
0
0
35
0
14
0
5
83
0
0
6
0
0
0
0
0
26
55
77
7
1
1
0
0
0
0
0
0
0
112
0
32
62
8
66
68
19
0
9
20
0
2
5
35
0
19
0
7
21
0
2
48
0
16
0
0
21
0
0
13
0
28
0
4
0
9
0
2
0
11
19
0
0
2
22
0
0
0
6
0
12
0
1
0
0
0
5
3
21
14
16
0
0
12
10
33
0
17
0
5
6
0
9
17
0
12
0
22
0
0
1
3
0
0
2
4
1
0
0
12
16
0
8
0
0
8
0
0
6
1
0
0
16
0
0
12
0
3
0
14
3
0
8
0
8
0
0
0
0
0
0
7
0
0
8
0
3
8
0
10
0
0
0
0
10
0
8
0
13
5
9
0
9
3
0
5
0
0
0
2
0
14
0
4
0
0
0
0
2
0
13
0
2
0
5
0
0
3
0
0
6
1
0
0
0
0
6
0
2
1
2
0
0
3
0
5
0
0
0
1
0
7
4
0
0
3
17
41
0
0
18
24
3
0
12
0
0
10
3
5
0
5
0
7
0
0
8
13
2
3
9
0
1
9
10
4
7
0
9
0
1
15
0
0
2
17
0
8
15
0
9
0
0
8
17
0
0
5
7
18
0
16
0
12
0
4
0
2
0
0
6
4
0
4
0
6
0
0
8
7
0
6
5
2
4
2
1
0
6
6
6
0
15
0
0
1
0
0
6
0
5
9
22
14
0
21
0
20
0
0
14
0
20
12
0
3
31
2
0
0
0
4
0
3
1
1
15
0
13
0
0
0
10
0
0
0
19
0
0
0
1
4
2
0
0
0
20
0
19
17
0
53
32
0
17
0
14
0
0
16
0
0
19
10
16
18
2
6
0
29
0
8
1
7
1
0
16
18
0
0
0
0
0
0
9
6
5
0
2
0
5
4
0
13
0
0
0
0
8
0
0
4
0
0
0
6
0
2
12
0
21
3
10
5
0
0
0
55
27
0
0
0
58
0
14
0
0
0
0
23
0
26
0
29
0
0
4
0
0
10
0
3
5
11
0
0
35
0
0
0
0
0
15
0
0
29
0
18
0
28
0
42
0
50
0
28
0
10
27
0
0
8
0
16
0
30
0
0
16
0
0
0
0
13
65
0
3
0
0
0
0
0
39
0
31
29
16
21
0
66
52
0
0
55
0
0
0
0
0
0
0
63
73
0
0
0
16
0
44
23
0
0
53
0
87
10
76
12
0
0
0
0
0
0
28
0
1
0
0
0
48
0
0
2
0
0
11
0
0
8
0
0
0
0
2
9
0
18
1
1
0
26
0
0
0
8
5
6
12
2
0
0
2
11
12
18
4
0
0
6
2
6
0
0
0
0
3
8
0
0
20
8
0
0
6
0
0
0
0
0
14
0
0
0
3
7
0
3
0
0
4
0
7
2
0
0
7
0
0
11
0
6
6
2
6
0
12
0
15
0
0
5
0
15
0
20
0
4
3
6
0
0
0
7
0
12
0
0
0
2
2
0
8
2
4
0
0
0
0
0
3
0
4
3
0
0
2
0
13
1
10
0
4
0
8
0
8
7
0
6
5
0
9
0
5
6
2
0
0
17
0
3
0
7
1
0
3
5
0
0
6
0
5
0
0
0
8
0
0
7
3
0
4
0
0
0
0
0
10
31
15
0
0
18
25
0
11
0
0
0
0
39
0
10
7
11
0
3
7
3
0
0
1
4
6
0
0
17
0
16
0
0
9
13
0
15
0
7
3
0
10
9
13
0
0
0
0
0
0
18
0
0
0
0
2
15
0
12
0
4
0
0
18
0
0
0
1
30
0
0
9
12
0
1
14
0
6
0
0
8
4
3
1
0
0
0
0
0
7
3
8
2
8
0
11
0
0
0
0
7
0
17
19
0
0
0
0
0
0
0
0
0
15
0
2
0
7
14
0
0
16
11
20
6
9
10
0
16
7
0
19
0
12
0
1
0
0
7
0
14
0
0
15
44
41
3
0
23
13
0
0
4
0
0
1
5
16
7
7
0
9
0
1
0
0
11
0
0
12
7
17
0
13
0
0
3
0
8
0
13
4
0
1
0
0
4
1
9
0
4
3
2
0
2
0
0
3
0
0
0
7
3
0
9
0
0
8
0
0
30
42
0
0
0
41
0
0
21
4
0
0
0
1
0
6
0
0
7
0
0
1
22
0
0
0
5
0
24
26
11
0
0
0
65
0
0
14
2
0
0
0
0
0
0
4
13
0
0
0
0
6
28
0
0
36
38
3
0
0
0
0
0
8
0
0
84
9
0
0
14
4
0
0
0
0
46
24
0
18
34
0
0
121
0
0
30
17
9
0
1
0
0
0
105
62
0
0
0
0
3
8
12
0
39
0
0
10
56
0
1
0
0
24
13
0
9
0
1
0
0
0
24
16
8
0
0
19
0
0
32
0
0
8
0
22
0
0
39
0
0
0
0
12
0
9
0
15
9
0
0
0
12
0
9
0
0
20
0
0
15
16
10
15
0
10
0
0
14
25
0
11
3
0
9
0
0
16
3
7
0
0
28
0
0
0
12
0
9
0
0
6
0
6
0
0
0
2
20
0
8
11
0
1
0
0
10
0
0
0
6
0
0
0
8
0
9
0
0
5
19
0
0
10
0
22
2
0
8
0
0
2
7
0
7
0
12
0
0
0
7
0
11
0
2
2
1
0
0
1
0
0
5
0
4
8
0
2
9
0
0
22
0
0
0
0
0
6
0
0
0
3
1
2
0
10
1
0
2
0
3
0
2
1
0
0
2
2
0
4
0
6
0
6
0
5
0
4
0
2
4
3
20
33
0
5
20
0
0
25
0
0
0
17
16
0
0
0
0
0
13
0
10
0
13
0
0
3
13
4
0
0
0
13
11
0
3
0
28
0
0
7
0
0
0
5
8
0
0
7
6
0
0
0
10
3
5
0
6
6
0
17
3
4
0
0
14
6
0
0
3
0
2
14
3
0
11
0
4
8
0
6
5
3
4
2
9
5
0
0
0
0
0
10
0
0
9
8
0
0
19
4
0
1
0
0
6
30
0
0
8
27
0
6
8
0
11
3
0
6
0
6
0
4
0
1
0
0
0
0
14
0
0
0
0
7
7
1
0
13
23
16
0
8
10
0
79
41
2
7
0
0
0
0
12
0
0
12
8
12
7
0
0
0
0
3
0
12
8
0
0
3
0
0
0
0
10
0
0
10
0
10
7
0
26
0
19
6
0
7
5
3
3
0
0
6
0
5
0
10
0
5
3
0
0
10
0
0
16
6
0
0
23
55
0
0
13
47
0
10
50
0
36
0
26
0
23
0
0
0
7
0
46
0
0
9
0
0
0
0
0
18
0
0
7
46
0
0
15
19
0
0
0
39
8
0
0
75
7
17
0
11
0
0
7
0
2
0
0
0
5
22
5
8
0
0
0
44
30
0
0
21
0
0
0
0
0
0
20
31
0
0
79
25
0
0
83
0
0
10
15
0
22
5
0
0
38
102
72
0
2
0
0
59
9
39
16
0
0
0
113
8
0
0
0
9
0
0
42
18
7
0
5
0
0
7
0
0
11
0
3
0
9
0
0
14
6
6
0
3
0
10
19
0
20
0
0
0
0
0
0
4
0
6
0
4
0
13
0
0
11
0
0
0
12
37
0
0
0
0
24
0
0
0
20
0
2
4
0
1
0
13
0
5
5
0
0
21
0
0
14
0
5
10
0
0
9
0
10
2
0
0
0
0
0
3
9
0
2
2
5
17
0
0
5
1
0
0
13
0
0
0
12
0
0
0
22
0
1
4
0
0
7
2
7
8
0
0
6
0
10
6
0
12
7
0
0
3
5
0
14
0
6
9
0
23
0
0
8
9
0
0
5
0
0
0
8
7
8
5
0
0
13
0
1
0
15
0
1
4
1
3
0
0
11
0
0
11
4
0
0
3
0
0
0
0
0
0
7
0
10
0
0
3
15
33
0
0
23
0
0
16
0
0
0
0
42
0
0
4
4
3
0
7
0
23
4
0
17
0
5
0
14
11
0
16
14
0
1
9
0
3
5
0
18
11
11
7
0
5
16
0
0
0
0
0
0
0
13
13
5
6
16
9
0
16
8
0
0
0
13
0
0
0
10
8
7
4
0
0
0
5
0
9
0
0
12
1
0
0
0
5
0
14
0
0
7
8
0
0
22
0
0
0
5
0
4
23
0
0
0
15
0
0
0
12
0
11
13
19
2
2
4
0
0
0
0
18
0
0
1
0
9
0
3
23
3
12
0
1
0
0
0
6
0
2
0
11
32
37
0
11
0
11
0
0
0
2
0
0
29
0
4
0
2
2
5
12
14
0
11
12
5
16
0
0
0
0
0
0
11
3
0
17
0
4
0
7
0
22
5
0
0
10
0
2
8
0
2
0
2
0
11
4
0
18
0
0
13
4
0
0
0
0
0
44
0
0
0
47
0
0
27
0
0
0
3
14
0
14
0
0
0
7
0
31
0
0
0
0
21
0
10
0
6
0
0
30
0
0
20
31
0
0
0
0
0
0
3
6
18
0
2
0
0
0
15
0
0
0
17
19
1
0
5
0
17
0
0
20
69
0
0
0
28
20
0
0
5
0
0
56
11
0
0
91
0
0
12
54
25
0
0
0
0
2
3
0
0
0
56
12
0
0
0
0
27
45
69
0
9
0
53
74
0
0
0
12
0
24
3
6
0
49
0
16
14
0
4
13
0
11
0
13
3
4
0
0
0
0
0
5
1
5
0
14
4
0
6
0
0
4
12
0
1
15
0
0
0
0
25
0
7
0
3
9
29
0
12
0
0
0
1
7
0
0
19
20
2
0
0
10
0
0
4
0
0
8
0
7
2
5
0
14
0
7
0
0
2
10
0
24
0
20
3
2
0
3
0
1
11
0
0
0
14
10
0
20
0
14
0
5
0
8
0
0
6
0
0
1
0
24
0
2
0
11
0
0
39
0
1
1
9
9
0
3
0
9
0
0
1
0
3
13
0
0
9
0
2
0
0
0
1
10
0
3
0
18
0
0
0
6
4
0
0
1
0
12
1
2
0
0
5
0
3
9
0
4
3
1
0
0
0
8
6
5
0
13
0
1
4
1
4
0
0
10
3
36
18
0
24
0
0
0
10
0
29
0
58
0
0
0
7
0
0
17
0
0
0
9
0
1
0
7
0
0
21
0
0
0
5
0
12
0
0
5
9
0
0
10
0
2
0
14
2
3
21
0
0
12
0
0
10
0
2
0
3
5
0
6
1
0
6
0
0
0
1
2
2
0
6
0
6
4
0
0
4
5
12
12
0
2
0
0
1
3
0
21
0
0
0
4
0
0
0
0
0
16
8
4
1
5
3
0
0
1
19
0
0
0
26
0
1
0
11
0
0
6
17
0
0
15
0
18
0
0
10
0
10
1
0
4
14
0
0
0
7
0
0
30
36
32
0
1
0
0
18
19
0
0
0
13
2
0
9
5
0
0
10
2
0
20
0
0
30
0
4
6
0
0
15
1
0
0
2
9
8
11
0
4
1
9
0
13
0
0
8
0
0
4
4
0
3
5
0
0
13
0
9
0
0
8
1
3
0
0
15
3
0
4
0
41
0
8
10
0
0
3
2
0
0
0
6
11
42
7
0
0
24
0
46
0
0
12
0
29
0
0
26
15
0
0
19
0
0
0
10
6
15
0
44
0
2
24
0
14
11
0
16
0
0
35
11
1
2
0
0
3
0
0
10
42
18
0
9
0
4
24
24
0
0
0
0
0
21
29
0
128
34
0
0
0
15
47
1
0
4
0
3
0
56
0
0
38
0
0
10
0
55
12
0
22
20
0
39
83
0
0
0
17
0
0
11
2
0
12
0
0
7
0
0
0
21
0
49
0
1
0
8
0
0
30
0
2
0
3
13
0
0
9
0
14
8
7
6
0
9
0
18
0
23
4
0
2
1
11
3
20
0
21
0
0
0
28
9
5
0
5
24
2
0
18
6
0
0
10
0
3
18
0
6
0
0
3
11
0
1
0
7
0
0
4
5
0
16
0
2
0
7
0
0
6
0
0
1
0
0
0
0
11
0
6
10
0
4
2
0
2
10
2
0
0
13
0
0
4
0
10
0
0
0
0
0
1
3
0
5
12
0
2
0
8
0
7
1
0
0
4
0
5
0
5
0
10
2
0
0
0
0
0
0
4
1
0
4
7
0
0
8
0
0
0
2
0
2
12
0
0
7
0
0
2
0
4
0
1
0
0
0
9
0
9
0
2
0
0
7
0
3
33
28
0
0
0
11
9
7
0
0
0
0
0
0
20
2
0
0
14
0
5
0
0
9
0
1
0
3
13
0
5
13
11
0
0
28
3
7
0
7
0
0
1
9
0
13
0
27
0
7
15
7
1
0
19
0
0
0
9
0
0
0
2
0
0
0
5
0
5
11
5
11
0
3
8
6
5
0
4
1
7
0
16
0
0
0
11
2
0
24
0
15
12
0
0
39
0
17
0
0
2
0
7
4
0
7
0
4
0
6
0
14
21
3
13
7
0
0
0
26
10
0
0
8
3
0
0
0
18
1
1
11
0
5
0
15
0
39
0
17
13
0
0
72
38
0
2
11
5
0
0
5
0
0
0
5
0
0
8
32
14
0
0
2
0
9
17
0
14
22
11
0
0
0
0
0
0
6
0
12
0
1
3
0
0
8
0
0
11
0
3
0
5
0
3
6
0
1
15
0
5
0
18
0
10
1
14
0
0
18
0
45
0
0
3
0
24
0
0
0
0
0
24
5
0
39
0
3
0
5
0
0
0
0
4
0
0
4
7
0
8
29
0
0
0
10
5
33
0
0
0
0
0
10
0
0
61
0
0
0
1
3
5
13
0
1
0
0
33
0
1
0
0
9
0
0
41
0
5
0
0
98
11
16
19
12
0
39
35
0
27
73
0
0
0
0
0
84
29
0
0
17
19
0
6
0
0
0
20
0
0
100
0
0
0
40
0
53
0
0
0
24
0
3
0
9
2
0
0
5
5
7
25
0
6
17
0
0
0
11
31
0
0
5
3
8
0
0
34
0
4
0
0
0
0
2
0
7
0
0
19
0
0
0
0
15
10
0
0
20
22
9
0
0
0
29
1
6
0
7
23
0
0
2
0
6
0
0
0
20
0
0
6
0
3
1
0
0
0
7
9
0
0
18
0
5
0
0
0
4
0
0
10
1
0
20
3
5
9
0
1
0
0
0
5
6
1
0
0
0
5
0
5
16
0
2
0
10
13
0
3
0
0
0
21
4
0
0
15
0
0
6
0
9
0
0
4
0
5
4
0
0
9
5
0
0
1
0
0
2
15
0
1
0
10
0
8
4
0
4
9
0
0
1
0
0
8
0
3
0
4
0
7
0
7
0
0
8
0
0
0
0
6
0
0
5
1
8
0
0
7
0
20
44
0
0
0
0
0
6
17
0
20
0
0
0
0
3
9
0
0
0
29
0
6
6
0
26
0
0
0
0
17
1
0
0
11
0
8
4
0
0
39
0
3
0
4
8
0
0
3
0
2
5
15
2
0
2
3
0
7
3
0
0
0
0
1
0
0
0
4
14
0
0
2
3
0
0
0
1
9
14
0
11
0
0
0
7
0
4
8
0
2
0
7
0
20
0
0
3
31
0
20
0
0
20
0
0
0
0
1
5
7
5
0
1
0
0
5
1
13
0
0
1
0
14
0
10
0
0
0
22
1
0
3
0
4
0
41
0
0
5
0
0
11
54
35
0
28
0
0
0
6
0
8
16
0
0
9
24
6
17
0
2
8
0
10
0
0
17
0
3
11
0
0
2
0
0
0
22
9
0
10
2
0
0
0
1
6
2
1
18
0
4
0
4
0
0
0
9
0
0
11
0
0
13
0
15
0
2
0
17
0
0
0
0
0
11
61
3
0
0
20
1
0
0
33
3
0
0
4
0
0
18
0
0
8
0
16
0
3
9
45
0
0
0
17
16
3
0
16
13
4
0
33
0
0
2
40
0
0
7
12
0
0
5
0
12
0
0
19
6
0
0
0
54
0
0
5
0
35
32
0
0
100
48
1
16
0
0
51
10
7
76
3
0
0
0
0
0
104
32
0
0
48
0
0
11
10
0
1
0
0
96
0
0
43
33
31
142
0
0
19
0
0
27
0
13
0
0
0
16
18
0
0
21
13
0
0
26
0
0
0
0
2
6
0
0
0
12
7
0
3
0
9
4
0
36
1
2
13
8
0
11
0
6
0
18
0
0
7
15
1
12
0
0
0
0
12
0
0
0
20
2
0
10
0
2
0
10
0
0
0
17
0
13
0
15
0
9
7
0
0
1
7
8
13
0
0
0
3
2
6
8
2
0
0
6
0
4
2
0
4
13
3
0
9
0
0
2
11
0
0
6
0
2
5
0
0
23
0
10
0
11
8
0
0
0
22
0
0
0
13
2
0
30
0
9
1
0
0
1
1
4
0
0
10
0
0
3
0
0
0
0
7
4
0
0
0
10
0
0
0
2
1
0
2
0
0
11
0
3
7
0
5
0
1
0
4
0
0
16
0
7
0
11
0
0
4
0
2
1
1
0
13
53
0
0
0
7
10
15
0
31
42
0
0
5
0
0
0
0
0
0
1
0
8
0
0
0
21
0
0
7
0
2
2
1
6
0
3
1
11
0
0
0
3
3
31
0
19
1
13
0
2
10
0
21
12
4
7
0
21
0
0
0
3
0
0
0
19
0
21
9
6
0
0
7
8
6
5
3
3
0
7
0
0
7
0
0
10
0
0
19
0
12
15
0
5
0
2
0
0
9
0
15
0
9
0
0
7
11
0
21
0
2
40
0
0
5
0
0
7
0
5
10
15
0
0
8
0
0
0
2
13
0
0
1
9
30
0
0
22
0
0
10
0
58
34
4
0
3
0
0
0
0
40
0
0
0
0
31
7
1
0
2
10
0
8
5
4
9
0
12
16
15
0
0
0
3
0
3
5
4
0
23
0
0
15
0
8
0
7
0
4
1
3
2
9
0
0
0
8
0
0
4
5
1
14
0
5
7
0
21
17
0
18
0
0
17
21
12
0
0
0
0
0
25
29
0
11
16
6
5
9
0
0
43
0
6
0
0
0
41
0
20
6
0
22
8
7
2
0
0
9
21
0
23
0
1
8
1
16
0
0
8
0
0
16
0
14
5
17
0
8
6
9
0
1
0
0
10
130
0
0
0
0
82
10
37
3
0
23
33
0
70
73
18
0
0
0
0
0
75
43
0
1
19
0
0
19
0
0
32
90
136
0
0
0
0
6
43
0
13
0
0
13
0
19
0
0
0
2
14
0
12
0
0
0
23
6
18
0
10
0
3
0
0
20
12
0
0
8
6
0
0
0
0
9
0
0
6
0
4
0
0
10
0
6
0
1
14
40
0
0
0
0
0
0
34
0
0
7
9
0
11
0
4
0
0
12
6
0
7
0
0
6
0
37
0
5
0
5
4
0
0
0
9
0
11
0
0
22
0
13
0
0
8
0
0
0
1
0
0
0
14
0
6
4
2
13
0
11
0
1
0
15
0
11
0
0
1
0
4
0
11
0
4
0
2
0
12
0
3
0
1
7
0
3
2
1
0
0
0
0
0
3
4
0
4
14
0
0
21
0
7
0
0
0
0
9
0
7
0
5
1
0
0
0
4
0
0
1
0
0
0
1
5
0
5
0
8
0
2
1
0
1
1
0
1
0
6
0
0
4
4
3
48
25
0
0
7
0
25
0
6
18
5
0
20
3
15
8
0
13
0
14
0
0
0
12
0
13
0
6
0
0
0
14
0
0
11
0
11
0
10
0
1
0
12
0
24
0
14
1
0
1
0
15
0
8
0
7
2
0
0
0
18
19
1
0
6
0
0
7
4
1
10
0
0
8
0
1
5
1
9
0
8
0
3
10
3
0
6
1
8
13
0
1
0
0
0
0
21
21
7
9
8
7
0
4
0
1
1
9
12
0
0
16
4
0
0
12
0
8
5
0
0
2
0
4
0
12
0
8
0
6
0
0
21
0
0
0
14
0
0
0
0
0
77
26
0
0
8
3
10
21
0
0
0
5
0
23
5
16
1
0
1
4
9
0
3
6
0
2
0
10
5
0
0
0
19
0
0
19
0
7
0
0
9
2
0
0
21
0
0
11
4
2
0
0
0
6
0
0
6
4
0
0
9
0
7
0
20
7
0
0
59
0
0
4
0
42
0
0
26
5
2
0
27
24
0
0
0
0
2
0
9
0
0
0
0
0
0
23
24
0
0
7
0
28
11
0
0
32
0
0
0
10
30
0
0
23
0
0
6
14
0
13
0
4
16
0
11
0
25
13
17
0
8
0
9
0
0
144
0
0
0
0
23
58
0
0
5
0
52
0
0
110
54
0
0
12
0
0
0
10
33
0
43
0
3
0
0
66
0
148
58
0
0
12
0
0
0
4
8
11
13
3
0
0
6
0
0
0
55
0
0
0
1
12
0
4
0
12
0
6
0
28
0
34
0
0
5
0
28
0
0
1
0
28
0
14
0
6
5
16
0
8
0
8
0
9
0
27
32
0
0
11
0
8
7
12
0
11
11
2
3
8
8
0
0
9
2
11
0
0
11
3
0
0
0
6
0
0
3
8
0
3
0
10
0
0
10
0
0
0
12
7
0
7
0
0
16
10
0
0
0
3
6
0
0
1
0
9
6
0
3
0
0
0
10
13
0
7
1
0
2
8
5
2
5
0
6
2
0
21
0
12
0
11
0
0
8
14
0
7
0
0
4
3
0
0
0
7
0
0
0
1
0
0
11
0
5
0
12
2
4
0
15
0
0
5
9
0
0
7
1
4
0
0
4
0
0
0
0
0
4
5
0
2
0
3
4
0
7
0
0
7
27
60
0
0
19
0
18
7
0
20
0
6
0
0
2
0
5
15
0
3
23
0
1
0
13
0
11
0
0
19
1
0
2
3
0
2
10
0
21
14
0
22
2
26
0
0
8
1
0
0
14
10
10
7
11
0
0
0
26
12
0
8
0
15
0
0
0
5
0
2
0
6
5
2
0
8
3
1
18
0
0
0
1
0
0
23
0
5
1
0
0
2
18
14
0
17
10
0
0
0
0
3
0
0
13
0
3
7
0
12
8
0
10
5
7
0
8
8
0
0
6
0
0
42
0
9
5
24
13
0
29
2
6
0
11
5
0
27
11
10
0
10
42
45
8
3
7
0
0
0
0
0
0
0
0
22
12
2
0
16
0
4
0
4
4
8
2
0
10
15
33
0
3
4
0
7
0
2
1
11
0
3
0
4
1
0
1
0
0
8
0
0
24
0
2
6
5
0
10
0
8
0
0
15
7
0
13
7
0
3
55
0
0
34
0
47
0
0
0
0
0
0
8
0
0
0
18
1
0
0
3
6
0
2
0
18
12
16
8
0
0
0
0
0
14
27
0
0
2
0
0
9
1
0
13
11
5
0
22
0
32
17
0
0
0
0
1
0
0
0
2
0
3
0
27
0
13
69
0
0
0
0
0
49
36
0
0
0
31
43
0
28
91
56
0
41
23
0
0
0
29
65
0
38
72
9
26
0
0
35
0
0
0
0
0
0
0
11
2
0
24
0
13
0
0
0
11
0
5
9
0
13
0
0
43
0
18
0
0
38
0
0
1
0
16
0
0
0
0
0
0
0
15
0
11
12
7
0
12
0
0
0
12
0
5
0
14
22
0
0
0
0
0
0
8
13
0
4
0
0
0
0
3
0
5
0
1
0
0
17
0
0
21
0
0
30
0
0
0
1
0
6
19
0
0
0
1
0
0
0
0
0
15
6
0
0
21
0
4
0
4
5
0
17
0
3
0
0
0
7
0
0
5
0
0
2
2
0
0
11
8
0
0
5
0
4
0
6
7
0
15
0
5
0
0
0
3
0
14
0
9
0
6
0
0
14
4
0
4
0
11
0
0
0
4
0
10
0
4
0
0
0
3
0
3
0
6
2
9
0
2
0
0
5
0
1
0
7
7
2
0
0
0
10
0
5
1
0
4
0
5
3
19
65
0
0
0
14
0
0
20
12
0
2
18
2
0
19
0
2
0
19
0
11
0
8
0
18
0
28
0
0
0
0
6
0
17
0
3
0
13
5
0
0
8
0
5
0
31
0
0
16
12
0
2
0
7
0
2
0
14
0
3
0
2
0
0
0
6
11
5
0
6
11
0
6
0
11
0
14
0
3
5
6
0
0
2
0
0
6
0
0
0
1
0
0
1
0
11
18
0
15
0
0
0
0
0
10
2
0
10
21
0
0
6
0
2
17
0
0
24
8
0
7
0
0
5
0
0
3
0
0
0
14
0
15
0
7
34
0
0
11
0
0
49
37
0
7
0
0
7
0
6
0
2
0
0
0
31
0
0
1
7
4
0
2
3
0
9
2
12
0
4
0
0
0
16
0
25
0
9
3
0
0
7
0
0
9
0
0
10
1
4
7
0
0
0
0
2
0
2
0
15
4
0
0
5
19
19
0
0
7
52
0
0
8
8
42
0
0
0
0
0
25
6
0
3
21
0
2
12
0
11
0
0
0
34
16
24
0
0
0
2
18
0
36
19
0
0
0
10
9
0
0
22
6
0
15
14
0
0
33
8
10
10
0
1
0
34
0
0
5
0
21
7
0
8
0
0
1
0
9
0
0
0
37
16
41
0
0
13
39
0
0
17
98
10
25
44
0
0
0
0
39
1
0
56
54
15
0
0
0
0
0
41
2
0
0
0
0
11
0
54
44
0
1
0
0
11
34
0
11
0
6
2
0
0
0
0
0
8
0
12
0
14
1
12
0
0
25
8
0
7
11
0
0
3
2
0
8
0
1
0
39
0
3
0
28
34
3
0
0
0
0
22
0
36
0
0
10
10
2
12
5
0
4
0
6
0
8
11
0
3
11
0
13
8
0
0
1
7
3
0
6
0
0
13
0
0
0
0
17
0
11
0
0
4
0
0
0
5
3
0
6
0
5
0
1
0
0
0
8
0
0
0
27
0
0
6
9
0
2
0
8
5
0
3
2
24
0
0
16
0
0
0
7
0
5
4
0
5
10
0
13
0
3
0
0
4
0
8
0
0
0
5
0
0
0
8
4
0
0
8
7
0
0
10
0
0
5
0
9
0
0
5
0
5
0
4
0
0
0
0
7
0
1
0
0
4
0
8
0
4
0
9
50
0
0
0
0
23
0
29
0
12
3
15
0
15
0
0
11
0
40
0
0
10
4
0
11
0
0
0
11
11
0
15
0
0
0
14
0
0
5
0
13
0
31
11
0
0
7
21
2
0
0
8
2
0
0
12
4
7
0
8
0
0
0
0
1
7
3
9
0
9
0
0
11
2
0
3
0
0
4
6
0
4
6
0
5
14
0
0
7
0
0
0
0
2
0
1
0
0
4
1
0
18
0
0
5
0
3
7
25
0
0
0
0
9
0
9
0
0
8
0
2
0
10
0
6
6
0
10
5
0
0
11
0
25
0
0
0
6
3
0
6
78
41
6
0
17
0
0
0
0
0
0
0
0
0
37
14
0
19
0
6
0
15
3
3
0
10
12
0
74
0
0
0
0
0
0
0
11
0
17
0
0
2
3
4
1
0
0
7
0
2
7
0
5
5
0
12
9
0
0
0
7
6
13
8
8
0
0
46
31
0
0
0
9
47
0
0
0
11
24
11
0
0
23
0
29
0
0
0
0
0
0
0
73
0
0
0
3
0
0
0
0
49
27
0
17
13
0
0
4
11
9
0
0
15
0
17
26
10
0
0
21
10
0
0
0
12
33
0
34
0
0
0
0
0
0
0
16
0
0
23
0
0
0
61
38
0
0
23
28
0
0
0
45
14
66
0
0
59
88
0
50
0
0
73
37
9
0
0
0
0
10
0
9
0
1
16
0
16
0
0
3
0
11
0
0
0
0
0
1
0
0
23
0
17
0
0
6
0
0
9
0
0
0
0
0
19
3
0
0
5
14
6
16
0
0
0
8
0
0
0
3
4
7
22
0
0
0
0
14
0
11
0
1
0
0
17
0
14
0
6
3
3
6
0
18
0
0
0
6
0
10
0
7
0
0
7
4
0
3
0
3
0
7
0
0
15
8
0
0
16
0
0
7
0
0
8
1
0
0
14
0
4
0
1
7
10
0
0
8
0
20
0
0
14
0
0
0
7
4
4
0
4
1
0
0
0
4
0
1
6
0
6
0
0
5
0
0
19
0
1
11
2
0
5
0
4
0
0
9
0
12
0
2
3
2
0
12
0
0
0
6
0
0
5
8
0
0
0
0
15
0
9
0
4
0
0
0
9
0
0
7
0
3
0
0
0
0
6
0
1
10
37
58
0
0
0
15
0
24
0
0
8
0
15
0
13
10
20
0
0
0
25
0
22
0
16
0
31
0
0
9
0
0
20
0
10
0
0
0
2
0
0
0
0
0
5
0
0
9
0
6
2
0
0
0
11
13
9
6
6
16
0
0
0
3
3
3
0
11
0
2
0
11
0
5
13
9
8
11
0
6
0
0
0
3
0
0
10
0
0
0
52
0
0
16
22
0
0
0
0
9
0
0
19
0
31
4
20
0
0
5
0
6
25
0
10
0
3
22
0
3
6
0
0
9
0
0
15
3
0
14
0
0
17
0
0
0
12
1
4
3
0
49
38
0
2
0
10
0
8
10
0
0
0
0
0
9
1
11
1
3
11
0
12
0
3
0
6
0
11
7
0
0
0
2
23
0
14
0
1
6
8
2
0
8
0
6
10
7
2
0
8
0
0
0
4
1
0
4
6
0
4
2
0
16
33
0
0
24
18
8
0
3
24
0
44
2
0
16
0
2
20
0
0
0
0
0
7
0
7
0
0
0
39
48
0
0
22
0
0
0
5
0
28
12
0
1
0
11
11
0
9
0
0
0
49
10
0
9
0
12
3
0
18
17
0
0
0
43
0
0
32
26
19
0
17
0
0
7
19
31
18
0
0
0
0
76
33
0
0
21
32
26
0
0
34
56
55
0
0
108
0
33
20
0
0
24
53
3
17
0
0
21
0
0
3
0
0
0
31
1
0
0
1
0
0
28
2
8
0
0
0
2
0
4
0
0
0
3
0
10
0
0
9
16
10
0
15
0
0
19
0
0
22
0
0
8
0
11
0
17
0
2
9
29
17
4
0
0
0
0
17
21
0
0
0
28
0
14
12
0
3
0
1
2
0
0
0
8
9
0
1
1
7
0
5
5
0
0
2
0
0
9
4
0
18
0
1
2
0
7
18
0
10
0
15
0
0
0
8
0
5
0
9
0
0
2
0
0
11
2
16
0
0
13
0
5
3
0
2
7
0
4
0
0
7
0
0
17
0
0
1
0
0
9
0
6
15
0
5
0
0
0
4
4
0
0
13
3
0
0
0
18
0
7
0
2
0
11
0
9
0
0
0
6
9
1
3
9
0
5
0
7
0
0
7
1
1
5
0
3
0
6
0
0
10
1
3
0
4
0
5
7
26
52
0
0
9
10
0
8
0
42
0
0
2
7
0
7
3
9
0
8
3
0
0
29
0
0
0
16
0
0
10
0
0
0
0
8
13
0
0
19
0
1
0
8
0
0
9
0
16
0
0
0
0
23
21
0
10
12
10
0
9
0
7
0
0
10
9
0
2
9
0
1
3
0
0
0
6
0
8
0
0
12
0
14
0
3
0
0
0
7
8
0
0
6
3
0
1
23
0
0
17
4
0
25
0
8
0
10
0
0
0
2
0
0
7
0
0
0
6
12
2
0
11
3
1
0
7
0
1
3
0
23
0
11
0
0
1
0
0
1
8
48
59
12
2
1
0
0
13
0
25
9
0
15
0
16
20
0
0
0
0
10
0
0
3
0
0
14
26
0
0
0
0
22
0
1
15
14
3
0
9
0
11
0
3
0
0
3
0
2
0
0
0
1
7
0
0
6
0
7
2
0
2
1
26
0
0
0
21
45
0
0
0
2
16
0
0
0
10
32
0
0
0
0
4
2
1
0
0
0
0
58
10
0
19
0
0
22
1
5
0
0
14
2
0
0
5
0
0
20
41
4
10
0
0
12
0
0
0
21
4
0
16
5
0
0
0
0
3
0
0
0
2
16
10
4
0
0
0
11
0
13
0
0
0
9
38
42
0
0
26
37
26
0
0
0
80
46
0
0
82
0
6
58
0
0
50
65
13
22
0
0
7
0
15
0
8
28
0
2
0
39
0
0
8
0
0
0
0
0
14
8
6
4
0
7
0
10
6
0
0
0
0
0
0
11
0
0
0
11
0
12
0
0
22
0
12
2
0
7
3
0
7
38
0
0
1
0
0
0
14
0
0
0
12
2
3
0
0
0
0
0
32
0
5
0
4
0
0
5
2
0
0
8
0
3
6
0
0
7
4
7
3
0
7
3
0
0
5
0
0
0
1
0
0
0
11
0
9
0
11
0
9
7
3
0
1
0
3
0
0
10
2
0
11
0
0
8
0
0
12
0
3
0
10
0
0
11
5
2
9
5
5
0
10
0
0
0
3
1
14
0
10
0
7
1
0
0
7
5
4
0
0
0
0
0
12
0
7
0
8
0
0
10
0
3
0
4
0
8
0
0
1
1
0
2
0
0
10
0
2
0
12
0
0
0
0
0
0
5
0
0
13
61
0
0
1
0
13
1
0
0
0
0
2
1
32
0
0
14
0
0
3
0
12
0
4
7
8
0
1
0
0
6
1
10
0
26
0
0
16
0
14
0
7
0
0
0
0
0
51
0
0
0
20
5
16
4
0
1
7
3
0
0
0
0
11
0
1
1
5
0
3
4
9
10
5
1
10
0
1
20
0
0
2
0
0
0
0
3
0
4
11
0
5
4
0
9
0
0
0
15
9
12
27
0
26
0
34
0
11
1
0
8
0
0
14
3
0
8
9
6
0
9
8
0
9
12
0
1
5
7
0
0
0
9
0
0
6
1
0
1
0
48
48
0
0
0
8
0
4
9
0
0
0
0
20
1
4
13
9
0
7
0
3
8
1
0
2
21
8
5
0
0
0
0
15
0
0
1
0
13
0
14
0
3
3
8
1
0
5
7
5
1
0
0
0
19
1
2
0
0
8
0
13
5
31
0
0
0
24
45
0
0
0
0
11
0
0
0
16
1
0
17
2
16
0
38
0
0
0
55
0
6
0
28
0
0
8
24
23
0
14
4
13
21
7
0
3
0
2
0
0
0
8
0
2
8
8
14
7
0
0
0
21
1
29
25
0
9
3
0
25
0
5
21
4
0
40
0
9
10
0
0
0
0
4
0
0
26
27
0
0
47
61
16
0
0
0
35
46
0
0
53
0
36
9
0
0
0
0
45
0
4
0
0
0
11
7
0
0
0
12
0
8
6
45
25
28
44
0
15
0
24
0
0
0
9
2
0
0
0
0
5
0
25
0
13
0
5
19
0
18
0
31
0
0
11
0
8
0
0
12
22
33
0
0
0
0
0
0
0
0
8
0
22
0
13
0
0
0
18
5
0
0
0
0
10
0
2
0
3
22
0
18
0
0
0
2
4
6
0
0
3
3
0
1
1
8
0
0
13
0
0
6
7
8
9
0
1
0
10
0
4
0
15
0
23
17
0
0
8
0
0
0
10
0
0
0
2
2
5
0
0
0
1
0
10
0
10
1
0
0
0
0
12
1
10
0
0
4
0
0
14
1
0
0
0
18
0
0
0
0
5
20
0
0
3
0
0
0
0
0
0
6
0
5
1
0
8
2
5
1
4
0
7
0
0
0
1
0
1
5
6
0
0
0
2
0
3
2
1
0
3
8
46
42
0
0
5
0
6
0
0
23
0
9
0
0
3
12
4
4
0
8
0
12
4
0
0
0
0
0
14
20
0
0
0
0
0
12
10
0
0
1
7
0
0
0
25
0
0
0
6
0
9
0
14
4
12
0
7
0
19
7
2
0
0
10
0
9
0
0
17
0
2
0
7
2
12
0
18
0
0
12
0
27
3
0
0
0
28
7
0
0
2
24
0
12
12
7
0
0
2
0
0
0
0
2
6
0
9
0
13
0
0
14
32
0
0
39
0
0
0
0
1
4
0
25
0
17
2
0
10
0
11
0
26
0
8
12
1
0
0
1
54
31
0
0
26
0
18
2
0
2
6
0
7
0
0
2
18
0
7
0
3
2
6
0
9
20
5
0
0
5
0
3
0
1
0
6
4
17
0
7
0
2
14
0
0
8
0
10
0
3
0
7
9
0
0
9
0
13
6
2
3
5
19
9
0
4
0
17
72
0
0
0
14
0
50
0
8
0
15
0
9
0
0
0
0
0
11
35
0
0
0
5
0
8
0
0
27
0
0
0
0
0
0
8
7
0
0
0
29
0
32
0
10
10
0
6
0
0
9
27
21
0
0
40
0
5
0
0
9
0
0
0
0
18
34
3
0
0
5
0
4
0
10
3
0
0
0
50
30
0
0
27
65
18
8
0
6
52
39
0
7
31
0
60
35
31
5
0
0
0
0
0
48
4
5
7
3
0
0
0
31
0
0
0
0
0
0
0
0
0
21
0
0
5
0
0
12
17
0
8
16
21
0
0
4
0
0
7
6
0
11
0
4
4
1
0
0
42
0
25
3
12
0
0
0
2
0
0
0
9
0
0
23
0
0
7
0
5
0
11
0
3
19
0
0
0
0
0
0
0
2
0
0
0
2
0
4
0
10
0
4
6
0
0
12
0
0
0
8
3
0
5
0
0
2
2
0
0
0
2
6
3
0
0
0
0
2
0
0
4
2
0
6
5
0
12
0
0
0
8
9
6
0
6
0
9
0
4
0
0
7
12
4
0
2
0
11
0
0
9
0
0
5
5
4
0
0
11
0
1
3
0
0
5
0
10
0
1
0
3
0
1
0
0
4
0
0
0
0
9
0
2
0
1
1
7
0
0
3
0
2
9
2
4
3
3
0
0
0
2
0
3
23
54
0
0
0
8
0
13
0
4
9
0
4
0
0
7
0
2
27
0
9
0
0
0
7
0
9
14
0
3
4
0
13
0
0
13
7
1
20
0
7
0
0
0
0
4
9
0
0
15
12
28
2
4
0
0
0
18
0
0
0
0
1
11
6
0
9
0
6
6
7
8
0
20
2
17
15
0
0
0
0
0
0
13
0
3
0
13
0
15
4
4
19
0
0
0
1
5
8
0
20
0
25
1
14
7
5
0
0
1
4
0
0
0
34
0
0
35
0
9
0
15
11
0
0
1
6
0
3
4
14
0
0
0
14
0
0
22
0
0
63
58
0
27
13
8
0
6
0
0
3
0
0
0
6
14
0
15
16
0
7
0
2
0
8
6
2
0
11
0
0
0
5
1
12
0
0
0
0
2
0
2
1
0
14
0
6
4
0
1
0
0
0
0
9
4
0
2
0
0
0
18
14
3
0
37
0
46
47
0
0
9
0
3
23
0
0
0
57
0
0
24
6
0
0
27
21
0
4
18
0
0
9
0
6
6
8
0
0
17
0
0
0
36
18
0
0
0
21
0
6
0
27
0
0
0
0
0
0
21
0
8
0
0
0
0
0
0
29
0
0
2
0
12
55
0
2
0
0
56
0
0
0
0
8
23
0
0
24
13
37
0
10
28
24
0
5
0
9
0
0
16
15
51
0
86
75
0
2
0
3
0
0
2
4
22
0
0
0
10
0
9
4
0
0
0
13
0
21
5
0
0
16
0
31
0
0
0
0
0
11
0
0
0
0
8
0
0
0
11
0
0
0
11
0
4
0
0
10
9
29
0
0
0
0
0
0
15
28
0
21
14
0
16
0
0
6
0
13
0
5
0
3
0
0
4
0
7
0
0
0
3
11
0
5
9
0
11
0
20
0
0
20
0
15
0
2
1
0
14
0
0
1
0
0
8
0
3
0
11
0
0
9
0
0
2
7
5
0
0
2
29
0
0
10
3
7
0
0
11
0
0
0
3
0
0
2
0
0
2
0
0
0
5
0
0
8
6
15
0
3
6
0
0
0
1
4
6
1
4
7
9
7
0
0
0
9
6
7
4
6
5
0
1
7
3
2
0
3
0
8
3
0
6
0
2
3
0
0
5
0
0
0
10
0
0
0
9
0
10
0
0
10
76
0
0
0
0
0
0
2
13
3
0
7
31
0
0
3
0
0
10
9
0
12
8
0
12
0
5
0
26
0
0
0
16
14
0
2
14
0
38
0
0
0
49
0
0
0
0
28
4
25
10
1
10
0
34
6
10
0
0
0
0
6
8
0
7
2
5
8
0
6
0
17
7
1
10
0
6
0
31
0
14
0
26
0
25
0
3
5
12
0
0
0
12
0
0
0
9
1
0
19
10
2
0
0
0
1
0
0
0
10
0
12
2
9
0
0
0
0
14
0
0
8
0
33
0
2
11
7
5
0
0
5
0
40
0
0
0
0
0
70
70
0
7
11
0
13
0
20
0
0
1
0
0
0
0
0
9
0
4
1
0
18
0
6
9
5
0
15
8
0
0
29
0
3
1
0
11
0
17
0
0
10
3
0
0
6
1
0
0
0
0
5
0
16
0
19
0
0
9
8
0
26
0
28
0
0
32
32
30
0
11
0
27
0
0
30
4
4
0
0
21
0
42
36
24
11
0
0
0
4
0
7
0
0
29
16
4
0
0
27
14
0
8
16
0
0
0
11
0
0
0
0
43
0
0
87
0
23
1
0
2
1
0
9
0
19
0
18
14
5
0
0
0
0
22
0
0
0
91
0
0
36
6
0
21
0
0
0
0
8
44
0
0
46
15
0
0
0
9
0
0
73
0
0
0
56
12
68
0
0
4
0
2
20
0
6
39
0
29
0
11
0
26
0
0
0
33
0
0
0
7
0
33
0
0
3
0
0
17
15
7
0
27
0
18
0
15
21
0
7
9
0
0
18
0
23
0
34
26
6
0
0
8
0
0
4
2
0
11
0
8
3
4
0
4
12
0
1
10
0
4
0
6
0
0
10
0
3
2
9
14
0
1
12
0
0
2
0
1
4
8
0
0
9
0
3
0
0
0
8
0
23
0
5
7
0
2
4
0
15
0
6
4
0
0
15
0
14
0
0
0
14
0
11
0
21
0
4
0
0
4
6
0
8
11
0
6
0
0
0
0
1
11
14
4
0
0
1
0
0
4
0
0
12
0
13
0
0
0
13
0
0
0
7
0
7
0
7
0
0
0
6
0
2
0
2
0
11
0
4
0
9
2
1
1
1
3
6
0
0
11
0
0
5
3
4
0
0
0
2
9
8
39
6
0
3
0
0
1
8
0
2
15
0
0
9
8
0
26
0
0
8
0
18
11
0
0
1
0
0
0
20
0
32
0
0
0
0
0
6
2
4
16
0
0
0
0
0
0
15
6
32
2
11
0
5
10
8
12
0
0
0
11
12
3
10
1
2
7
0
0
16
9
17
0
26
0
0
8
0
7
0
0
26
0
0
7
0
14
0
0
11
18
0
0
20
0
4
0
0
6
11
5
0
53
0
13
0
28
0
16
0
14
0
3
8
0
16
4
0
5
0
2
0
6
0
0
3
0
0
11
0
4
0
0
0
9
9
0
0
17
71
102
9
17
0
8
14
0
0
11
4
14
0
12
0
1
6
12
0
8
11
0
1
13
0
14
0
4
0
1
0
0
0
10
5
0
21
0
8
5
0
7
0
7
13
0
0
0
4
6
0
12
0
23
0
23
0
0
0
10
0
15
6
0
13
0
0
40
28
0
33
4
0
0
12
0
13
0
7
0
6
0
14
0
61
0
0
0
20
1
25
0
0
0
21
0
0
30
5
23
0
0
8
17
0
0
2
10
22
2
0
6
4
13
0
0
0
7
14
22
0
0
2
0
0
5
6
0
0
11
0
0
20
0
0
0
38
0
0
26
17
3
0
0
7
0
9
0
0
0
0
24
84
0
0
36
2
27
20
0
0
56
0
13
23
0
0
10
71
0
0
14
2
9
10
19
0
4
0
0
0
7
0
0
0
12
6
0
2
0
36
13
21
0
11
0
0
0
10
20
3
0
0
11
10
0
7
1
0
4
17
0
0
0
16
0
0
50
18
0
0
8
0
0
0
0
7
0
13
14
0
0
15
0
0
0
0
3
0
0
0
0
6
4
0
4
4
3
0
7
0
0
9
0
0
0
7
0
3
4
0
3
0
0
9
4
0
11
8
1
0
0
12
0
2
1
15
0
15
0
0
0
0
12
0
7
0
17
0
10
1
0
0
0
8
0
0
13
0
12
0
2
0
2
4
0
1
0
9
0
0
5
0
0
0
0
2
8
0
0
0
5
1
0
0
13
0
0
5
2
0
0
12
0
2
6
6
0
0
4
0
0
1
0
1
5
7
0
0
0
0
0
2
0
0
0
0
4
0
7
0
0
5
0
1
0
6
0
5
0
0
2
8
33
43
0
0
0
24
0
14
0
0
8
0
11
0
23
0
17
0
7
0
0
0
0
19
3
3
18
6
14
0
0
0
0
0
46
5
0
0
5
0
0
0
10
4
0
0
0
0
25
19
14
11
0
8
8
6
0
0
0
0
0
11
2
0
0
3
4
9
16
0
9
22
17
1
0
0
0
0
0
19
0
0
0
5
0
0
5
12
11
0
0
0
5
0
0
8
0
12
0
0
35
0
0
8
0
3
0
0
13
10
8
0
3
0
5
0
0
6
0
0
0
12
26
0
7
0
0
9
7
7
0
19
19
4
2
0
22
0
0
57
106
13
0
11
0
0
0
12
0
0
0
9
4
0
0
6
2
0
3
1
0
4
0
24
0
12
0
12
10
0
0
12
0
9
2
12
0
1
3
9
0
6
0
6
0
0
0
0
0
3
0
5
0
12
0
9
0
5
0
7
21
3
0
63
0
0
24
7
0
0
47
0
0
0
7
16
5
0
28
27
21
0
10
0
0
32
0
0
19
0
7
0
25
0
11
0
10
0
13
0
40
0
12
16
0
10
22
15
0
5
2
0
31
0
0
26
0
6
1
0
11
0
13
0
4
18
0
0
13
10
17
0
0
0
13
48
26
0
0
49
0
0
0
4
0
16
10
0
32
1
0
48
69
0
0
55
54
40
0
0
0
53
0
4
29
0
81
80
0
0
0
17
0
0
0
18
0
2
0
2
8
21
3
0
13
5
10
0
0
1
0
0
0
0
0
0
10
5
14
0
0
0
0
1
0
10
0
12
0
0
0
11
0
6
12
18
37
0
0
0
0
84
0
0
29
0
0
17
0
21
3
0
9
0
4
33
0
13
0
0
0
0
7
0
15
0
0
13
0
23
0
1
0
1
14
0
0
4
0
5
0
0
11
5
0
6
0
0
1
0
4
0
0
0
1
10
0
0
0
0
9
0
14
7
0
0
3
3
0
16
0
13
4
0
0
2
16
0
0
11
0
0
2
7
14
0
6
4
0
2
0
8
1
3
6
0
5
0
8
3
0
3
8
7
0
0
4
9
11
0
0
0
8
0
0
11
4
4
6
6
0
0
0
1
0
2
0
11
0
0
5
1
4
0
8
0
2
0
3
0
1
0
9
0
0
3
10
0
5
4
0
5
24
74
0
0
10
0
0
1
18
5
6
8
0
6
0
5
5
0
4
11
18
0
0
5
0
2
10
0
5
0
0
30
0
2
0
0
11
3
0
16
0
19
0
0
14
0
0
0
20
9
12
0
12
0
9
5
0
0
0
9
2
1
0
11
7
1
9
0
5
25
0
0
7
0
0
0
32
0
0
0
22
0
38
0
9
0
17
0
0
0
8
0
0
16
0
16
5
3
0
14
0
0
0
13
0
5
4
16
0
0
0
18
0
8
5
1
0
0
4
27
0
0
7
6
11
6
15
0
0
0
0
7
0
4
0
4
0
0
0
78
88
0
0
18
6
15
4
0
28
14
0
0
12
0
0
1
8
0
7
0
1
6
0
0
8
9
14
0
14
0
0
11
19
0
0
4
10
1
1
0
0
0
0
0
0
11
6
0
4
0
10
0
0
4
5
2
0
0
0
1
21
0
0
4
0
3
11
32
0
12
46
0
0
8
0
0
30
0
0
38
0
0
0
3
0
0
0
19
8
0
10
17
0
0
0
0
0
3
2
0
0
22
0
3
0
32
15
0
0
0
4
16
33
0
9
35
0
10
11
49
0
0
5
14
0
0
1
0
2
10
0
11
0
0
0
0
57
19
0
17
0
0
23
0
0
0
1
0
30
0
0
0
0
52
45
17
13
51
22
22
0
0
0
0
73
68
71
0
0
0
14
18
0
25
0
17
0
0
4
1
0
0
0
25
0
0
0
18
0
0
0
15
5
2
0
1
0
22
0
4
0
0
0
14
0
20
0
0
0
37
1
0
4
10
32
22
16
0
3
0
2
0
67
0
2
0
19
0
21
0
0
0
9
0
14
0
6
0
17
0
8
7
0
8
0
0
12
0
7
0
0
8
0
0
0
8
0
2
12
0
12
0
8
0
14
0
0
1
8
0
6
1
6
0
0
0
0
9
1
0
14
0
16
0
4
3
0
0
3
0
0
0
0
0
2
2
4
0
15
0
22
0
5
2
0
0
20
0
11
0
12
0
0
0
0
0
12
2
0
0
4
5
0
0
3
12
0
6
0
9
0
0
0
7
0
0
0
0
3
4
3
0
13
0
7
14
2
0
8
4
0
0
0
5
5
0
0
0
7
0
9
0
0
5
0
0
0
9
1
0
6
0
8
43
0
0
0
5
1
13
0
7
3
8
0
2
10
0
2
0
2
0
0
0
39
0
0
0
0
12
0
30
8
0
26
10
0
11
2
13
0
0
0
9
0
0
0
0
1
9
13
10
13
2
0
9
0
6
0
0
7
0
11
5
0
0
0
5
8
0
12
23
19
4
0
0
0
0
0
2
0
4
0
12
0
0
16
32
0
0
11
0
0
16
2
0
22
0
0
11
5
17
24
6
2
0
0
17
0
11
0
10
3
0
0
12
0
11
0
13
0
2
11
24
0
0
0
7
0
0
0
11
0
29
0
0
5
0
10
0
23
67
77
0
2
0
2
0
3
0
10
0
0
0
10
10
0
12
3
1
0
13
1
0
2
10
7
5
4
0
8
0
0
0
14
0
0
0
4
4
0
5
11
0
9
4
4
0
0
3
5
2
0
0
7
0
5
0
0
2
0
0
18
3
0
14
0
6
16
15
0
0
8
12
0
3
0
17
7
16
0
0
0
0
0
0
13
30
0
0
0
6
0
0
26
11
0
37
25
0
8
0
12
0
0
0
0
25
0
0
0
13
0
0
24
0
0
26
0
0
4
0
7
19
0
0
11
0
20
0
0
0
28
18
0
12
0
0
0
52
0
28
0
20
11
0
16
34
9
0
0
0
11
39
0
0
0
0
28
0
49
66
26
0
0
64
0
0
0
0
0
10
10
0
0
0
3
0
0
4
9
0
11
5
25
0
0
0
5
0
0
2
0
23
0
0
0
0
9
0
0
0
5
0
42
4
0
6
7
26
0
0
0
21
0
37
48
0
0
0
0
0
0
0
0
0
10
4
12
11
0
0
6
0
10
7
0
0
5
3
0
9
0
0
9
1
0
0
8
3
0
6
0
0
0
18
0
14
0
34
0
20
5
1
6
0
0
0
0
4
4
7
0
0
13
0
7
7
0
0
16
0
5
4
0
0
0
7
0
3
5
0
6
4
0
0
0
6
0
6
0
9
0
0
7
0
10
10
0
14
0
0
0
4
8
0
12
6
0
0
8
2
2
0
2
9
4
0
4
0
0
0
0
0
0
0
6
0
0
9
0
0
13
0
0
1
1
0
7
0
0
6
0
0
0
3
3
0
7
0
0
2
0
9
0
3
7
0
1
0
0
8
0
0
10
42
21
0
0
0
1
1
0
0
10
0
20
0
0
5
0
23
4
15
14
0
1
0
32
0
16
0
0
0
0
6
0
0
15
0
29
0
0
6
0
0
32
0
24
0
0
6
19
4
7
0
0
1
8
9
0
14
1
4
0
10
18
4
6
4
29
8
0
20
1
0
0
0
2
7
2
0
6
0
0
9
1
0
14
13
3
0
0
0
18
0
5
0
0
20
0
0
11
0
0
0
0
0
0
2
0
0
10
0
0
0
11
0
12
8
0
0
0
8
0
24
6
0
0
10
0
0
6
9
15
4
27
0
0
1
0
0
11
65
88
0
1
15
4
0
0
13
0
0
14
0
0
0
0
6
0
9
0
0
1
5
4
4
1
4
0
9
13
0
0
0
10
0
4
0
0
7
6
0
0
4
0
6
0
0
0
14
0
7
0
0
0
9
0
7
0
0
8
8
13
10
0
40
0
2
14
28
0
7
28
0
31
0
13
23
0
0
0
17
0
0
21
0
0
0
0
16
0
26
0
0
0
1
0
14
1
3
4
0
7
0
2
11
0
6
0
5
1
0
38
0
53
0
0
5
10
0
3
0
10
1
0
0
6
0
11
0
0
20
0
2
19
0
0
3
0
0
14
6
26
0
11
0
0
17
0
50
0
0
8
0
63
0
0
0
65
0
0
41
55
1
0
61
0
0
0
0
7
0
1
0
19
28
0
3
30
16
0
11
0
26
0
0
3
0
0
12
0
22
9
11
0
10
0
18
0
0
24
22
0
0
11
0
13
0
23
0
5
11
0
7
31
16
0
0
0
0
0
0
0
24
0
24
0
4
13
1
12
0
0
4
0
0
8
0
3
0
0
13
0
0
0
0
11
2
0
5
14
0
12
0
7
0
0
0
0
0
4
0
0
0
0
11
0
18
0
0
0
0
0
0
0
0
8
3
2
0
0
0
0
11
0
3
1
0
15
0
4
0
3
3
7
0
16
0
3
14
3
2
0
1
0
9
0
2
0
1
0
4
3
9
7
0
0
0
10
0
7
0
5
9
0
0
0
12
0
10
0
0
8
0
9
7
2
0
0
21
0
9
0
0
0
7
0
0
0
0
4
9
0
6
0
1
0
0
11
0
2
0
0
0
4
0
0
6
0
0
0
0
7
6
0
30
47
0
0
7
0
12
2
20
2
24
0
9
0
0
4
0
0
6
0
29
0
0
10
0
0
12
4
0
3
13
15
2
0
11
0
0
1
0
0
15
0
0
1
0
0
0
0
3
0
13
9
3
0
0
11
0
5
2
0
4
13
0
16
18
0
18
9
0
0
0
0
0
0
0
0
1
0
0
7
5
20
0
26
0
0
4
0
9
0
0
3
0
0
11
4
21
0
8
41
0
0
0
6
0
13
17
12
0
0
11
0
0
0
0
18
2
12
0
21
0
1
20
22
0
0
4
0
2
11
0
0
0
0
7
4
0
3
53
90
0
21
0
0
21
12
0
0
10
0
0
13
15
0
19
5
0
0
6
0
3
3
0
9
22
0
7
5
0
0
34
0
0
0
15
1
0
0
14
11
0
0
9
0
0
4
5
9
0
12
0
13
0
3
0
3
6
1
0
36
18
0
0
17
18
3
14
0
16
20
0
0
1
0
30
2
3
0
0
0
13
0
0
37
0
0
11
0
3
0
12
14
0
0
16
5
0
0
39
0
15
16
0
6
0
0
0
0
0
0
0
1
0
4
25
0
0
25
0
13
48
0
13
0
17
0
9
0
0
45
0
48
4
0
0
1
0
0
12
60
0
0
30
0
0
0
75
37
0
0
15
25
43
0
0
86
0
0
0
1
42
31
0
69
0
0
0
0
0
24
0
0
0
23
0
0
28
0
0
6
8
0
9
7
0
0
0
0
0
0
7
5
0
0
27
12
0
0
0
4
5
6
0
0
11
1
0
0
3
19
55
31
0
0
0
0
0
0
0
17
14
12
0
12
0
0
2
0
18
0
11
3
9
0
3
6
5
0
15
7
0
21
6
0
13
0
12
2
0
1
0
10
0
8
9
0
0
4
0
8
0
0
2
0
13
0
13
2
5
0
9
10
0
20
0
0
4
5
0
8
0
0
9
0
4
0
12
0
13
0
9
0
6
0
3
0
0
0
15
0
5
0
0
12
3
0
0
2
3
0
0
4
0
0
12
0
0
12
1
0
0
7
13
0
14
4
7
0
3
0
4
0
3
18
0
1
0
0
2
0
0
16
0
0
15
0
0
0
0
1
3
1
2
8
2
0
0
3
8
1
2
7
0
0
7
0
0
6
0
0
1
12
3
63
3
0
0
5
0
0
0
9
0
4
6
11
16
0
15
0
0
8
0
3
8
3
0
0
9
0
0
0
8
0
0
7
6
9
0
1
7
16
0
17
0
0
0
0
0
1
9
15
1
0
0
0
0
0
10
0
11
4
0
24
0
5
0
15
13
0
18
0
6
21
0
1
4
12
0
0
11
12
0
14
6
0
6
0
17
0
30
0
32
1
0
2
0
0
0
6
0
0
11
14
0
0
16
0
0
0
7
18
0
0
0
2
9
0
0
0
20
0
10
0
0
0
13
0
0
8
0
25
0
16
8
0
0
20
10
4
76
87
0
1
0
13
0
0
13
0
0
6
0
14
0
0
1
10
4
9
0
5
3
0
14
0
9
4
0
6
13
0
0
17
0
4
0
1
4
3
17
0
1
0
8
4
4
0
0
0
0
0
0
0
2
5
0
0
0
2
16
2
41
0
0
12
28
0
12
0
16
0
0
0
0
66
0
0
0
5
39
0
6
0
16
0
0
2
0
16
0
0
0
0
0
0
18
4
26
0
3
0
12
0
4
6
10
20
0
0
58
0
0
9
0
0
0
9
0
17
0
25
34
0
0
17
11
26
0
0
0
15
0
18
43
0
0
0
0
1
0
68
17
0
34
0
0
0
7
72
0
0
0
0
67
0
0
66
0
0
3
0
12
89
116
30
0
0
15
12
0
0
7
0
24
0
3
14
0
0
0
0
0
8
1
0
11
0
7
25
0
0
0
5
0
16
0
0
8
0
6
20
0
0
13
2
12
7
11
0
33
48
14
0
0
0
8
0
0
0
6
0
21
0
15
7
7
9
0
0
0
0
0
7
0
0
0
12
0
9
0
0
4
5
0
7
0
3
0
0
0
0
3
8
0
3
12
0
0
0
9
0
3
0
10
4
0
13
0
5
0
0
0
0
0
0
6
0
19
0
12
0
3
13
0
11
0
1
0
11
0
0
11
0
0
4
9
0
0
14
0
9
0
0
9
0
0
13
8
1
0
8
0
1
0
2
1
3
2
0
0
12
5
0
0
10
0
2
14
0
0
0
0
0
0
10
0
0
2
0
0
0
1
0
7
0
0
0
0
3
0
1
0
0
0
0
0
0
2
3
0
3
9
0
0
7
0
3
0
0
8
0
0
0
11
38
19
0
0
2
0
2
20
0
10
0
0
3
0
16
0
0
0
0
32
0
0
4
15
0
10
11
0
35
0
6
12
0
0
34
0
5
0
0
7
0
33
13
5
0
0
0
4
8
6
6
3
3
3
6
0
2
12
0
2
1
4
2
8
14
0
0
0
10
0
0
0
0
0
0
0
11
0
0
13
19
0
2
3
0
0
3
3
0
0
0
31
0
0
9
12
0
0
17
0
0
14
0
26
0
4
0
13
0
0
0
17
0
4
15
5
18
0
0
0
2
1
0
23
0
25
1
0
0
7
0
0
16
0
0
20
10
76
69
0
9
11
9
0
12
0
0
11
16
0
7
0
0
0
7
11
0
5
5
4
2
0
8
0
8
3
11
11
0
0
12
0
3
4
0
0
5
0
16
0
9
0
0
0
0
7
3
1
7
2
0
6
4
0
6
11
0
0
5
54
0
0
56
7
13
0
7
0
0
0
0
0
10
0
13
0
15
0
0
0
2
8
0
29
0
20
12
3
0
0
39
0
0
19
0
0
0
0
17
14
0
0
5
0
0
15
0
31
0
0
59
13
0
16
0
0
22
30
0
46
0
0
0
0
0
0
0
0
0
3
8
81
3
3
0
0
0
0
19
81
0
0
33
0
0
23
55
59
0
0
0
20
34
4
59
0
0
0
0
0
0
14
14
0
0
0
0
26
0
0
14
0
12
0
0
0
22
0
0
12
0
7
0
0
36
0
0
72
0
0
0
30
3
13
7
0
24
9
0
6
0
9
0
16
9
40
41
38
0
0
0
5
0
0
0
11
22
0
22
0
0
0
7
10
0
0
20
7
0
5
0
13
0
1
3
7
0
0
0
0
21
4
0
0
0
0
20
0
9
0
2
7
0
0
3
0
8
0
0
0
7
0
8
15
2
2
14
0
18
0
5
3
7
7
0
2
0
0
6
0
0
3
21
0
18
0
0
4
3
8
2
0
18
0
11
0
0
0
0
0
0
8
3
0
5
0
0
0
6
0
0
1
0
0
6
1
0
1
2
0
0
6
0
9
0
1
0
7
12
0
13
0
0
0
0
1
0
0
14
3
0
0
6
0
4
5
0
0
4
7
0
4
0
0
2
0
7
0
0
0
12
0
6
0
0
1
0
4
0
12
0
4
36
36
0
0
13
0
14
0
0
18
0
1
5
0
1
0
1
25
0
0
0
11
0
26
5
3
0
0
0
5
0
0
1
1
0
6
0
14
1
0
13
0
0
0
0
0
0
17
4
17
0
6
0
0
14
1
8
0
22
13
0
0
19
14
3
0
0
4
4
4
0
5
4
0
36
0
4
0
7
0
7
0
7
0
11
8
3
0
0
4
13
2
19
0
0
7
19
0
16
0
27
0
0
1
0
0
0
0
0
9
4
32
0
9
5
0
0
4
0
13
0
0
0
4
9
0
0
0
26
1
6
0
1
0
27
0
0
47
68
0
2
0
15
0
17
0
8
0
0
2
7
0
0
5
4
2
2
0
2
0
0
11
9
0
2
0
10
0
0
0
0
9
0
14
18
4
0
16
0
0
20
0
5
10
0
12
0
0
0
0
11
0
2
9
0
0
8
2
13
29
0
0
46
25
0
4
0
18
0
0
43
0
28
15
0
0
0
4
19
0
0
27
0
0
6
21
0
11
0
19
0
9
0
34
0
0
0
0
4
0
33
0
0
4
58
0
25
13
0
10
0
0
0
0
6
0
7
9
1
10
0
0
0
0
29
28
0
0
0
77
0
0
82
7
0
0
8
0
0
117
0
0
1
61
0
0
38
4
28
0
29
0
45
28
48
24
0
0
39
0
0
0
42
50
0
0
10
0
0
0
7
0
0
7
0
24
0
0
12
0
15
0
0
0
0
5
28
0
0
11
16
0
12
0
0
1
31
0
0
21
15
0
15
51
37
4
0
0
0
37
0
0
0
0
19
22
8
9
0
7
15
0
0
4
0
30
0
0
13
0
19
0
2
3
0
5
1
11
0
0
0
7
0
23
7
0
0
0
0
4
0
0
0
0
0
6
0
2
8
1
0
0
8
0
0
0
0
0
5
0
3
0
0
0
3
0
17
0
0
15
0
0
0
6
0
0
0
17
0
0
0
12
2
4
0
0
0
7
0
2
9
0
1
1
1
0
0
9
0
8
5
3
0
0
0
22
0
2
0
0
3
0
6
0
12
0
9
9
0
6
3
0
0
6
0
7
0
11
0
4
0
17
0
7
0
0
5
8
0
0
8
0
9
2
2
10
0
2
0
0
0
0
2
2
2
0
0
2
7
0
2
7
14
64
0
0
0
14
0
14
24
0
0
0
11
0
8
0
0
0
19
0
23
0
0
0
0
21
0
0
9
14
27
0
12
0
7
0
0
0
20
0
17
0
0
15
0
8
0
0
5
6
10
2
7
1
10
3
7
12
0
20
0
5
29
0
0
6
21
0
13
0
0
0
0
17
0
0
13
28
0
12
0
3
0
0
0
3
4
0
7
0
2
0
13
0
28
0
3
8
0
0
1
0
4
0
6
19
0
10
12
0
8
0
0
0
13
0
13
0
12
0
2
0
28
0
7
0
0
2
6
0
0
16
8
0
0
0
0
70
66
0
5
32
0
0
11
3
14
0
5
0
17
0
0
2
13
7
0
24
0
3
0
3
6
4
0
17
0
30
0
0
10
0
5
0
0
0
15
3
0
21
1
1
4
0
4
0
2
0
6
0
0
1
0
10
0
12
0
0
3
29
0
0
2
31
10
29
22
25
0
8
0
0
4
17
0
0
40
11
0
0
45
0
0
0
4
20
0
0
0
19
0
0
0
0
6
0
0
11
14
0
0
0
9
0
0
2
42
35
0
28
60
0
0
0
28
0
0
0
0
22
37
0
0
12
0
0
4
3
0
0
49
0
0
63
11
3
0
69
0
45
64
0
0
23
25
0
0
57
0
10
0
9
0
36
53
32
15
0
46
0
0
0
0
85
0
0
26
16
0
38
4
0
0
21
9
0
0
6
0
0
4
1
0
0
0
10
0
0
0
0
0
2
0
4
0
0
7
0
39
0
10
64
3
8
0
0
0
0
0
0
0
0
8
12
7
7
0
0
1
0
0
0
0
12
0
0
14
0
9
0
3
0
0
5
0
15
0
6
0
16
0
10
2
0
3
0
14
0
0
7
19
0
0
2
0
0
4
2
2
6
0
0
0
0
2
23
0
0
8
20
0
10
0
12
0
3
0
0
0
1
5
10
0
0
18
0
0
13
2
0
0
0
1
5
1
8
0
4
0
0
0
5
0
0
8
0
5
5
2
21
0
0
0
8
4
3
0
9
0
0
17
11
0
0
4
0
0
3
1
11
6
0
6
0
0
1
0
10
0
0
5
0
2
1
0
10
1
4
0
0
8
0
0
3
0
0
0
3
7
1
2
1
0
2
0
6
0
2
6
4
0
2
12
51
1
0
15
0
14
0
0
0
10
15
0
27
3
0
0
0
0
5
0
0
18
6
9
6
0
12
0
12
0
8
0
13
3
0
8
0
17
0
8
0
0
0
0
0
13
5
7
0
2
12
3
4
7
6
15
0
7
0
14
6
0
4
0
4
0
0
1
0
16
6
0
33
8
0
6
3
23
0
14
0
0
7
14
0
0
22
0
31
0
1
4
9
0
0
0
0
7
0
1
0
16
8
6
0
0
0
12
0
0
15
3
11
2
9
0
0
2
18
0
0
0
20
13
0
39
7
0
0
11
0
3
23
26
0
16
41
47
0
19
0
0
0
11
0
4
0
12
0
0
0
19
0
7
6
0
0
12
1
0
8
0
4
13
0
0
5
0
11
0
9
0
12
0
4
0
0
16
0
9
0
0
1
1
6
0
12
0
2
6
0
15
0
2
0
9
9
0
35
0
0
6
35
0
0
27
13
0
0
0
6
16
0
0
0
0
15
0
25
4
39
0
0
10
16
0
30
0
2
0
11
69
0
27
1
0
0
0
0
9
0
31
0
0
0
21
0
0
115
0
0
6
0
33
0
51
43
0
6
8
12
0
0
24
0
20
0
0
8
51
16
0
0
28
40
0
0
0
0
100
0
0
9
0
67
0
0
64
7
0
0
21
0
47
17
72
0
56
33
0
0
0
18
70
0
0
1
0
0
0
10
0
0
12
9
0
0
2
0
26
0
0
0
0
2
0
0
4
0
29
4
9
0
22
15
28
15
30
32
0
0
0
0
0
0
14
6
0
16
3
11
33
16
17
0
8
10
7
9
1
0
5
13
0
1
0
5
0
22
0
4
22
0
0
0
0
19
0
0
4
0
0
16
0
0
12
0
21
0
1
10
8
7
0
2
2
0
0
0
5
2
0
15
0
0
0
0
15
0
0
0
14
0
0
1
0
9
13
0
0
0
25
0
12
0
13
0
7
9
0
1
3
3
0
16
0
0
2
24
0
0
3
10
0
2
0
0
0
0
3
0
0
0
0
4
0
9
1
0
0
0
5
3
0
8
3
0
3
0
0
0
1
0
1
13
3
0
5
3
0
4
0
9
4
0
1
0
1
0
0
11
0
15
0
1
1
0
1
0
3
0
0
2
0
0
4
0
12
0
5
8
2
39
24
0
0
8
0
32
0
5
5
2
0
0
11
0
13
0
21
25
0
16
0
0
0
7
0
4
0
1
0
8
9
0
0
6
13
16
0
14
3
0
13
6
0
20
0
5
0
12
13
2
5
12
5
9
2
5
1
12
0
0
0
0
0
0
0
16
0
0
0
0
0
19
0
34
0
0
0
3
0
30
0
2
0
0
6
8
0
0
0
0
0
5
0
42
5
0
0
1
14
0
2
0
26
0
0
7
0
0
15
0
2
0
12
0
4
0
12
0
25
5
0
25
0
0
2
10
0
13
4
0
0
3
0
29
0
58
62
0
22
0
8
15
19
4
9
21
0
0
0
0
5
0
23
0
20
4
0
7
0
0
4
4
0
3
4
0
0
0
2
0
0
1
21
0
10
3
7
0
0
0
13
0
5
0
4
0
3
0
2
2
0
0
6
1
6
0
15
32
0
0
0
45
0
5
25
0
0
0
0
0
10
0
5
0
0
42
0
0
32
4
0
6
0
15
2
0
0
25
0
2
0
49
17
5
25
0
16
0
0
18
0
0
0
29
14
0
0
107
16
0
0
0
0
0
0
0
30
0
0
51
0
0
0
30
0
29
0
0
58
19
0
0
0
23
0
0
0
4
80
66
0
0
16
0
39
0
60
0
38
0
0
0
43
26
16
0
0
23
0
0
15
0
48
0
0
0
1
0
0
0
11
3
0
0
0
15
0
0
2
14
0
18
0
0
0
0
34
5
14
0
20
0
47
32
20
0
0
0
82
0
0
14
0
0
0
0
0
21
21
5
7
0
0
0
0
1
0
0
0
0
5
0
0
2
0
13
4
0
9
0
0
0
8
3
7
0
6
14
0
0
0
11
0
0
0
0
15
0
0
0
8
0
1
15
0
6
12
1
0
0
0
2
2
2
0
15
4
0
18
0
0
4
18
0
6
0
0
8
0
5
0
17
0
7
5
0
2
0
1
0
8
5
0
0
0
0
2
2
1
0
5
0
7
8
1
0
1
11
0
18
0
13
4
0
10
0
0
14
0
5
0
0
0
0
0
0
5
5
8
0
12
7
0
8
3
0
0
0
13
0
13
0
0
0
16
0
2
1
0
3
0
0
11
0
0
0
17
0
0
8
6
4
8
1
0
3
3
1
0
1
1
29
45
0
0
0
4
0
13
1
0
0
18
0
0
15
0
11
0
0
4
5
0
0
26
0
0
0
13
8
26
0
0
0
0
3
0
20
0
0
9
10
0
0
0
0
6
3
5
18
3
12
5
5
0
13
13
18
0
0
2
0
0
0
23
0
0
9
0
0
0
16
14
1
42
0
0
20
10
0
10
0
37
0
12
7
6
0
4
14
0
17
15
0
9
14
0
6
2
0
0
31
0
0
0
7
0
4
0
0
7
8
5
5
0
15
6
0
0
0
0
0
16
0
0
13
0
0
0
0
32
3
0
0
6
8
0
43
46
0
0
19
0
0
3
17
0
0
1
0
0
4
0
5
0
5
0
1
3
2
4
10
0
7
8
0
0
0
0
0
5
12
0
0
6
0
10
0
0
2
6
6
0
1
0
3
0
6
0
5
0
3
1
0
0
5
0
0
3
30
2
0
0
39
0
39
16
0
0
3
0
0
2
46
0
0
46
0
0
0
0
20
0
13
0
33
0
33
0
0
4
0
18
0
28
0
36
6
0
0
0
2
18
0
3
41
23
0
0
89
5
0
0
0
8
0
31
0
30
3
0
24
8
0
0
0
29
6
0
0
0
95
5
0
0
0
0
13
0
0
0
124
0
0
0
14
0
0
26
0
8
28
0
27
0
66
38
0
0
0
7
4
73
0
27
3
2
5
12
0
20
34
0
18
0
0
0
0
20
0
7
21
22
0
0
4
9
3
11
9
10
31
38
10
0
0
0
0
0
28
0
0
6
0
0
0
16
21
1
0
8
7
0
2
0
8
0
12
0
18
0
2
4
3
1
0
60
0
0
8
0
10
0
25
0
7
0
3
0
0
17
0
13
0
0
4
10
0
18
0
5
0
11
0
0
0
0
0
8
0
0
4
0
3
0
10
0
0
0
2
3
6
0
7
0
0
0
1
0
0
10
0
0
0
0
0
9
9
0
18
0
0
0
0
2
0
8
0
0
1
1
0
2
0
0
10
1
0
0
26
0
0
0
3
0
4
0
10
12
0
0
1
0
10
2
2
0
11
0
0
0
12
0
1
10
0
2
0
1
5
1
3
0
2
8
9
0
0
0
6
2
0
0
5
14
0
10
0
0
0
6
0
0
0
0
0
0
0
0
2
6
1
0
27
42
0
0
0
0
0
0
23
1
16
0
0
11
0
38
0
0
6
1
0
0
1
0
10
0
9
2
0
5
0
4
16
0
13
5
0
11
6
0
0
0
6
5
0
0
13
6
8
19
6
15
12
17
7
5
25
0
0
0
0
0
14
0
0
7
9
0
3
21
0
0
0
0
2
0
6
0
9
4
0
0
1
0
10
17
0
7
24
4
0
15
0
0
0
7
0
4
0
0
0
0
9
0
0
7
6
0
0
1
0
0
0
3
0
0
7
2
0
0
10
0
0
0
3
0
24
0
21
0
0
0
26
7
0
13
56
36
0
8
0
0
8
16
0
23
0
0
0
0
0
6
5
13
0
5
4
6
3
5
5
13
14
2
0
31
0
0
0
0
0
0
9
0
13
0
5
9
0
4
2
0
0
0
6
0
4
0
0
5
0
15
0
0
0
0
10
1
21
0
0
0
31
0
0
50
0
0
0
4
0
0
0
29
0
0
25
0
17
20
0
0
0
55
7
3
0
1
0
18
0
0
0
23
36
0
0
3
1
0
19
0
0
0
5
48
0
0
117
17
0
0
0
13
0
27
0
43
12
0
51
25
0
0
0
0
2
0
0
0
31
33
43
0
0
0
27
30
0
0
145
100
0
0
77
0
17
0
44
0
67
4
0
0
17
61
29
23
5
0
0
44
0
0
98
0
0
0
0
14
0
0
0
0
0
0
74
0
0
6
0
0
0
5
5
4
8
1
0
0
0
0
0
0
0
0
0
0
0
0
0
0
11
20
0
2
2
0
0
0
5
0
0
0
0
0
0
26
0
3
2
0
0
0
0
0
3
0
1
7
12
0
0
0
8
0
0
4
16
0
7
5
0
35
0
0
8
0
0
2
0
5
0
7
15
0
0
19
0
7
0
11
0
11
0
7
0
14
0
1
7
0
2
0
0
24
0
0
0
1
0
4
0
0
12
0
9
8
6
0
6
0
3
6
11
0
20
0
2
0
11
0
4
2
0
29
0
5
0
0
19
0
2
3
7
0
0
0
0
5
0
18
0
13
7
0
0
5
10
2
5
0
8
0
0
0
0
4
0
0
5
5
0
0
4
0
0
0
2
10
1
0
3
0
4
0
5
0
13
0
0
4
2
0
0
0
8
4
0
3
0
1
10
43
39
0
0
12
14
4
0
0
0
3
0
3
9
0
14
13
1
6
4
0
0
18
0
24
8
0
13
3
1
0
12
15
0
0
0
29
0
0
12
8
0
0
0
3
1
3
7
0
11
10
11
16
22
14
0
0
0
5
48
0
49
2
17
0
0
14
11
9
6
7
0
0
12
2
5
0
6
0
28
7
0
7
0
15
2
0
12
0
0
15
0
14
3
16
24
0
19
0
14
0
5
0
0
7
0
12
0
0
29
0
0
0
3
0
3
5
0
8
16
4
19
0
11
0
0
12
26
10
5
0
0
1
2
5
56
48
0
0
5
1
0
0
32
0
0
8
0
9
14
0
1
0
8
2
4
3
4
1
0
0
4
0
6
7
0
0
0
0
12
0
2
0
14
0
10
1
6
0
16
0
0
5
0
0
19
0
11
0
13
2
0
2
10
0
0
16
16
8
0
0
0
5
35
16
0
0
7
16
11
0
24
0
0
25
7
0
19
16
3
0
0
0
2
0
24
0
0
7
7
5
0
29
39
0
0
4
18
0
0
16
0
31
10
10
0
0
78
0
0
6
0
0
18
0
0
4
51
0
0
26
22
7
10
0
0
0
6
0
4
75
14
0
5
0
15
29
43
0
0
141
41
0
21
19
0
0
3
0
10
19
0
3
0
59
61
38
0
0
0
2
12
0
43
0
0
35
0
0
3
69
0
0
27
0
0
0
14
0
24
5
7
3
0
11
0
0
7
0
10
0
36
0
0
0
0
12
9
0
55
17
18
26
46
17
19
10
15
0
0
0
0
1
8
0
0
0
11
0
1
0
0
0
0
4
0
0
16
0
0
0
6
0
0
4
14
0
3
0
9
0
0
4
0
12
0
0
13
0
16
0
13
0
0
1
19
0
0
0
0
0
12
3
0
4
0
0
3
12
0
0
0
5
6
2
0
4
29
0
14
0
7
16
0
11
0
0
5
0
3
9
0
0
0
11
0
2
0
0
15
0
0
1
3
0
0
0
11
0
0
22
0
2
0
17
0
8
17
0
4
0
3
0
0
13
0
2
0
0
7
0
0
10
0
8
0
1
9
0
0
7
5
3
0
3
9
0
0
0
2
0
7
0
3
0
8
3
10
0
0
4
0
3
0
2
0
0
13
0
3
4
0
37
38
0
0
3
0
0
8
0
14
0
4
0
15
0
16
0
7
0
2
0
0
0
11
0
0
0
9
0
0
12
0
2
0
17
0
0
3
10
3
0
23
0
0
0
0
19
8
0
7
0
16
4
0
0
4
0
17
0
14
0
0
0
25
0
16
0
0
0
0
16
15
5
0
0
0
0
14
11
0
18
12
0
16
7
20
0
6
0
0
10
15
0
0
12
0
0
0
0
0
4
13
0
2
1
9
0
0
19
8
0
0
25
4
0
0
11
4
0
0
4
0
0
0
0
22
0
3
10
0
3
20
4
0
22
28
43
0
0
30
0
7
0
0
16
0
32
0
13
0
8
0
3
4
16
0
1
0
8
1
10
0
17
4
0
9
0
0
0
0
0
22
0
3
0
0
6
0
0
0
10
0
0
6
7
0
1
0
0
0
4
10
1
0
20
0
9
18
11
1
0
0
34
0
0
0
26
2
20
0
0
0
0
7
0
10
0
0
0
25
28
0
33
0
46
0
0
9
0
0
13
0
9
76
0
0
0
7
0
22
0
26
0
21
20
0
0
53
0
18
0
0
0
31
61
0
0
42
33
0
55
2
0
0
27
52
12
0
0
0
50
45
0
0
132
0
0
51
0
0
61
118
0
0
103
0
0
0
30
0
35
0
0
0
6
69
19
8
43
0
7
0
0
30
28
0
0
21
14
0
0
0
0
23
13
0
14
0
1
16
0
0
1
11
0
8
2
0
0
0
0
0
3
7
0
7
0
6
28
0
0
1
2
0
0
9
0
1
9
14
9
18
11
19
4
9
15
0
4
2
10
16
2
0
7
0
12
0
9
0
16
0
7
3
5
0
0
0
28
0
0
6
0
0
16
0
19
0
14
0
20
0
0
21
0
3
0
1
0
2
0
0
0
0
4
0
23
0
0
0
9
0
0
0
0
0
0
0
0
0
26
0
0
14
0
7
1
0
19
3
0
5
2
0
0
0
11
0
7
0
0
0
1
0
1
0
16
0
0
15
0
11
0
2
0
0
13
0
4
0
0
10
0
2
0
0
5
6
0
3
0
4
0
2
3
0
0
0
2
0
0
0
1
0
4
2
0
5
4
0
0
8
0
3
5
0
0
0
12
0
2
5
0
5
0
10
0
0
3
2
0
3
10
59
0
0
6
0
17
0
8
0
0
14
0
0
0
0
0
16
0
26
0
6
0
4
6
12
4
2
2
25
0
14
0
0
0
0
12
0
7
7
0
10
1
0
0
13
0
41
4
0
9
0
2
3
0
0
11
0
0
0
0
0
13
0
0
0
14
0
23
0
0
0
0
0
0
23
5
0
0
20
0
0
17
0
8
17
6
0
14
23
0
13
0
0
0
19
2
0
0
0
0
0
20
14
0
31
0
7
0
0
21
12
0
22
0
1
0
34
0
1
0
4
0
7
5
0
0
8
0
16
0
20
0
20
0
51
37
0
3
0
0
0
53
0
18
6
5
4
0
8
6
1
14
0
8
0
10
0
0
10
0
13
0
0
6
11
0
0
0
9
0
0
6
10
9
3
0
0
1
4
0
0
1
1
0
11
0
0
8
14
0
2
0
5
0
12
0
6
19
8
0
0
10
19
0
0
0
7
0
13
9
0
12
0
13
0
32
0
33
0
0
0
10
0
2
0
0
26
0
4
0
0
10
81
0
0
0
11
2
0
1
6
0
0
0
0
23
68
0
0
16
0
17
0
25
14
0
5
17
0
13
27
0
0
0
0
0
6
32
0
46
37
36
0
0
39
0
0
97
0
0
127
95
0
17
54
0
0
8
0
66
0
39
30
0
17
70
38
0
31
0
0
0
77
0
8
5
0
0
0
12
0
0
0
15
0
14
57
0
0
0
34
0
0
0
0
0
0
31
0
1
10
30
9
12
8
14
4
3
18
0
8
0
0
0
4
0
5
0
2
0
0
0
0
0
1
0
6
4
11
0
6
0
9
0
4
0
10
0
4
0
2
1
0
4
1
0
6
6
7
0
25
0
8
0
7
0
11
0
0
0
0
14
3
0
0
11
0
0
8
0
12
1
0
14
12
0
3
0
10
0
0
2
2
8
0
10
10
0
1
3
0
5
0
0
4
0
5
0
0
2
0
0
20
0
4
14
0
0
4
0
7
12
0
10
0
0
6
14
0
0
0
20
0
12
10
0
0
8
9
0
2
0
6
0
2
0
0
15
0
6
0
4
7
0
3
0
0
15
0
4
0
0
0
6
0
0
6
0
12
0
0
1
5
0
4
3
4
0
18
0
0
6
0
0
4
5
4
0
1
5
5
22
45
0
0
2
0
0
0
0
0
21
0
3
13
8
0
0
10
0
0
2
5
18
1
0
0
0
0
3
0
4
4
3
0
13
9
0
13
0
11
0
0
7
0
5
0
2
0
2
0
0
0
0
0
0
8
0
0
7
14
0
0
14
0
0
6
14
28
0
11
0
12
20
0
5
0
11
3
26
0
45
0
0
0
6
0
0
17
0
0
9
0
4
0
38
0
0
0
9
0
19
0
6
5
0
0
8
0
18
0
0
0
0
0
0
0
11
0
0
9
0
9
17
0
16
7
3
0
0
0
15
0
0
9
0
36
62
12
0
18
17
0
0
25
17
0
0
1
0
8
0
0
6
0
7
0
4
0
0
0
15
0
10
5
0
0
39
0
2
11
0
0
5
0
9
0
0
21
16
0
0
7
10
0
9
0
0
0
4
0
8
10
9
0
0
0
7
14
33
16
0
0
23
22
0
0
1
34
0
2
0
0
0
0
9
17
0
6
0
0
28
0
0
2
14
0
40
0
0
49
0
0
19
54
0
0
0
28
14
0
4
0
45
14
30
0
36
60
0
3
0
8
0
0
59
0
6
9
19
0
0
23
0
0
3
0
0
0
104
0
0
21
95
0
0
0
0
6
0
72
0
0
66
47
0
5
55
0
0
0
73
3
0
69
0
0
6
57
0
16
58
0
0
17
0
0
3
20
0
7
0
0
0
0
0
7
0
0
16
0
3
0
0
13
0
4
0
8
6
0
0
0
5
6
0
14
12
0
0
0
0
0
8
0
35
0
0
0
13
7
0
9
0
0
0
0
2
0
0
0
7
0
0
4
3
0
5
4
10
4
0
0
12
0
0
3
0
10
0
0
0
0
0
2
2
0
0
0
1
0
17
0
0
0
0
13
0
1
21
0
14
0
0
11
8
0
12
0
8
1
1
14
0
0
10
9
0
0
6
0
0
20
0
0
13
0
0
0
6
6
7
16
0
0
0
13
0
11
6
4
1
0
0
2
7
0
2
0
0
11
4
5
0
2
0
0
8
0
0
2
5
2
3
7
0
4
0
15
0
0
0
0
1
0
3
0
0
7
4
0
0
4
9
0
4
0
10
0
15
0
2
0
2
0
0
5
0
0
4
0
0
0
2
2
3
0
3
0
0
3
0
7
10
42
28
0
0
32
0
16
0
14
1
0
10
0
0
16
0
6
0
14
0
0
0
2
15
0
9
6
4
0
0
30
0
0
1
19
0
0
5
0
0
15
7
3
0
6
0
0
4
0
0
0
0
9
10
0
0
15
0
0
7
0
0
17
10
0
0
0
10
14
6
10
0
19
0
9
0
0
0
5
0
0
11
57
0
44
0
0
0
17
0
3
0
16
0
20
0
15
0
8
0
0
18
9
0
8
0
0
0
3
27
0
23
12
0
22
19
0
10
0
0
0
8
10
0
0
16
0
6
19
0
0
0
2
0
37
40
0
20
0
0
8
0
0
0
0
13
0
0
0
7
0
5
8
0
0
9
0
0
0
0
4
0
0
0
0
0
0
0
0
15
2
6
0
0
5
12
0
0
9
7
0
0
7
0
10
3
0
0
0
3
0
0
0
0
15
0
17
24
13
0
0
0
65
0
0
0
13
0
32
0
6
61
62
0
0
4
0
37
0
0
11
16
8
0
0
6
10
1
5
22
0
0
107
0
0
0
0
10
0
14
0
6
0
0
0
5
36
0
11
0
2
0
0
0
0
7
0
19
48
0
48
46
0
0
22
0
0
33
78
0
9
61
59
0
0
0
0
0
57
53
0
3
94
21
0
68
44
0
0
62
35
0
26
65
0
0
23
49
0
70
0
0
17
0
4
0
17
23
20
34
62
20
43
18
0
11
6
0
0
0
0
0
0
9
0
0
26
0
0
28
0
18
0
0
0
17
0
0
0
12
15
0
1
0
3
21
9
0
0
1
0
0
9
0
10
0
12
0
12
0
3
17
0
0
13
0
0
4
0
0
8
0
19
1
14
0
0
0
0
11
5
0
10
7
0
4
11
0
14
0
0
17
18
0
1
4
4
0
0
9
0
9
1
0
0
0
36
0
0
12
0
10
4
0
5
0
4
0
2
4
15
0
0
1
3
5
0
4
0
0
0
15
0
11
0
12
0
0
4
8
0
2
0
12
4
2
0
3
0
0
7
13
1
0
0
0
8
2
0
0
0
0
0
0
0
17
5
0
0
13
0
5
2
0
10
0
2
10
0
11
0
0
0
1
0
0
9
0
2
0
0
3
13
0
0
0
11
0
0
3
12
2
0
0
1
0
0
9
0
9
0
2
28
37
0
0
12
0
0
0
23
0
0
20
0
0
0
2
0
13
3
0
25
2
0
13
1
0
6
0
4
15
0
34
0
4
0
2
23
0
31
0
0
1
0
6
0
12
8
0
10
0
6
0
0
0
2
6
0
18
3
0
2
22
5
10
0
20
12
9
0
0
0
0
13
0
0
6
7
0
7
23
20
0
0
3
0
43
0
14
0
26
0
20
10
0
12
9
0
11
0
9
6
18
0
31
0
0
0
1
7
0
0
0
0
23
0
0
12
0
8
2
19
0
1
0
3
0
2
0
0
20
0
2
0
36
66
45
0
10
3
1
0
19
0
7
16
4
15
0
13
21
0
0
7
11
0
1
0
8
4
5
1
2
6
0
22
30
0
0
1
0
0
0
1
0
0
0
0
5
0
0
17
0
0
8
0
0
6
0
6
1
8
0
8
0
0
4
6
41
9
0
0
40
0
0
0
32
0
7
0
0
26
0
0
2
23
0
2
0
0
6
15
0
27
53
0
8
0
3
15
20
0
0
82
27
0
0
43
0
0
0
0
7
0
35
22
4
25
0
0
1
6
0
0
13
0
50
0
0
69
15
7
30
0
0
32
0
0
0
50
0
0
4
67
0
0
0
0
61
0
79
7
0
90
99
0
0
88
41
0
30
48
0
30
40
18
0
0
66
33
0
28
0
8
0
5
7
0
0
0
0
0
0
0
0
14
0
0
13
0
16
24
9
28
17
15
10
0
20
13
5
0
3
0
16
3
0
14
17
0
13
0
17
0
0
4
0
0
1
0
6
0
8
0
13
7
5
0
9
0
11
11
0
5
0
0
9
2
0
0
3
9
0
0
14
0
6
2
8
0
0
1
0
4
0
0
0
0
4
0
19
7
0
5
0
14
0
0
0
12
1
6
4
0
0
0
5
0
0
16
0
0
0
11
0
1
3
0
0
6
8
2
0
1
0
1
0
3
12
1
0
0
0
10
0
9
0
3
2
0
0
2
0
15
0
10
0
2
0
9
11
0
0
6
8
0
0
9
0
8
0
4
0
0
4
2
0
0
5
2
0
20
0
0
12
1
0
3
0
11
0
8
11
5
4
5
0
0
0
9
0
8
9
0
0
6
5
0
0
0
0
0
0
0
1
0
2
0
10
0
7
0
0
23
47
0
0
3
0
16
9
0
0
8
0
1
3
1
4
0
17
0
8
0
19
0
0
10
2
0
13
0
11
6
0
0
0
2
0
5
0
0
2
10
21
0
0
0
13
0
0
0
1
0
1
14
0
0
3
0
5
0
5
0
19
0
0
12
0
0
17
0
12
0
15
1
0
7
0
0
11
0
0
4
0
47
0
0
35
0
0
45
0
3
3
0
5
0
0
0
15
0
0
11
0
0
0
12
9
6
0
27
0
14
0
0
4
3
18
0
26
0
17
6
7
0
0
0
12
2
23
3
0
0
10
0
18
26
74
15
0
0
5
2
0
0
4
0
5
0
1
0
9
0
18
0
3
3
2
5
0
0
0
0
3
0
0
0
0
0
0
11
0
4
0
0
11
0
10
0
7
4
0
2
5
3
0
8
2
3
0
7
0
0
9
0
3
0
10
14
21
0
0
0
12
17
0
0
0
29
0
58
0
0
3
0
0
43
0
0
0
1
0
0
27
0
0
0
72
0
0
10
0
10
0
0
62
0
0
6
1
0
29
3
0
0
0
11
76
0
0
20
5
0
0
0
0
30
43
0
0
47
30
0
45
0
0
0
18
0
0
0
71
0
0
75
16
0
0
0
0
0
0
42
0
0
49
43
0
0
35
6
0
52
0
0
0
77
35
0
0
68
0
64
3
3
0
0
0
10
0
112
23
0
4
0
0
1
0
0
0
20
0
0
7
0
8
0
7
8
0
10
0
0
11
0
9
9
2
0
0
28
0
8
0
12
15
0
10
4
4
0
0
5
0
11
0
0
0
23
0
2
2
5
0
9
0
0
0
4
0
0
11
0
12
0
0
0
0
0
0
7
0
3
0
1
0
2
7
0
0
14
0
23
0
23
0
0
4
0
11
0
3
2
0
0
5
5
0
0
29
0
0
12
0
7
0
0
6
12
0
2
0
0
1
6
0
7
0
0
7
0
0
8
5
2
3
5
0
13
0
0
5
0
8
6
6
0
3
0
3
4
0
0
6
0
2
0
2
2
11
0
3
5
0
0
18
0
4
0
0
8
0
0
2
0
12
0
0
0
0
9
0
0
0
0
10
0
3
0
0
0
5
0
0
0
4
0
4
0
8
1
0
8
0
6
0
4
8
1
0
0
4
1
0
24
43
0
0
0
0
0
24
0
17
0
0
12
1
0
5
0
0
5
6
0
16
9
0
0
0
5
0
0
9
0
21
0
4
1
0
3
0
0
7
0
0
8
8
8
0
0
1
3
6
0
0
0
3
0
0
6
3
4
8
0
0
27
0
0
0
29
0
3
0
20
4
0
1
0
5
0
29
15
7
7
7
0
0
29
0
7
11
0
30
0
20
0
22
5
6
0
9
18
9
0
51
7
0
0
15
0
29
0
0
0
2
0
0
0
14
12
0
10
0
0
0
6
12
0
0
22
3
0
16
0
0
21
0
59
39
0
43
0
4
2
12
0
0
22
0
17
0
7
18
0
4
6
0
0
0
0
15
4
10
5
0
10
0
19
17
10
0
10
0
16
0
1
0
7
0
12
7
0
11
1
0
4
0
0
0
7
2
9
7
0
0
4
0
0
10
71
10
8
9
0
7
14
0
52
51
0
12
0
0
10
19
0
0
14
12
0
8
14
0
0
16
15
4
0
0
14
24
0
12
0
0
0
69
16
0
6
4
0
0
0
0
13
0
34
26
0
2
0
18
5
0
5
0
25
8
51
0
0
41
17
12
40
0
0
3
5
0
0
63
24
0
97
11
0
0
0
0
0
0
0
84
0
45
62
0
0
0
38
0
33
43
0
12
7
23
59
0
0
0
7
29
0
5
0
0
15
0
11
0
3
0
0
8
3
53
0
0
0
4
5
0
0
0
12
0
4
0
0
22
0
8
15
1
1
0
3
0
0
0
0
3
0
0
4
2
0
15
0
16
6
0
9
4
9
0
0
13
8
0
0
4
0
12
9
0
2
9
0
0
0
4
10
3
0
11
0
0
39
0
0
13
0
16
0
0
13
1
0
2
0
3
0
0
7
9
2
0
14
0
1
0
2
5
0
14
0
0
6
21
0
7
0
2
2
0
21
0
11
3
0
11
0
6
0
0
18
0
25
0
0
0
3
0
6
16
0
15
0
0
0
9
0
7
0
1
17
0
0
0
0
4
0
12
0
0
0
0
1
0
0
7
0
2
0
0
4
0
10
0
7
9
0
0
0
8
0
0
3
0
0
0
1
3
0
2
0
0
0
1
0
4
0
0
0
0
6
0
8
0
7
1
0
0
0
0
0
0
10
0
1
15
0
44
24
0
0
0
21
0
14
4
7
0
4
1
3
6
0
0
24
0
5
0
0
0
23
0
16
0
0
0
8
0
14
3
8
13
0
0
7
7
0
0
23
0
0
6
0
13
2
0
16
8
3
7
4
0
7
6
9
0
5
0
0
6
6
0
0
0
0
18
5
0
6
0
11
8
1
0
1
0
0
13
0
19
0
0
0
0
5
11
0
30
12
2
20
0
18
0
0
0
0
0
6
0
0
9
6
0
10
0
0
14
26
0
9
0
0
0
17
0
0
0
6
0
35
0
0
0
4
0
27
0
9
0
28
57
0
0
0
28
12
0
0
7
0
3
0
0
0
0
0
9
3
0
8
3
10
2
0
6
2
6
13
0
0
0
0
0
0
10
0
0
0
8
0
1
5
0
8
1
2
0
0
26
0
0
0
6
0
0
14
0
15
16
13
32
0
0
0
0
0
14
29
7
9
0
13
0
15
0
3
0
0
24
0
3
0
29
7
0
3
13
0
0
0
0
0
0
14
23
6
0
0
36
55
0
0
0
12
12
0
0
24
0
43
29
0
0
0
0
0
0
0
0
11
24
46
0
0
26
45
5
47
0
0
0
0
20
0
0
27
0
51
26
0
42
0
0
0
0
9
33
7
0
75
21
0
0
0
23
0
25
14
29
1
0
0
13
4
22
0
62
0
0
10
18
0
18
0
9
0
0
23
12
0
0
19
19
0
0
0
2
0
0
0
13
0
0
21
0
17
9
6
0
11
4
5
0
31
0
5
7
0
3
0
0
0
0
0
11
0
11
0
7
0
2
15
0
0
0
2
0
12
0
5
8
2
0
5
8
0
32
0
0
3
0
18
1
0
0
7
2
0
0
0
8
0
2
3
0
20
0
0
14
0
1
0
4
0
5
15
0
0
0
3
0
0
0
0
0
12
0
3
11
8
0
0
0
0
0
3
0
0
9
0
0
7
0
0
19
0
0
14
0
10
0
22
3
0
0
2
0
0
0
20
0
0
0
33
0
0
0
1
7
8
6
0
5
4
7
0
1
0
4
0
4
5
0
0
10
0
0
4
14
0
0
10
11
0
2
0
0
2
0
9
0
0
0
0
3
11
0
0
0
0
8
0
6
1
0
4
3
2
2
3
0
0
7
1
0
0
0
3
30
50
0
0
0
0
3
0
3
0
1
15
0
0
0
0
1
0
0
5
5
10
9
0
0
1
0
16
0
7
0
0
16
4
0
13
0
0
0
27
0
0
6
2
0
9
0
2
0
14
3
0
0
12
0
10
0
5
12
3
5
28
0
15
3
0
8
0
0
0
0
0
10
0
0
8
17
3
0
0
0
15
0
0
23
0
15
0
3
10
0
9
0
0
14
0
0
6
0
0
17
0
0
0
0
3
9
0
0
0
5
10
0
3
6
0
0
21
0
12
0
8
8
0
1
0
0
0
9
0
0
0
0
77
53
0
3
8
0
4
0
11
8
0
0
15
0
0
20
0
3
0
0
21
0
4
1
14
0
12
14
19
0
0
5
0
1
0
0
12
0
2
3
0
1
0
19
0
2
0
13
0
0
2
0
18
0
7
11
1
0
0
8
16
0
0
0
0
0
9
0
0
0
0
29
24
0
0
20
22
24
0
0
0
0
1
21
0
0
6
20
0
4
12
12
0
0
1
13
6
0
0
3
60
28
0
0
3
5
50
0
0
0
58
48
0
78
0
37
9
4
0
0
39
0
75
0
0
0
81
0
35
14
0
8
11
0
0
30
84
0
25
35
0
30
12
0
17
0
0
0
14
0
89
74
0
0
0
0
0
45
0
0
7
46
31
0
0
0
0
24
0
0
3
35
0
0
22
0
22
11
0
0
0
5
0
0
0
8
0
28
10
0
10
0
17
0
0
18
0
0
0
8
0
6
0
0
0
0
4
0
2
2
5
4
5
0
0
0
0
0
24
0
1
0
20
1
0
10
17
0
0
9
0
2
1
0
0
0
0
2
15
0
4
9
7
10
0
0
0
13
0
1
22
5
0
6
0
0
5
0
12
0
7
0
0
8
13
0
0
5
7
8
12
0
2
0
18
5
0
0
8
0
3
2
0
0
13
0
7
0
3
0
9
0
0
2
0
0
0
2
0
5
0
3
0
0
3
0
0
0
26
0
0
0
3
0
0
0
0
0
14
0
0
2
0
0
0
7
0
10
7
0
10
2
0
4
2
0
2
0
0
2
0
17
0
0
17
0
4
15
0
12
5
0
7
0
1
0
0
17
0
3
0
0
0
0
10
0
0
9
0
0
2
0
9
0
4
13
4
0
5
13
56
0
0
0
1
19
0
0
41
4
0
7
7
11
0
0
0
2
12
0
0
0
7
0
38
0
10
1
0
0
11
6
0
0
6
9
12
0
12
0
0
4
7
0
8
1
0
6
0
0
0
0
0
14
6
0
0
4
0
8
0
0
0
1
10
0
20
0
18
2
0
11
16
0
7
0
5
8
17
3
14
0
0
0
19
0
17
0
0
21
0
3
7
0
0
19
3
12
0
12
0
0
179
0
9
5
7
0
0
10
0
14
0
17
0
17
0
14
9
0
5
10
0
31
3
0
7
5
15
0
13
0
32
50
0
0
0
0
0
0
0
32
0
11
5
0
0
0
7
0
20
9
9
0
17
0
2
4
0
17
1
14
3
0
0
0
54
0
0
0
3
8
0
4
3
5
4
0
0
0
3
12
0
3
0
11
0
0
3
7
6
0
6
0
10
0
0
0
0
20
16
3
0
0
0
0
0
0
19
1
0
0
43
0
0
0
0
0
30
5
10
0
0
0
21
15
0
0
14
0
0
0
3
87
0
0
0
0
0
0
0
27
60
30
0
0
0
4
0
0
6
0
69
0
64
0
0
0
31
39
0
48
0
0
14
0
0
40
0
39
0
106
0
11
57
0
0
0
0
3
50
0
0
139
46
0
0
0
0
0
0
0
0
19
52
54
0
0
0
0
38
0
0
0
3
5
39
5
30
19
0
2
3
0
11
0
0
0
21
0
0
10
0
25
0
14
0
20
0
15
0
1
0
23
0
0
0
5
0
6
0
0
2
0
0
6
0
0
9
0
3
12
8
4
0
0
0
0
5
0
4
0
4
3
8
0
22
0
0
6
0
6
0
0
1
0
0
9
0
0
0
0
0
0
0
0
7
20
0
1
0
0
9
0
10
10
0
1
0
0
0
0
0
0
4
6
2
0
16
1
12
0
7
7
9
0
4
7
0
11
0
10
4
5
0
5
0
2
0
9
0
6
0
0
0
4
1
0
0
16
0
7
0
11
0
7
0
6
7
4
0
8
0
4
1
2
3
7
0
4
0
12
0
9
0
0
0
14
0
18
0
15
0
0
2
0
0
6
0
0
1
0
0
0
2
0
4
1
0
0
1
4
5
0
5
6
0
3
5
0
2
2
3
0
1
0
0
0
10
11
0
15
50
0
0
0
20
12
0
21
0
0
16
22
19
1
31
4
0
23
0
4
0
14
6
0
0
10
0
0
6
1
17
0
0
2
0
0
0
0
0
8
12
0
0
4
18
0
0
0
13
3
0
0
0
0
0
20
0
25
0
0
0
0
23
0
0
1
0
9
13
9
13
0
7
0
8
0
13
0
8
0
0
12
0
25
0
2
9
1
0
100
0
0
13
0
14
0
8
2
4
4
7
6
0
0
1
0
0
16
2
7
0
12
3
0
0
9
0
9
0
6
2
0
5
20
0
0
0
0
8
0
0
17
58
45
0
7
24
20
0
0
3
0
7
0
0
35
0
18
0
0
7
9
19
0
1
3
0
0
3
5
3
9
37
0
0
0
0
0
16
0
0
7
0
9
0
0
9
2
9
8
0
13
0
0
6
4
5
1
11
5
0
3
15
5
0
11
21
0
0
0
0
11
0
5
7
15
0
0
7
0
0
15
0
6
0
12
0
2
7
11
0
19
5
0
0
0
52
0
0
0
15
0
0
78
13
0
0
0
1
0
0
7
87
0
0
0
0
11
6
22
0
0
70
0
71
0
0
0
0
54
0
23
40
0
0
1
0
0
0
2
21
37
11
0
58
27
0
0
0
0
53
25
0
15
98
8
0
0
0
0
59
0
0
4
39
36
53
34
0
0
73
0
0
26
0
18
0
0
0
11
1
0
21
0
0
0
0
23
0
22
0
21
0
6
2
0
4
2
8
0
11
5
0
1
0
0
0
0
0
0
10
0
9
7
0
0
15
0
0
1
0
6
0
2
14
0
0
14
0
15
0
14
0
0
2
16
0
3
0
4
0
0
0
0
2
0
16
0
0
0
17
6
0
7
11
0
3
0
0
0
6
3
0
10
4
0
9
0
7
0
9
0
7
0
0
0
2
11
2
0
0
16
0
8
0
9
0
0
16
0
0
3
0
10
0
18
0
0
0
5
0
0
14
0
2
13
0
5
0
0
13
0
0
0
1
8
0
0
0
0
5
0
11
0
0
0
0
8
0
0
26
0
3
0
4
4
0
0
0
0
20
0
0
0
5
7
1
4
10
0
0
3
0
12
0
0
0
0
8
0
9
4
0
0
9
0
3
0
0
4
1
0
4
1
1
0
15
0
9
0
1
7
28
46
0
18
0
0
0
2
7
0
0
0
0
0
0
0
25
2
5
0
6
0
6
8
4
5
15
0
11
6
0
0
0
10
0
8
0
9
0
0
0
14
0
17
0
0
3
0
1
0
15
0
0
7
0
0
5
0
5
0
13
0
0
11
0
0
0
0
9
0
0
3
18
3
23
0
1
7
9
0
0
17
0
0
41
0
0
1
20
0
0
0
35
0
7
0
0
1
4
3
0
2
0
16
0
0
3
8
0
0
21
0
7
0
36
0
27
0
25
0
19
0
0
0
0
2
26
11
2
0
0
0
102
51
0
3
0
6
0
0
0
0
0
0
7
0
0
16
0
0
25
16
0
2
4
1
2
2
0
7
10
0
0
20
0
0
20
0
0
5
0
3
8
0
4
5
0
7
0
0
0
6
1
0
2
0
7
0
2
0
7
13
15
19
13
0
30
0
5
12
0
6
0
1
1
66
14
0
37
0
21
0
15
5
0
10
37
0
0
0
20
0
25
23
3
26
0
0
64
0
0
5
0
24
63
0
0
10
1
0
0
48
61
0
16
0
0
3
18
0
0
0
47
0
98
0
0
0
0
58
38
6
11
5
0
4
4
0
0
0
33
22
45
0
0
62
1
0
3
0
41
9
0
0
27
104
7
0
0
0
55
0
38
0
35
0
0
32
42
0
42
0
0
40
0
0
7
0
9
0
7
13
0
14
0
19
0
0
27
0
7
0
16
0
15
6
0
0
0
11
0
0
0
8
0
19
0
9
11
0
0
15
0
11
0
8
0
2
0
0
0
14
7
0
0
1
0
0
17
5
5
0
12
0
15
0
0
0
13
0
4
0
7
0
11
0
6
0
0
7
5
0
5
1
0
4
8
0
12
0
13
0
0
5
0
1
0
0
14
0
20
8
0
4
0
0
8
0
0
14
0
0
0
6
0
9
0
0
0
13
1
10
0
0
0
11
7
0
1
1
6
9
0
0
7
0
16
0
24
7
3
9
0
1
2
0
10
3
1
6
0
9
1
0
14
4
3
0
4
0
0
6
0
13
0
7
0
19
1
4
8
0
3
4
0
6
0
0
18
0
0
1
13
0
5
9
0
3
3
5
4
0
0
2
0
0
1
6
2
0
0
0
6
0
0
5
0
4
2
3
1
0
45
40
0
0
1
2
13
0
3
31
0
0
17
10
12
0
0
0
17
0
5
11
0
9
2
0
0
19
0
0
16
0
0
5
0
18
0
0
4
6
0
16
0
21
0
0
5
0
0
5
0
22
3
7
3
4
0
0
11
0
8
0
8
7
12
0
11
0
0
7
0
16
0
7
5
13
0
0
0
17
0
0
3
3
0
0
60
4
0
2
5
0
0
9
23
0
0
2
9
0
2
2
0
6
0
0
16
2
0
19
7
0
29
0
0
2
0
18
0
0
7
29
14
0
0
0
0
0
12
0
8
0
125
48
0
6
0
0
20
0
0
8
30
0
4
0
0
1
9
0
40
0
0
0
3
4
0
7
0
8
7
6
8
36
0
0
17
0
13
0
14
0
0
5
1
0
5
0
1
12
0
14
0
3
0
17
0
3
0
0
16
0
23
6
0
40
35
0
9
0
10
0
11
0
1
13
0
14
2
43
0
8
0
41
0
99
0
0
12
0
0
4
0
0
16
0
0
0
0
28
0
5
0
18
106
0
0
24
0
0
0
69
58
0
0
0
0
7
0
6
0
11
45
0
85
0
0
48
0
0
47
34
44
0
0
0
0
0
0
0
0
0
72
0
0
0
67
14
0
0
0
22
41
0
0
50
98
0
0
0
95
0
0
0
56
34
0
11
50
32
34
0
0
0
0
0
0
0
2
3
0
4
0
0
6
0
14
0
0
0
3
18
3
26
0
8
10
4
3
0
0
0
1
0
4
10
0
0
0
0
15
0
0
10
0
7
7
0
0
0
3
1
0
0
0
3
4
0
0
0
6
8
0
0
27
0
5
0
7
0
3
13
0
2
0
1
0
0
0
0
1
13
0
5
21
0
2
0
4
0
25
0
15
0
18
0
0
14
0
6
0
0
4
0
8
10
0
0
3
0
0
5
13
0
2
0
0
24
0
0
0
0
4
0
13
0
2
10
0
0
0
0
18
0
18
0
0
0
0
0
0
0
2
17
0
0
12
0
2
0
5
0
4
3
0
0
9
0
0
8
0
0
6
1
3
0
4
0
12
0
0
0
0
7
4
4
2
0
5
0
0
4
0
2
1
13
0
0
5
0
7
0
0
27
0
8
3
0
0
1
0
0
2
0
1
3
1
2
0
4
3
6
15
49
10
0
0
0
13
0
7
0
50
33
0
6
0
20
10
0
0
17
21
0
11
19
0
0
9
5
5
0
0
0
0
12
0
0
0
0
0
0
16
0
16
0
0
2
5
7
1
0
9
0
1
0
0
6
5
7
0
0
2
0
0
0
3
10
0
18
9
0
4
16
0
10
9
0
0
3
1
25
0
0
13
0
60
0
0
0
27
20
0
0
14
7
0
12
8
0
0
1
20
10
0
21
0
6
26
0
19
0
1
9
12
0
23
0
16
2
0
1
2
0
0
0
63
0
0
0
11
0
0
0
80
45
0
10
6
0
7
1
0
0
13
0
0
0
0
17
0
0
38
2
0
0
5
0
9
0
11
0
1
0
6
36
0
0
0
4
0
2
6
0
5
0
0
9
10
1
0
4
0
0
11
0
0
1
0
12
1
7
4
0
30
0
6
32
3
21
0
15
0
18
0
0
10
30
0
0
0
0
9
0
0
63
0
0
9
20
28
0
13
0
33
0
0
33
0
0
3
50
0
0
0
0
112
0
0
0
2
0
7
101
0
0
28
15
0
13
0
12
0
26
37
7
82
0
0
34
0
0
0
86
11
33
0
0
0
46
0
0
24
0
64
39
0
0
5
61
0
0
0
27
36
0
0
0
43
63
0
0
15
30
0
0
31
66
0
29
0
52
35
0
0
0
5
4
0
2
0
8
0
0
23
0
9
8
0
24
23
0
19
0
11
2
0
0
4
0
26
0
0
0
13
2
0
8
0
5
22
0
0
5
2
0
0
4
2
6
0
8
2
0
14
0
6
0
3
2
0
3
14
0
16
0
0
5
2
0
6
0
6
1
0
0
0
1
9
0
0
8
5
0
14
0
0
0
0
0
4
9
2
1
0
0
0
0
4
8
0
0
0
5
0
13
0
0
15
0
5
0
5
0
6
0
0
13
0
5
4
0
0
11
6
0
0
6
0
0
16
0
1
15
0
16
0
2
15
0
10
0
4
12
0
0
0
0
3
0
3
0
0
4
0
1
3
5
0
0
0
3
4
9
1
0
6
6
0
5
2
5
0
2
0
8
0
10
0
0
0
4
0
6
0
5
0
0
0
4
0
1
0
4
3
2
0
2
0
6
6
4
0
1
0
0
3
0
0
0
0
5
0
2
14
47
0
0
18
23
0
28
0
7
0
0
45
0
12
0
0
0
14
0
0
11
10
0
10
7
0
0
0
0
0
28
0
1
0
31
1
0
12
3
0
14
0
2
0
8
0
0
3
5
0
13
4
2
19
0
5
0
0
7
0
0
0
10
5
0
8
6
19
12
0
9
0
0
15
0
33
0
8
0
34
17
0
9
0
0
15
3
0
0
0
6
0
0
4
0
0
12
4
0
7
0
19
0
10
10
1
0
11
0
33
0
0
0
0
5
0
0
0
0
0
0
6
0
26
0
0
7
8
2
0
22
104
43
0
25
0
7
4
0
9
30
0
4
3
12
0
15
5
0
43
0
3
7
0
0
13
0
0
6
2
4
14
25
0
0
0
0
8
0
6
0
17
0
0
2
0
4
3
0
2
0
2
0
9
0
11
0
9
0
0
16
37
0
0
43
0
38
0
0
0
0
10
0
0
36
0
0
15
17
0
0
119
0
0
0
12
1
0
11
15
0
14
0
15
47
0
44
0
32
3
14
15
0
0
30
19
0
0
0
0
75
0
0
25
0
0
0
0
0
0
0
10
0
98
0
0
79
0
33
0
50
73
11
20
0
0
0
9
0
2
71
0
103
0
0
0
45
47
0
0
0
53
43
0
0
0
88
0
0
0
44
21
0
42
82
0
4
0
19
57
42
0
0
0
13
0
0
11
0
0
0
0
0
4
2
0
5
0
3
1
0
0
0
7
8
0
4
10
5
5
8
0
4
25
0
5
0
2
0
1
0
0
6
0
4
7
0
10
0
4
0
6
3
0
6
0
0
16
0
0
2
1
1
0
6
8
0
11
0
0
0
1
28
5
0
0
1
11
0
14
0
0
3
8
2
2
0
0
3
0
5
0
0
0
0
13
0
2
4
6
1
0
8
0
0
7
1
0
7
0
16
0
11
0
7
4
0
0
0
23
0
6
0
7
0
6
0
0
0
14
0
0
0
18
0
0
31
0
6
11
0
0
9
0
4
0
5
0
0
15
0
2
6
0
4
14
4
4
0
0
11
4
0
5
0
8
0
7
0
0
9
0
0
3
7
7
0
0
6
0
13
0
2
0
0
10
0
2
0
0
3
0
9
4
0
0
0
1
0
0
0
14
0
0
3
3
2
1
0
2
3
0
42
25
0
0
17
2
0
0
0
0
0
0
3
0
16
0
0
11
0
1
11
4
0
0
3
15
0
16
0
11
0
5
23
0
0
9
0
0
2
0
0
7
3
4
5
6
0
0
0
8
0
7
0
21
0
0
10
0
10
0
5
0
0
0
9
0
6
0
0
10
0
22
0
0
27
0
0
19
9
0
19
7
0
27
0
0
0
22
0
0
0
26
0
0
10
23
0
16
7
3
0
0
9
6
0
7
14
0
2
4
4
5
34
2
0
0
0
37
2
6
0
2
38
7
0
0
4
0
48
0
0
108
68
20
0
0
6
6
0
5
0
30
0
1
0
0
9
0
8
25
3
0
0
14
0
0
0
4
0
6
8
0
40
0
0
20
5
0
10
9
0
0
0
0
2
13
0
0
0
0
8
8
0
0
4
0
1
22
0
0
29
0
0
0
2
0
37
0
0
7
0
1
0
36
0
11
0
0
0
22
3
0
12
0
13
0
21
0
0
39
0
1
0
9
17
0
33
0
16
11
0
0
0
10
0
42
0
0
0
81
74
0
0
10
16
0
8
0
12
0
0
29
1
85
0
0
38
45
0
0
29
52
57
24
0
0
0
6
0
0
97
0
51
41
0
7
0
0
54
46
0
0
30
55
0
12
0
29
0
19
0
44
8
0
37
0
0
0
0
61
22
59
35
0
0
0
0
0
0
12
0
5
13
0
0
0
16
1
7
0
14
27
0
0
0
0
19
0
0
12
0
29
0
0
0
11
0
0
22
1
2
20
0
0
1
3
2
0
0
0
11
0
0
14
29
0
2
0
3
5
0
0
15
0
5
0
22
0
0
0
15
0
2
0
0
0
20
6
0
9
0
10
0
0
0
0
6
5
9
0
2
9
6
0
19
3
8
6
1
0
0
0
10
0
0
4
0
0
0
9
2
0
0
0
11
0
4
0
0
0
17
0
0
1
3
0
3
0
12
1
2
4
2
0
0
2
0
0
0
0
0
0
8
0
0
14
0
0
0
0
9
0
5
0
8
0
0
0
10
10
0
0
5
15
0
3
0
0
4
0
0
0
22
0
4
5
0
13
0
24
0
12
11
0
0
2
0
6
1
5
0
6
0
8
7
0
3
2
5
0
0
0
0
0
10
2
0
12
0
0
0
1
32
45
0
0
0
0
14
0
0
14
3
7
0
22
5
2
0
5
0
0
0
0
0
12
0
8
0
0
0
0
15
0
0
8
0
23
0
8
0
0
0
2
6
2
0
8
0
3
0
15
0
9
0
5
0
0
0
0
7
23
0
3
32
0
17
0
23
4
7
0
11
0
27
0
0
10
0
5
0
0
0
0
14
0
0
15
24
0
6
32
2
2
0
9
0
0
17
0
2
2
0
0
12
10
8
0
0
28
0
0
0
0
0
29
0
19
14
0
1
0
16
0
0
0
0
17
2
8
0
0
7
75
41
0
6
4
2
0
0
0
13
0
27
0
0
2
0
0
7
35
7
0
5
0
4
0
12
0
4
3
0
0
33
8
0
1
0
3
0
0
4
5
0
13
0
11
0
0
3
0
0
4
0
0
0
7
1
0
8
0
10
12
0
11
7
0
25
0
0
0
46
0
0
0
0
0
0
12
15
0
0
0
6
39
7
0
66
0
0
19
0
26
0
7
19
0
73
0
1
32
0
0
12
0
0
38
0
0
0
92
72
0
0
35
0
0
0
35
2
0
0
47
5
80
0
0
19
41
0
0
0
0
19
60
26
0
0
0
9
0
68
0
39
41
0
7
0
0
0
11
0
18
10
24
5
0
0
51
0
0
0
0
0
0
43
5
0
12
0
0
45
53
87
27
0
5
17
0
0
20
0
8
0
57
0
0
0
5
0
0
7
6
12
0
5
2
0
22
1
10
0
0
6
0
13
0
0
12
0
0
11
3
0
0
13
0
0
1
8
3
0
4
16
0
0
14
0
10
0
18
0
5
0
0
7
0
0
0
0
14
3
0
6
13
1
0
0
11
0
8
0
0
13
0
8
0
0
0
0
0
0
0
18
0
0
11
0
0
5
0
4
14
0
13
12
0
0
8
0
5
0
6
0
8
5
12
0
0
27
0
0
0
14
0
8
6
0
1
0
0
7
0
2
0
0
0
21
0
2
1
15
2
0
3
0
0
20
0
4
0
0
4
0
14
0
0
11
0
2
0
11
0
0
0
22
0
0
0
5
7
0
6
0
0
0
10
0
0
13
0
1
0
1
2
0
14
0
0
8
0
0
6
5
0
0
17
0
1
4
0
2
4
0
5
0
0
0
10
0
2
9
8
22
57
0
0
0
0
0
6
10
3
0
13
0
0
23
0
0
5
12
15
0
35
2
8
0
0
11
0
16
0
1
22
0
0
11
0
16
0
0
6
4
4
7
0
16
0
6
1
4
8
0
0
1
2
0
9
15
6
0
0
27
0
0
12
0
17
0
0
2
0
17
10
0
0
27
0
3
0
3
5
6
0
3
9
0
0
0
45
0
0
0
4
14
0
5
0
1
7
0
13
16
7
0
4
0
0
8
6
0
3
6
0
26
0
19
0
8
0
11
0
0
15
0
14
3
0
8
0
15
13
0
98
39
0
5
0
16
0
4
0
20
1
0
14
0
0
0
0
0
47
0
7
0
7
4
0
0
10
0
0
3
11
29
0
0
0
10
11
3
0
3
9
0
10
0
8
0
10
0
9
1
0
9
0
6
0
5
0
6
0
12
39
3
0
0
30
0
0
2
35
10
4
0
16
4
6
0
23
2
21
0
0
0
58
0
0
0
0
29
4
0
4
0
27
0
0
11
0
0
46
0
3
0
0
0
5
26
0
0
126
21
0
0
0
38
0
0
68
5
0
0
56
0
70
0
0
0
54
0
43
0
0
0
78
14
2
0
13
0
0
35
52
0
54
0
0
18
0
0
2
24
0
75
0
32
9
0
3
33
0
0
13
0
0
0
84
0
0
39
0
16
0
0
99
19
0
10
0
0
18
14
4
0
0
11
0
1
0
24
0
16
0
0
5
8
0
14
0
5
0
5
0
0
4
7
6
0
3
2
1
7
0
18
3
0
0
0
0
0
24
0
0
0
5
12
0
0
2
7
0
6
0
2
0
3
11
0
16
0
0
3
0
0
0
0
0
0
1
0
0
12
4
25
0
2
0
0
12
0
0
7
0
0
8
0
0
0
6
0
24
0
0
5
0
2
5
0
11
1
0
1
2
13
0
0
0
0
1
0
15
16
0
0
6
0
0
0
7
4
0
0
20
0
7
0
7
0
0
13
0
9
0
0
0
3
7
0
9
10
0
6
0
6
0
10
1
0
3
7
0
0
13
0
12
0
6
4
10
3
0
0
4
0
7
0
0
4
0
0
0
7
0
1
0
7
6
0
10
0
2
0
0
4
0
10
0
0
7
0
3
0
0
0
8
7
10
0
0
3
0
1
0
18
41
0
0
0
6
8
0
0
0
7
2
7
0
0
0
25
0
0
17
8
0
7
0
20
0
0
6
0
16
0
0
19
0
0
0
10
0
0
1
0
0
0
4
15
0
7
0
22
0
19
0
0
17
0
11
0
0
11
0
0
31
0
2
0
20
0
0
15
0
1
0
0
9
9
14
25
0
4
6
0
6
0
17
0
0
7
0
11
0
10
0
2
0
7
12
0
0
19
0
9
0
0
0
0
21
1
0
0
0
0
18
0
0
12
0
0
13
0
0
0
0
14
0
0
0
6
0
0
10
0
88
45
0
20
0
10
0
2
0
15
0
0
0
0
0
0
0
0
20
11
0
0
6
0
0
9
0
0
9
0
12
12
0
0
0
0
8
0
0
10
0
11
0
0
15
0
11
0
0
0
5
0
7
0
6
0
11
0
15
4
27
20
0
26
28
0
0
0
41
0
0
0
4
0
0
12
0
23
15
0
0
0
45
0
0
42
18
0
66
0
11
0
7
10
0
5
7
0
33
0
0
0
0
0
57
30
0
71
92
0
0
0
0
34
32
0
0
5
0
0
38
0
61
0
0
0
26
4
0
0
6
0
17
58
33
43
0
0
0
43
87
0
18
0
0
14
17
18
0
0
0
0
0
8
23
0
0
37
0
0
17
9
0
0
67
58
0
0
0
13
28
0
0
100
36
0
0
24
14
0
2
2
0
19
2
6
0
0
15
0
10
1
0
0
0
0
1
0
14
0
15
0
15
0
0
0
10
0
6
0
0
0
0
15
6
4
10
0
0
5
0
0
2
3
0
0
2
0
0
3
4
8
0
0
3
0
8
0
9
0
0
0
2
0
6
0
3
0
9
2
0
0
10
0
0
0
10
0
8
0
0
3
0
4
6
6
0
11
0
0
3
0
0
0
5
0
0
1
10
0
0
0
0
5
0
1
2
0
8
0
5
0
0
0
4
0
0
0
7
0
1
0
11
0
1
0
0
0
7
0
8
0
7
7
0
0
5
0
14
0
7
10
0
24
0
3
6
0
0
6
0
14
0
3
0
7
0
0
8
0
4
3
0
0
3
0
2
9
0
1
9
0
5
0
0
10
0
1
0
5
0
1
0
1
0
0
4
0
0
0
2
1
0
0
0
0
0
3
2
0
2
7
46
11
0
5
29
6
6
11
0
6
0
5
0
6
14
0
2
0
8
0
5
0
0
15
13
10
1
5
1
9
0
2
3
0
17
0
14
0
4
9
0
6
1
0
13
3
5
3
0
3
3
0
0
12
0
0
0
0
8
0
0
0
0
0
0
3
0
0
21
0
13
9
3
1
0
2
0
4
10
0
9
1
0
4
3
13
0
0
9
3
13
11
0
5
0
7
0
0
2
2
0
7
0
0
0
0
0
0
12
0
4
0
0
0
17
0
4
5
3
20
13
3
10
30
0
5
19
0
3
3
121
88
33
55
104
49
37
52
44
75
47
39
53
55
27
75
103
142
212
205
197
192
206
196
197
206
188
192
198
180
192
179
96
85
106
116
139
132
136
164
157
173
157
160
193
162
192
179
177
180
185
171
188
175
187
180
192
163
189
177
189
140
12
113
118
57
46
32
112
30
42
31
50
36
29
59
62
88
76
4
26
51
122
9
23
107
75
33
136
19
74
50
84
81
31
81
77
51
118
54
53
44
48
57
142
117
0
176
255
56
29
47
33
107
88
0
57
68
43
44
157
112
176
0
16
25
117
78
79
57
85
0
153
178
123
102
31
39
12
169
224
46
117
14
13
61
59
57
22
54
33
91
50
90
97
56
54
102
30
19
69
53
29
54
178
127
0
16
50
121
138
34
55
190
91
27
38
85
93
78
83
80
76
108
85
94
83
88
113
91
114
106
107
112
108
113
115
102
133
111
130
106
139
116
122
113
135
118
130
117
124
129
118
138
129
130
135
122
117
132
124
126
131
133
119
127
132
129
120
132
132
138
129
133
137
127
143
122
138
130
128
131
134
126
139
133
139
133
147
143
126
133
141
131
131
126
148
127
143
130
133
142
133
142
142
144
129
152
142
137
144
137
135
144
151
143
139
147
154
143
136
145
141
149
142
140
144
137
158
142
151
139
148
146
148
139
149
146
156
145
155
143
161
145
150
147
148
145
157
142
156
144
155
157
140
148
157
145
160
139
157
166
145
184
136
158
163
150
156
164
153
174
150
165
164
174
164
158
172
155
172
170
169
166
175
170
174
182
161
181
189
183
187
181
182
199
189
193
189
199
192
198
186
202
200
195
208
200
203
203
207
208
205
211
211
204
206
214
212
207
214
220
243
149
88
97
125
99
89
99
77
100
87
98
83
94
106
87
99
90
119
99
109
107
81
134
126
127
125
130
134
140
129
135
129
121
137
108
135
122
127
131
112
126
127
130
143
139
141
145
130
140
131
123
115
127
106
97
99
71
100
89
93
82
81
81
61
85
73
64
93
48
88
88
90
94
86
99
85
94
100
73
94
82
73
83
87
105
84
100
115
119
131
136
109
136
129
134
120
126
121
119
94
103
81
79
51
59
59
57
65
44
58
40
37
35
62
36
56
51
55
73
72
73
79
109
79
97
115
92
107
103
219
